;FLAVOR:Marlin
;TIME:1133
;Filament used: 0.421525m
;Layer height: 0.13125
;MINX:29.35
;MINY:51.6
;MINZ:0.263
;MAXX:90.65
;MAXY:68.4
;MAXZ:10.088
;Generated with Cura_SteamEngine mb-master-20191108
M140 S65
M105
M190 S65
M104 S205
M105
M109 S205
M82 ;absolute extrusion mode
G21;(metric values)
G90;(absolute positioning)
M82;(set extruder to absolute mode)
M107;(start with the fan off)
G28;(Home the printer)
G92 E0;(Reset the extruder to 0)
G0 Z5 E5 F500;(Move up and prime the nozzle)
G0 X-1 Z0;(Move outside the printable area)
G1 Y60 E8 F500;(Draw a priming/wiping line to the rear)
G1 X-1;(Move a little closer to the print area)
G1 Y10 E16 F500;(draw more priming/wiping)
G1 E15 F250;(Small retract)
G92 E0;(Zero the extruder)
G92 E0
G92 E0
G1 F2400 E-2.5
;LAYER_COUNT:76
;LAYER:0
M107
;MESH:Raspberry_Pi_B+_Sleeve_v2-1_CAP.STL
G0 F4320 X86.527 Y62.703 Z0.263
;TYPE:WALL-INNER
G1 F2400 E0
G1 F1800 X87.159 Y62.358 E0.02756
G1 X87.581 Y61.798 E0.05439
G1 X87.725 Y61.197 E0.07804
G1 X87.725 Y52.275 E0.41949
G1 X88.117 Y52.275 E0.43449
G1 X88.511 Y52.298 E0.44959
G1 X88.863 Y52.392 E0.46354
G1 X89.174 Y52.549 E0.47687
G1 X89.464 Y52.783 E0.49113
G1 X89.692 Y53.063 E0.50495
G1 X89.853 Y53.376 E0.51842
G1 X89.95 Y53.739 E0.5328
G1 X89.975 Y54.023 E0.54371
G1 X89.975 Y65.961 E1.00057
G1 X89.935 Y66.354 E1.01569
G1 X89.825 Y66.693 E1.02933
G1 X89.642 Y67.011 E1.04337
G1 X89.406 Y67.275 E1.05692
G1 X89.121 Y67.483 E1.07043
G1 X88.783 Y67.634 E1.08459
G1 X88.433 Y67.709 E1.09829
G1 X31.789 Y67.725 E3.26606
G1 X31.396 Y67.685 E3.28117
G1 X31.057 Y67.575 E3.29481
G1 X30.739 Y67.392 E3.30885
G1 X30.475 Y67.156 E3.32241
G1 X30.268 Y66.872 E3.33585
G1 X30.115 Y66.531 E3.35016
G1 X30.041 Y66.183 E3.36377
G1 X30.025 Y54.039 E3.82852
G1 X30.065 Y53.646 E3.84364
G1 X30.175 Y53.307 E3.85728
G1 X30.358 Y52.989 E3.87132
G1 X30.594 Y52.725 E3.88487
G1 X30.878 Y52.518 E3.89832
G1 X31.219 Y52.366 E3.91261
G1 X31.568 Y52.291 E3.92627
G1 X33.7 Y52.279 E4.00787
G1 X33.875 Y52.279 E4.01456
G1 X33.875 Y52.454 E4.01624
G1 X33.873 Y62.211 E4.38964
G1 X34.041 Y62.847 E4.41481
G1 X34.488 Y63.395 E4.44188
G1 X35.083 Y63.696 E4.46739
G1 X35.493 Y63.75 E4.48322
G1 X50.642 Y63.75 E5.06297
G1 X51.237 Y63.623 E5.08626
G1 X51.783 Y63.234 E5.11191
G1 X52.14 Y62.652 E5.13804
G1 X52.225 Y62.148 E5.1576
G1 X52.225 Y52.275 E5.53544
G1 X53.875 Y52.275 E5.59859
G1 X53.875 Y61.167 E5.93888
G1 X54.002 Y61.761 E5.96213
G1 X54.387 Y62.303 E5.98757
G1 X54.941 Y62.653 E6.01265
G1 X55.471 Y62.75 E6.03327
G1 X67.805 Y62.75 E6.50529
G1 X68.52 Y62.703 E6.53271
G1 X69.122 Y62.386 E6.55875
G1 X69.561 Y61.84 E6.58556
G1 X69.724 Y61.228 E6.6098
G1 X69.725 Y52.275 E6.95243
G1 X71.875 Y52.275 E7.03471
G1 X71.875 Y61.167 E7.37501
G1 X72.002 Y61.761 E7.39825
G1 X72.387 Y62.303 E7.4237
G1 X72.941 Y62.653 E7.44877
G1 X73.471 Y62.75 E7.46939
G1 X85.805 Y62.75 E7.94142
G1 X85.834 Y62.748 E7.94253
G0 F1620 X86.527 Y62.703
G0 F4320 X86.427 Y62.359
G1 F1800 X86.925 Y62.087 E7.96424
G1 X87.258 Y61.646 E7.98539
G1 X87.375 Y61.156 E8.00467
G1 X87.375 Y51.925 E8.35794
G1 X88.12 Y51.925 E8.38645
G1 X88.568 Y51.951 E8.40363
G1 X88.988 Y52.063 E8.42026
G1 X89.369 Y52.256 E8.43661
G1 X89.709 Y52.53 E8.45332
G1 X89.988 Y52.872 E8.47021
G1 X90.181 Y53.249 E8.48642
G1 X90.297 Y53.68 E8.5035
G1 X90.325 Y54.01 E8.51617
G1 X90.325 Y65.976 E8.97411
G1 X90.279 Y66.428 E8.9915
G1 X90.147 Y66.835 E9.00787
G1 X89.927 Y67.217 E9.02474
G1 X89.642 Y67.536 E9.04111
G1 X89.297 Y67.788 E9.05746
G1 X88.893 Y67.968 E9.07439
G1 X88.47 Y68.059 E9.09095
G1 X31.774 Y68.075 E11.2607
G1 X31.322 Y68.029 E11.27809
G1 X30.915 Y67.897 E11.29446
G1 X30.533 Y67.677 E11.31133
G1 X30.214 Y67.392 E11.3277
G1 X29.962 Y67.047 E11.34405
G1 X29.782 Y66.644 E11.36095
G1 X29.691 Y66.219 E11.37758
G1 X29.675 Y54.023 E11.84432
G1 X29.721 Y53.572 E11.86167
G1 X29.853 Y53.165 E11.87804
G1 X30.073 Y52.783 E11.89491
G1 X30.358 Y52.464 E11.91128
G1 X30.703 Y52.212 E11.92763
G1 X31.106 Y52.032 E11.94453
G1 X31.532 Y51.941 E11.9612
G1 X34.05 Y51.927 E12.05756
G1 X34.225 Y51.927 E12.06426
G1 X34.225 Y52.102 E12.06593
G1 X34.223 Y62.166 E12.45108
G1 X34.36 Y62.684 E12.47159
G1 X34.712 Y63.116 E12.49291
G1 X35.188 Y63.357 E12.51333
G1 X35.516 Y63.4 E12.52599
G1 X50.605 Y63.4 E13.10345
G1 X51.093 Y63.296 E13.12254
G1 X51.522 Y62.99 E13.14271
G1 X51.806 Y62.527 E13.1635
G1 X51.875 Y62.119 E13.17933
G1 X51.875 Y51.925 E13.56946
G1 X54.225 Y51.925 E13.65939
G1 X54.225 Y61.13 E14.01166
G1 X54.329 Y61.617 E14.03072
G1 X54.632 Y62.044 E14.05076
G1 X55.071 Y62.321 E14.07062
G1 X55.503 Y62.4 E14.08743
G1 X67.794 Y62.4 E14.55781
G1 X68.423 Y62.359 E14.58193
G1 X68.895 Y62.11 E14.60235
G1 X69.242 Y61.678 E14.62356
G1 X69.374 Y61.182 E14.6432
G1 X69.375 Y51.925 E14.99747
G1 X72.225 Y51.925 E15.10654
G1 X72.225 Y61.13 E15.45881
G1 X72.329 Y61.617 E15.47787
G1 X72.632 Y62.044 E15.49791
G1 X73.071 Y62.321 E15.51777
G1 X73.503 Y62.4 E15.53458
G1 X85.734 Y62.4 E16.00266
G0 F1620 X85.794 Y62.4
G0 X86.427 Y62.359
G0 F4320 X86.334 Y62.039
;TYPE:WALL-OUTER
G1 F1800 X86.708 Y61.835 E16.01896
G1 X86.958 Y61.504 E16.03484
G1 X87.05 Y61.118 E16.05002
G1 X87.05 Y51.6 E16.41427
G1 X88.122 Y51.6 E16.4553
G1 X88.622 Y51.629 E16.47447
G1 X89.105 Y51.758 E16.4936
G1 X89.546 Y51.981 E16.51251
G1 X89.941 Y52.3 E16.53194
G1 X90.26 Y52.69 E16.55122
G1 X90.487 Y53.134 E16.57031
G1 X90.619 Y53.623 E16.58969
G1 X90.65 Y54 E16.60417
G1 X90.65 Y65.99 E17.06303
G1 X90.598 Y66.496 E17.08249
G1 X90.445 Y66.969 E17.10152
G1 X90.194 Y67.405 E17.12077
G1 X89.86 Y67.779 E17.13996
G1 X89.459 Y68.072 E17.15897
G1 X88.996 Y68.279 E17.17838
G1 X88.505 Y68.384 E17.19759
G1 X31.76 Y68.4 E19.36922
G1 X31.254 Y68.348 E19.38869
G1 X30.781 Y68.195 E19.40771
G1 X30.345 Y67.944 E19.42696
G1 X29.971 Y67.61 E19.44615
G1 X29.678 Y67.209 E19.46516
G1 X29.471 Y66.746 E19.48457
G1 X29.366 Y66.254 E19.50382
G1 X29.35 Y54.01 E19.9724
G1 X29.402 Y53.504 E19.99187
G1 X29.555 Y53.031 E20.01089
G1 X29.806 Y52.595 E20.03014
G1 X30.14 Y52.221 E20.04933
G1 X30.541 Y51.928 E20.06834
G1 X31.004 Y51.721 E20.08775
G1 X31.496 Y51.616 E20.107
G1 X34.375 Y51.6 E20.21718
G1 X34.55 Y51.6 E20.22388
G1 X34.55 Y51.775 E20.22555
G1 X34.548 Y62.124 E20.62161
G1 X34.656 Y62.533 E20.6378
G1 X34.92 Y62.857 E20.65379
G1 X35.285 Y63.042 E20.66945
G1 X35.537 Y63.075 E20.67918
G1 X50.571 Y63.075 E21.25453
G1 X50.959 Y62.992 E21.26972
G1 X51.28 Y62.764 E21.28478
G1 X51.496 Y62.411 E21.30062
G1 X51.55 Y62.092 E21.313
G1 X51.55 Y51.6 E21.71453
G1 X54.55 Y51.6 E21.82934
G1 X54.55 Y61.096 E22.19275
G1 X54.633 Y61.484 E22.20794
G1 X54.86 Y61.804 E22.22295
G1 X55.191 Y62.013 E22.23793
G1 X55.532 Y62.075 E22.2512
G1 X67.783 Y62.075 E22.72004
G1 X68.333 Y62.039 E22.74114
G1 X68.684 Y61.854 E22.75632
G1 X68.946 Y61.528 E22.77233
G1 X69.049 Y61.14 E22.78769
G1 X69.05 Y51.6 E23.15278
G1 X72.55 Y51.6 E23.28673
G1 X72.55 Y61.096 E23.65014
G1 X72.633 Y61.484 E23.66533
G1 X72.86 Y61.804 E23.68034
G1 X73.191 Y62.013 E23.69532
G1 X73.532 Y62.075 E23.70859
G1 X85.641 Y62.075 E24.172
G0 F1620 X85.783 Y62.075
G0 X86.334 Y62.039
G0 F4320 X86.509 Y61.944
G0 X86.639 Y62.185
G0 X86.624 Y63.037
;TYPE:SKIN
G1 F1800 X87.386 Y62.621 E24.20522
G1 X87.895 Y61.946 E24.23757
G1 X88.065 Y61.237 E24.26548
G1 X88.065 Y52.615 E24.59544
G1 X88.097 Y52.615 E24.59666
G1 X88.462 Y52.636 E24.61066
G1 X88.739 Y52.71 E24.62163
G1 X88.988 Y52.836 E24.63231
G1 X89.224 Y53.026 E24.6439
G1 X89.405 Y53.248 E24.65487
G1 X89.535 Y53.502 E24.66578
G1 X89.614 Y53.8 E24.67758
G1 X89.635 Y54.023 E24.68616
G1 X89.635 Y65.946 E25.14245
G1 X89.601 Y66.284 E25.15545
G1 X89.513 Y66.553 E25.16628
G1 X89.365 Y66.811 E25.17766
G1 X89.174 Y67.024 E25.18861
G1 X88.954 Y67.185 E25.19904
G1 X88.675 Y67.31 E25.21074
G1 X88.399 Y67.369 E25.22155
G1 X31.804 Y67.385 E27.38743
G1 X31.466 Y67.351 E27.40043
G1 X31.197 Y67.263 E27.41126
G1 X30.939 Y67.115 E27.42265
G1 X30.726 Y66.924 E27.4336
G1 X30.568 Y66.708 E27.44384
G1 X30.437 Y66.417 E27.45605
G1 X30.381 Y66.151 E27.46645
G1 X30.365 Y54.054 E27.92941
G1 X30.399 Y53.716 E27.94241
G1 X30.487 Y53.447 E27.95324
G1 X30.635 Y53.189 E27.96462
G1 X30.826 Y52.976 E27.97557
G1 X31.045 Y52.816 E27.98595
G1 X31.327 Y52.69 E27.99777
G1 X31.604 Y52.631 E28.00861
G1 X33.535 Y52.621 E28.08251
G1 X33.533 Y62.255 E28.4512
G1 X33.731 Y63.005 E28.48089
G1 X34.27 Y63.665 E28.5135
G1 X34.982 Y64.026 E28.54405
G1 X35.471 Y64.09 E28.56292
G1 X50.677 Y64.09 E29.14485
G1 X51.377 Y63.941 E29.17224
G1 X52.037 Y63.471 E29.20325
G1 X52.464 Y62.774 E29.23453
G1 X52.565 Y62.177 E29.25771
G1 X52.565 Y52.615 E29.62364
G1 X53.535 Y52.615 E29.66076
G1 X53.535 Y61.202 E29.98939
G1 X53.684 Y61.901 E30.01674
G1 X54.148 Y62.555 E30.04743
G1 X54.815 Y62.976 E30.07761
G1 X55.44 Y63.09 E30.10193
G1 X67.816 Y63.09 E30.57556
G1 X68.615 Y63.037 E30.6062
G1 X69.343 Y62.654 E30.63768
G1 X69.871 Y61.997 E30.66994
G1 X70.064 Y61.273 E30.69861
G1 X70.065 Y52.615 E31.02995
G1 X71.535 Y52.615 E31.08621
G1 X71.535 Y61.202 E31.41484
G1 X71.684 Y61.901 E31.44219
G1 X72.148 Y62.555 E31.47288
G1 X72.815 Y62.976 E31.50306
G1 X73.44 Y63.09 E31.52737
G1 X85.816 Y63.09 E32.001
G1 X85.931 Y63.082 E32.00541
G0 F1620 X86.624 Y63.037
G0 F4320 X86.553 Y62.789
G0 X87.156 Y61.597
G0 X87.896 Y59.093
G0 X87.882 Y52.432
G0 X89.093 Y52.672
G0 X89.854 Y53.71
G0 X89.455 Y53.817
G1 F1800 X88.43 Y52.791 E32.06092
G0 F4320 X88.221 Y53.078
G1 F1800 X89.477 Y54.334 E32.12889
G0 F4320 X89.477 Y54.829
G1 F1800 X88.221 Y53.573 E32.19687
G0 F4320 X88.221 Y54.068
G1 F1800 X89.477 Y55.324 E32.26485
G0 F4320 X89.477 Y55.819
G1 F1800 X88.221 Y54.563 E32.33282
G0 F4320 X88.221 Y55.058
G1 F1800 X89.477 Y56.313 E32.40077
G0 F4320 X89.477 Y56.808
G1 F1800 X88.221 Y55.553 E32.46872
G0 F4320 X88.221 Y56.048
G1 F1800 X89.477 Y57.303 E32.53667
G0 F4320 X89.477 Y57.798
G1 F1800 X88.221 Y56.543 E32.60462
G0 F4320 X88.221 Y57.038
G1 F1800 X89.477 Y58.293 E32.67257
G0 F4320 X89.477 Y58.788
G1 F1800 X88.221 Y57.533 E32.74052
G0 F4320 X88.221 Y58.028
G1 F1800 X89.477 Y59.283 E32.80847
G0 F4320 X89.477 Y59.778
G1 F1800 X88.221 Y58.522 E32.87645
G0 F4320 X88.221 Y59.017
G1 F1800 X89.477 Y60.273 E32.94443
G0 F4320 X89.477 Y60.768
G1 F1800 X88.221 Y59.512 E33.01241
G0 F4320 X88.221 Y60.007
G1 F1800 X89.477 Y61.263 E33.08038
G0 F4320 X89.477 Y61.758
G1 F1800 X88.221 Y60.502 E33.14836
G0 F4320 X88.221 Y60.997
G1 F1800 X89.477 Y62.253 E33.21634
G0 F4320 X89.477 Y62.748
G1 F1800 X88.174 Y61.446 E33.28683
G0 F4320 X88.079 Y61.845
G1 F1800 X89.477 Y63.243 E33.36249
G0 F4320 X89.477 Y63.738
G1 F1800 X87.916 Y62.178 E33.44695
G0 F4320 X87.703 Y62.46
G1 F1800 X89.477 Y64.233 E33.54294
G0 F4320 X89.477 Y64.728
G1 F1800 X87.491 Y62.742 E33.65042
G0 F4320 X87.17 Y62.916
G1 F1800 X89.477 Y65.223 E33.77528
G0 F4320 X89.477 Y65.718
G1 F1800 X86.85 Y63.091 E33.91746
G0 F4320 X86.468 Y63.204
G1 F1800 X89.453 Y66.189 E34.07901
G0 F4320 X89.328 Y66.559
G1 F1800 X86.003 Y63.235 E34.25894
G0 F4320 X85.521 Y63.247
G1 F1800 X89.12 Y66.847 E34.45375
G0 F4320 X88.841 Y67.062
G1 F1800 X85.026 Y63.247 E34.66023
G0 F4320 X84.531 Y63.247
G1 F1800 X88.475 Y67.191 E34.87368
G0 F4320 X88 Y67.211
G1 F1800 X84.036 Y63.247 E35.08822
G0 F4320 X83.541 Y63.247
G1 F1800 X87.505 Y67.211 E35.30276
G0 F4320 X87.01 Y67.211
G1 F1800 X83.046 Y63.247 E35.5173
G0 F4320 X82.551 Y63.247
G1 F1800 X86.515 Y67.211 E35.73184
G0 F4320 X86.02 Y67.211
G1 F1800 X82.056 Y63.247 E35.94638
G0 F4320 X81.561 Y63.247
G1 F1800 X85.526 Y67.212 E36.16097
G0 F4320 X85.031 Y67.212
G1 F1800 X81.066 Y63.247 E36.37557
G0 F4320 X80.571 Y63.247
G1 F1800 X84.536 Y67.212 E36.59016
G0 F4320 X84.041 Y67.212
G1 F1800 X80.076 Y63.247 E36.80475
G0 F4320 X79.581 Y63.247
G1 F1800 X83.546 Y67.212 E37.01935
G0 F4320 X83.052 Y67.213
G1 F1800 X79.086 Y63.247 E37.23399
G0 F4320 X78.591 Y63.247
G1 F1800 X82.557 Y67.213 E37.44864
G0 F4320 X82.062 Y67.213
G1 F1800 X78.096 Y63.247 E37.66329
G0 F4320 X77.601 Y63.247
G1 F1800 X81.567 Y67.213 E37.87794
G0 F4320 X81.072 Y67.213
G1 F1800 X77.106 Y63.247 E38.09258
G0 F4320 X76.611 Y63.247
G1 F1800 X80.578 Y67.214 E38.30728
G0 F4320 X80.083 Y67.214
G1 F1800 X76.116 Y63.247 E38.52199
G0 F4320 X75.621 Y63.247
G1 F1800 X79.588 Y67.214 E38.73669
G0 F4320 X79.093 Y67.214
G1 F1800 X75.126 Y63.247 E38.95139
G0 F4320 X74.631 Y63.247
G1 F1800 X78.598 Y67.214 E39.16609
G0 F4320 X78.103 Y67.214
G1 F1800 X74.136 Y63.247 E39.38079
G0 F4320 X73.641 Y63.247
G1 F1800 X77.609 Y67.214 E39.59552
G0 F4320 X77.114 Y67.214
G1 F1800 X73.084 Y63.184 E39.81363
G1 X73.022 Y63.122
G0 F4320 X72.144 Y62.74
G1 F1800 X76.619 Y67.214 E40.0558
G0 F4320 X76.124 Y67.214
G1 F1800 X70.216 Y61.306 E40.37555
G0 F4320 X70.112 Y61.697
G1 F1800 X75.629 Y67.214 E40.67414
G0 F4320 X75.135 Y67.215
G1 F1800 X70.002 Y62.083 E40.95192
G0 F4320 X69.782 Y62.357
G1 F1800 X74.64 Y67.215 E41.21485
G0 F4320 X74.145 Y67.215
G1 F1800 X69.561 Y62.631 E41.46294
G0 F4320 X69.292 Y62.858
G1 F1800 X73.65 Y67.215 E41.69878
G0 F4320 X73.155 Y67.215
G1 F1800 X68.968 Y63.028 E41.92539
G0 F4320 X68.637 Y63.192
G1 F1800 X72.66 Y67.216 E42.14314
G0 F4320 X72.165 Y67.216
G1 F1800 X68.173 Y63.223 E42.35923
G0 F4320 X67.701 Y63.247
G1 F1800 X71.67 Y67.216 E42.57404
G0 F4320 X71.175 Y67.216
G1 F1800 X67.206 Y63.247 E42.78885
G0 F4320 X66.711 Y63.247
G1 F1800 X70.68 Y67.216 E43.00366
G0 F4320 X70.186 Y67.216
G1 F1800 X66.217 Y63.247 E43.21847
G0 F4320 X65.722 Y63.247
G1 F1800 X69.691 Y67.216 E43.43327
G0 F4320 X69.196 Y67.216
G1 F1800 X65.227 Y63.247 E43.64808
G0 F4320 X64.732 Y63.247
G1 F1800 X68.701 Y67.216 E43.86289
G0 F4320 X68.206 Y67.216
G1 F1800 X64.237 Y63.247 E44.0777
G0 F4320 X63.742 Y63.247
G1 F1800 X67.712 Y67.217 E44.29257
G0 F4320 X67.217 Y67.217
G1 F1800 X63.247 Y63.247 E44.50743
G0 F4320 X62.752 Y63.247
G1 F1800 X66.722 Y67.217 E44.7223
G0 F4320 X66.227 Y67.217
G1 F1800 X62.257 Y63.247 E44.93716
G0 F4320 X61.762 Y63.247
G1 F1800 X65.732 Y67.217 E45.15202
G0 F4320 X65.238 Y67.218
G1 F1800 X61.267 Y63.247 E45.36694
G0 F4320 X60.772 Y63.247
G1 F1800 X64.743 Y67.218 E45.58186
G0 F4320 X64.248 Y67.218
G1 F1800 X60.277 Y63.247 E45.79678
G0 F4320 X59.782 Y63.247
G1 F1800 X63.753 Y67.218 E46.01169
G0 F4320 X63.258 Y67.218
G1 F1800 X59.287 Y63.247 E46.22661
G0 F4320 X58.792 Y63.247
G1 F1800 X62.763 Y67.218 E46.44153
G0 F4320 X62.269 Y67.218
G1 F1800 X58.297 Y63.247 E46.65648
G0 F4320 X57.802 Y63.247
G1 F1800 X61.774 Y67.218 E46.87142
G0 F4320 X61.279 Y67.218
G1 F1800 X57.307 Y63.247 E47.08637
G0 F4320 X56.812 Y63.247
G1 F1800 X60.784 Y67.218 E47.30131
G0 F4320 X60.289 Y67.218
G1 F1800 X56.317 Y63.247 E47.51626
G0 F4320 X55.822 Y63.247
G1 F1800 X59.795 Y67.219 E47.73126
G0 F4320 X59.3 Y67.219
G1 F1800 X55.304 Y63.224 E47.9475
G0 F4320 X54.63 Y63.044
G1 F1800 X58.805 Y67.219 E48.17346
G0 F4320 X58.31 Y67.219
G1 F1800 X52.721 Y61.631 E48.47592
G0 F4320 X52.721 Y61.136
G1 F1800 X53.532 Y61.947 E48.51981
G0 F4320 X53.4 Y61.32
G1 F1800 X52.721 Y60.641 E48.55656
G0 F4320 X52.721 Y60.146
G1 F1800 X53.378 Y60.802 E48.59209
G0 F4320 X53.378 Y60.307
G1 F1800 X52.721 Y59.651 E48.62762
G0 F4320 X52.721 Y59.156
G1 F1800 X53.378 Y59.812 E48.66315
G0 F4320 X53.378 Y59.317
G1 F1800 X52.721 Y58.661 E48.69868
G0 F4320 X52.721 Y58.166
G1 F1800 X53.378 Y58.822 E48.73421
G0 F4320 X53.378 Y58.327
G1 F1800 X52.721 Y57.671 E48.76975
G0 F4320 X52.721 Y57.176
G1 F1800 X53.378 Y57.832 E48.80528
G0 F4320 X53.378 Y57.337
G1 F1800 X52.721 Y56.681 E48.84081
G0 F4320 X52.721 Y56.186
G1 F1800 X53.378 Y56.842 E48.87634
G0 F4320 X53.378 Y56.347
G1 F1800 X52.721 Y55.691 E48.91187
G0 F4320 X52.721 Y55.196
G1 F1800 X53.378 Y55.852 E48.9474
G0 F4320 X53.378 Y55.357
G1 F1800 X52.721 Y54.701 E48.98293
G0 F4320 X52.721 Y54.206
G1 F1800 X53.378 Y54.863 E49.01849
G0 F4320 X53.378 Y54.368
G1 F1800 X52.721 Y53.711 E49.05405
G0 F4320 X52.721 Y53.216
G1 F1800 X53.378 Y53.873 E49.08961
G0 F4320 X53.378 Y53.378
G1 F1800 X52.772 Y52.772 E49.1224
G0 F4320 X53.267 Y52.772
G1 F1800 X53.378 Y52.883 E49.12841
G0 F4320 X53.79 Y52.883
G0 X52.382 Y52.432
G0 X52.31 Y62.126
G0 X52.721 Y62.126
G1 F1800 X57.815 Y67.219 E49.40408
G0 F4320 X57.32 Y67.22
G1 F1800 X52.658 Y62.558 E49.6564
G0 F4320 X52.545 Y62.94
