;FLAVOR:Marlin
;TIME:1531
;Filament used: 0.586853m
;Layer height: 0.13125
;MINX:48.198
;MINY:46.836
;MINZ:0.263
;MAXX:71.802
;MAXY:72.3
;MAXZ:8.385
;Generated with Cura_SteamEngine mb-master-20191108
M140 S65
M105
M190 S65
M104 S205
M105
M109 S205
M82 ;absolute extrusion mode
G21;(metric values)
G90;(absolute positioning)
M82;(set extruder to absolute mode)
M107;(start with the fan off)
G28;(Home the printer)
G92 E0;(Reset the extruder to 0)
G0 Z5 E5 F500;(Move up and prime the nozzle)
G0 X-1 Z0;(Move outside the printable area)
G1 Y60 E8 F500;(Draw a priming/wiping line to the rear)
G1 X-1;(Move a little closer to the print area)
G1 Y10 E16 F500;(draw more priming/wiping)
G1 E15 F250;(Small retract)
G92 E0;(Zero the extruder)
G92 E0
G92 E0
G1 F2400 E-2.5
;LAYER_COUNT:63
;LAYER:0
M107
;MESH:voltage_converter_mount.stl
G0 F4320 X63.772 Y55.893 Z0.263
;TYPE:WALL-INNER
G1 F2400 E0
G1 F1800 X63.751 Y55.181 E0.02726
G1 X63.6 Y54.488 E0.0544
G1 X63.32 Y53.833 E0.08166
G1 X62.922 Y53.244 E0.10887
G1 X62.411 Y52.727 E0.13669
G1 X61.82 Y52.326 E0.16402
G1 X61.168 Y52.043 E0.19122
G1 X60.473 Y51.888 E0.21847
G1 X59.762 Y51.866 E0.2457
G1 X59.06 Y51.978 E0.2729
G1 X58.392 Y52.219 E0.30008
G1 X57.779 Y52.579 E0.32728
G1 X57.256 Y53.039 E0.35394
G1 X56.82 Y53.599 E0.3811
G1 X56.495 Y54.229 E0.40823
G1 X56.293 Y54.91 E0.43541
G1 X56.223 Y55.618 E0.46264
G1 X56.283 Y56.326 E0.48983
G1 X56.48 Y57.011 E0.51711
G1 X56.798 Y57.647 E0.54432
G1 X57.233 Y58.212 E0.57161
G1 X57.778 Y58.694 E0.59946
G1 X58.391 Y59.057 E0.62672
G1 X59.061 Y59.298 E0.65397
G1 X59.762 Y59.409 E0.68113
G1 X60.473 Y59.387 E0.70835
G1 X61.168 Y59.232 E0.7356
G1 X61.821 Y58.949 E0.76284
G1 X62.409 Y58.549 E0.79006
G1 X62.899 Y58.059 E0.81658
G1 X63.301 Y57.475 E0.84371
G1 X63.592 Y56.811 E0.87145
G1 X63.639 Y56.574 E0.8807
G0 F1620 X63.772 Y55.893
G1 F2400 E-1.6193
G0 F4320 X63.446 Y57.556
G0 X61.951 Y56.722
G0 X68.032 Y68.524
G0 X67.597 Y66.835
G0 X67.953 Y67.452
G0 X68.973 Y67.543
G0 X69.913 Y68.319
G0 X70.203 Y69.387
G0 X70.026 Y71.043
G1 F2400 E0.8807
G1 F1800 X70.153 Y70.855 E0.88938
G1 X70.262 Y70.695 E0.89679
G1 X70.262 Y70.928 E0.89947
G1 X70.239 Y71.076 E0.90215
G1 X70.22 Y71.192 E0.90591
G1 X70.134 Y71.362 E0.9132
G1 X70.001 Y71.494 E0.92037
G1 X69.997 Y71.498 E0.92059
G1 X69.828 Y71.585 E0.92786
G1 X69.567 Y71.625 E0.93797
G1 X69.426 Y71.625 E0.94337
G1 X69.101 Y71.625 E0.9558
G1 X69.426 Y71.507 E0.95855
G1 X69.64 Y71.342 E0.96651
G1 X69.79 Y71.226 E0.9732
G1 X69.939 Y71.111 E0.97998
G1 X70.026 Y71.043 E0.98304
G0 F4320 X68.619 Y71.31
G0 X66.693 Y71.45
G0 X53.277 Y71.452
G0 X53.962 Y70.401
G1 F1800 X54.182 Y69.542 E1.01698
G1 X54.11 Y68.773 E1.04653
G1 X53.807 Y68.069 E1.07586
G1 X53.301 Y67.497 E1.10509
G1 X52.645 Y67.109 E1.13426
G1 X51.9 Y66.944 E1.16346
G1 X51.144 Y67.016 E1.19252
G1 X50.442 Y67.319 E1.22179
G1 X50.051 Y67.665 E1.24177
G1 X49.873 Y67.822 E1.25085
G1 X49.738 Y68.05 E1.26099
G1 X49.738 Y67.822 E1.26245
G1 X49.738 Y67.584 E1.26829
G1 X49.738 Y49.072 E1.97674
G1 X49.78 Y48.808 E1.98697
G1 X49.866 Y48.638 E1.99427
G1 X50.004 Y48.501 E2.00171
G1 X50.184 Y48.409 E2.00944
G1 X50.349 Y48.378 E2.01587
G1 X69.563 Y48.375 E2.75119
G1 X69.833 Y48.418 E2.76165
G1 X70.001 Y48.504 E2.76887
G1 X70.133 Y48.636 E2.77602
G1 X70.22 Y48.808 E2.78339
G1 X70.262 Y49.072 E2.79362
G1 X70.262 Y67.557 E3.50104
G1 X70.262 Y68.018 E3.51869
G1 X69.957 Y67.673 E3.52637
G1 X69.801 Y67.497 E3.53537
G1 X69.145 Y67.109 E3.56453
G1 X68.4 Y66.944 E3.59374
G1 X67.644 Y67.016 E3.6228
G1 X66.942 Y67.319 E3.65206
G1 X66.373 Y67.822 E3.68112
G1 X65.985 Y68.478 E3.71029
G1 X65.819 Y69.222 E3.73946
G1 X65.89 Y69.976 E3.76845
G1 X66.19 Y70.676 E3.79759
G1 X66.689 Y71.243 E3.8265
G1 X66.777 Y71.299 E3.83049
G1 X67.228 Y71.584 E3.85091
G1 X67.37 Y71.625 E3.85656
G1 X67.228 Y71.625 E3.85687
G1 X66.695 Y71.625 E3.86739
G1 X53.265 Y71.625 E4.38136
G1 X52.926 Y71.625 E4.39433
G1 X52.601 Y71.625 E4.40677
G1 X52.926 Y71.507 E4.40951
G1 X53.194 Y71.3 E4.41772
G1 X53.526 Y71.043 E4.43378
G1 X53.93 Y70.448 E4.46131
G0 F1620 X53.962 Y70.401
G0 F4320 X52.7 Y71.099
G0 X51.946 Y71.315
G0 X50.189 Y71.243
G1 F1800 X50.326 Y71.33 E4.46752
G1 X50.538 Y71.464 E4.47712
G1 X50.728 Y71.584 E4.48572
G1 X50.87 Y71.625 E4.49137
G1 X50.728 Y71.625 E4.49168
G1 X50.437 Y71.625 E4.49672
G1 X50.167 Y71.582 E4.50397
G1 X50.047 Y71.521 E4.50845
G1 X49.999 Y71.496 E4.51046
G1 X49.867 Y71.364 E4.5176
G1 X49.78 Y71.192 E4.52498
G1 X49.738 Y70.928 E4.53521
G1 X49.738 Y70.731 E4.54275
G1 X49.835 Y70.841 E4.54352
G1 X49.985 Y71.011 E4.54898
G1 X50.108 Y71.151 E4.55518
G1 X50.189 Y71.243 E4.55944
G0 F4320 X51.506 Y71.329
G0 X52.7 Y71.099
G0 X53.638 Y70.255
G1 F1800 X53.828 Y69.514 E4.58871
G1 X53.767 Y68.861 E4.61381
G1 X53.508 Y68.259 E4.63889
G1 X53.075 Y67.77 E4.66389
G1 X52.515 Y67.439 E4.68878
G1 X51.878 Y67.298 E4.71375
G1 X51.232 Y67.359 E4.73858
G1 X50.632 Y67.618 E4.76359
G1 X50.146 Y68.048 E4.78843
G1 X49.815 Y68.608 E4.81332
G1 X49.737 Y68.957 E4.82701
G1 X49.673 Y69.244 E4.83826
G1 X49.733 Y69.889 E4.86305
G1 X49.99 Y70.487 E4.88796
G1 X50.419 Y70.974 E4.9128
G1 X50.873 Y71.262 E4.93337
G1 X51.491 Y71.44 E4.95799
G1 X52.141 Y71.42 E4.98287
G1 X52.755 Y71.197 E5.00787
G1 X53.24 Y70.822 E5.03133
G0 F1620 X53.268 Y70.8
G0 X53.638 Y70.255
G0 F4320 X53.277 Y71.452
G0 X66.693 Y71.45
G0 X68.619 Y71.31
G0 X69.337 Y70.993
G0 X70.138 Y70.255
G1 F1800 X70.264 Y69.767 E5.05062
G1 X70.328 Y69.514 E5.06061
G1 X70.267 Y68.861 E5.08571
G1 X70.008 Y68.259 E5.11079
G1 X69.575 Y67.77 E5.13578
G1 X69.015 Y67.439 E5.16068
G1 X68.378 Y67.298 E5.18565
G1 X67.732 Y67.359 E5.21048
G1 X67.132 Y67.618 E5.23549
G1 X66.646 Y68.048 E5.26032
G1 X66.315 Y68.608 E5.28522
G1 X66.173 Y69.244 E5.31016
G1 X66.233 Y69.889 E5.33495
G1 X66.49 Y70.487 E5.35986
G1 X66.919 Y70.974 E5.3847
G1 X67.373 Y71.262 E5.40527
G1 X67.991 Y71.44 E5.42988
G1 X68.641 Y71.42 E5.45477
G1 X69.255 Y71.197 E5.47977
G1 X69.74 Y70.822 E5.50323
G0 F1620 X69.768 Y70.8
G0 X70.138 Y70.255
G1 F2400 E3.00323
G0 F4320 X70.215 Y69.505
G0 X69.913 Y68.319
G0 X68.973 Y67.543
G0 X68.05 Y67.445
G0 X67.597 Y66.835
G0 X68.032 Y68.524
G0 X61.951 Y56.722
G0 X63.446 Y57.556
G0 X63.421 Y55.864
G1 F2400 E5.50323
G1 F1800 X63.402 Y55.224 E5.52774
G1 X63.265 Y54.595 E5.55237
G1 X63.011 Y54.001 E5.5771
G1 X62.65 Y53.467 E5.60176
G1 X62.186 Y52.997 E5.62704
G1 X61.651 Y52.634 E5.65178
G1 X61.059 Y52.377 E5.67648
G1 X60.429 Y52.237 E5.70118
G1 X59.784 Y52.217 E5.72587
G1 X59.148 Y52.318 E5.75052
G1 X58.541 Y52.537 E5.77521
G1 X57.985 Y52.864 E5.7999
G1 X57.512 Y53.28 E5.82401
G1 X57.116 Y53.788 E5.84866
G1 X56.821 Y54.36 E5.87329
G1 X56.638 Y54.978 E5.89795
G1 X56.574 Y55.62 E5.92264
G1 X56.629 Y56.262 E5.9473
G1 X56.807 Y56.883 E5.97203
G1 X57.096 Y57.46 E5.99672
G1 X57.49 Y57.972 E6.02145
G1 X57.985 Y58.41 E6.04674
G1 X58.541 Y58.739 E6.07147
G1 X59.148 Y58.957 E6.09615
G1 X59.784 Y59.058 E6.12079
G1 X60.429 Y59.038 E6.14549
G1 X61.059 Y58.898 E6.17019
G1 X61.651 Y58.641 E6.19489
G1 X62.185 Y58.278 E6.2196
G1 X62.629 Y57.834 E6.24363
G1 X62.994 Y57.304 E6.26825
G1 X63.256 Y56.706 E6.29324
G1 X63.288 Y56.545 E6.29952
G0 F1620 X63.421 Y55.864
G1 F2400 E3.79952
G0 F4320 X63.758 Y54.437
G0 X62.127 Y54.959
G0 X63.757 Y46.836
G0 X63.758 Y48.56
G0 X69.941 Y48.08
G1 F2400 E6.29952
G1 F1800 X70.208 Y48.217 E6.31101
G1 X70.42 Y48.429 E6.32248
G1 X70.558 Y48.701 E6.33415
G1 X70.612 Y49.042 E6.34737
G1 X70.612 Y68.859 E7.10576
G1 X70.612 Y69.514 E7.12825
G1 X70.612 Y69.775 E7.13727
G1 X70.612 Y70.958 E7.18254
G1 X70.558 Y71.299 E7.19576
G1 X70.42 Y71.571 E7.20743
G1 X70.205 Y71.785 E7.21904
G1 X69.937 Y71.922 E7.23056
G1 X69.595 Y71.975 E7.2438
G1 X50.407 Y71.975 E7.97813
G1 X50.059 Y71.92 E7.99161
G1 X49.792 Y71.783 E8.00309
G1 X49.58 Y71.571 E8.01457
G1 X49.442 Y71.299 E8.02624
G1 X49.388 Y70.958 E8.03945
G1 X49.388 Y69.891 E8.08029
G1 X49.388 Y69.244 E8.10254
G1 X49.388 Y68.95 E8.11263
G1 X49.388 Y49.042 E8.87451
G1 X49.442 Y48.701 E8.88772
G1 X49.58 Y48.429 E8.89939
G1 X49.795 Y48.215 E8.911
G1 X50.07 Y48.074 E8.92283
G1 X50.317 Y48.028 E8.93244
G1 X69.251 Y48.025 E9.65705
G0 F1620 X69.593 Y48.025
G0 X69.941 Y48.08
G0 F4320 X70.042 Y47.767
;TYPE:WALL-OUTER
G1 F1800 X70.403 Y47.952 E9.67257
G1 X70.687 Y48.236 E9.68794
G1 X70.871 Y48.597 E9.70345
G1 X70.937 Y49.018 E9.71976
G1 X70.937 Y70.982 E10.56032
G1 X70.871 Y71.403 E10.57663
G1 X70.688 Y71.762 E10.59205
G1 X70.398 Y72.051 E10.60772
G1 X70.038 Y72.235 E10.62319
G1 X69.619 Y72.3 E10.63942
G1 X50.381 Y72.3 E11.37565
G1 X49.958 Y72.233 E11.39204
G1 X49.597 Y72.048 E11.40757
G1 X49.313 Y71.764 E11.42294
G1 X49.129 Y71.403 E11.43844
G1 X49.063 Y70.982 E11.45475
G1 X49.063 Y49.018 E12.29531
G1 X49.129 Y48.597 E12.31162
G1 X49.312 Y48.238 E12.32704
G1 X49.602 Y47.949 E12.34271
G1 X49.964 Y47.764 E12.35827
G1 X50.289 Y47.703 E12.37092
G1 X69.353 Y47.7 E13.1005
G0 F1620 X69.619 Y47.7
G0 X70.042 Y47.767
G0 F4320 X70.22 Y47.858
G1 F2400 E10.6005
G0 F4320 X70.095 Y48.103
G0 X63.364 Y48.56
G0 X63.363 Y46.836
G0 X61.422 Y53.915
G0 X62.518 Y52.599
G0 X63.159 Y54.628
G0 X63.365 Y55.89
G0 X63.095 Y55.837
G1 F2400 E13.1005
G1 F1800 X63.078 Y55.264 E13.12244
G1 X62.954 Y54.694 E13.14476
G1 X62.724 Y54.157 E13.16712
G1 X62.398 Y53.674 E13.18942
G1 X61.977 Y53.248 E13.21234
G1 X61.494 Y52.92 E13.23469
G1 X60.958 Y52.688 E13.25704
G1 X60.388 Y52.561 E13.27939
G1 X59.805 Y52.543 E13.30171
G1 X59.229 Y52.634 E13.32403
G1 X58.68 Y52.832 E13.34636
G1 X58.177 Y53.128 E13.3687
G1 X57.75 Y53.504 E13.39047
G1 X57.391 Y53.964 E13.4128
G1 X57.124 Y54.482 E13.4351
G1 X56.958 Y55.041 E13.45742
G1 X56.9 Y55.622 E13.47976
G1 X56.95 Y56.203 E13.50208
G1 X57.111 Y56.764 E13.52442
G1 X57.373 Y57.286 E13.54677
G1 X57.729 Y57.749 E13.56912
G1 X58.177 Y58.146 E13.59203
G1 X58.68 Y58.444 E13.6144
G1 X59.229 Y58.641 E13.63672
G1 X59.805 Y58.732 E13.65904
G1 X60.388 Y58.714 E13.68136
G1 X60.958 Y58.587 E13.70371
G1 X61.494 Y58.355 E13.72606
G1 X61.977 Y58.027 E13.74841
G1 X62.378 Y57.625 E13.77014
G1 X62.709 Y57.145 E13.79245
G1 X62.944 Y56.608 E13.81488
G1 X62.962 Y56.518 E13.8184
G0 F1620 X63.095 Y55.837
G0 F4320 X63.09 Y55.637
G1 F2400 E11.3184
G0 F4320 X63.365 Y55.629
G0 X63.446 Y57.556
G0 X61.951 Y56.722
G0 X68.032 Y68.524
G0 X67.597 Y66.835
G0 X68.184 Y67.435
G0 X68.973 Y67.543
G0 X69.913 Y68.319
G0 X70.264 Y69.556
G0 X69.999 Y69.488
G1 F2400 E13.8184
G1 F1800 X69.948 Y68.942 E13.83938
G1 X69.73 Y68.435 E13.8605
G1 X69.366 Y68.024 E13.88151
G1 X68.894 Y67.745 E13.9025
G1 X68.358 Y67.626 E13.92351
G1 X67.814 Y67.678 E13.94442
G1 X67.309 Y67.896 E13.96547
G1 X66.9 Y68.258 E13.98638
G1 X66.621 Y68.729 E14.00733
G1 X66.501 Y69.265 E14.02835
G1 X66.552 Y69.808 E14.04922
G1 X66.768 Y70.311 E14.07017
G1 X67.132 Y70.724 E14.09124
G1 X67.508 Y70.963 E14.10829
G1 X68.032 Y71.114 E14.12916
G1 X68.579 Y71.097 E14.1501
G1 X69.096 Y70.909 E14.17115
G1 X69.528 Y70.575 E14.19205
G1 X69.813 Y70.154 E14.21151
G0 F1620 X69.837 Y70.119
G0 X69.999 Y69.488
G0 F4320 X69.981 Y69.289
G0 X70.254 Y69.264
G0 X69.913 Y68.319
G0 X68.973 Y67.543
G0 X67.761 Y67.468
G0 X66.733 Y68.12
G0 X65.747 Y70.013
G0 X66.693 Y71.45
G0 X53.277 Y71.452
G0 X53.764 Y69.556
G0 X53.499 Y69.488
G1 F1800 X53.448 Y68.942 E14.23249
G1 X53.23 Y68.435 E14.25361
G1 X52.866 Y68.024 E14.27463
G1 X52.394 Y67.745 E14.29561
G1 X51.858 Y67.626 E14.31662
G1 X51.314 Y67.678 E14.33753
G1 X50.809 Y67.896 E14.35858
G1 X50.4 Y68.258 E14.37949
G1 X50.121 Y68.729 E14.40044
G1 X50.001 Y69.265 E14.42146
G1 X50.052 Y69.808 E14.44233
G1 X50.268 Y70.311 E14.46328
G1 X50.632 Y70.724 E14.48435
G1 X51.008 Y70.963 E14.5014
G1 X51.532 Y71.114 E14.52227
G1 X52.079 Y71.097 E14.54321
G1 X52.596 Y70.909 E14.56426
G1 X53.028 Y70.575 E14.58516
G1 X53.313 Y70.154 E14.60462
G0 F1620 X53.337 Y70.119
G0 X53.499 Y69.488
G0 F4320 X53.481 Y69.289
G0 X53.754 Y69.264
G0 X54.526 Y69.569
;TYPE:SKIN
G1 F1800 X54.444 Y68.688 E14.63848
G1 X54.098 Y67.884 E14.67198
G1 X53.52 Y67.231 E14.70535
G1 X52.771 Y66.789 E14.73863
G1 X51.921 Y66.6 E14.77196
G1 X51.059 Y66.682 E14.8051
G1 X50.257 Y67.028 E14.83852
G1 X50.078 Y67.186 E14.84766
G1 X50.078 Y49.1 E15.53981
G1 X50.108 Y48.914 E15.54702
G1 X50.145 Y48.841 E15.55015
G1 X50.205 Y48.781 E15.5534
G1 X50.298 Y48.733 E15.5574
G1 X50.379 Y48.718 E15.56056
G1 X69.534 Y48.715 E16.29362
G1 X69.726 Y48.746 E16.30106
G1 X69.797 Y48.782 E16.30411
G1 X69.856 Y48.841 E16.3073
G1 X69.892 Y48.912 E16.31035
G1 X69.922 Y49.1 E16.31763
G1 X69.922 Y67.173 E17.00929
G1 X69.271 Y66.789 E17.03821
G1 X68.421 Y66.6 E17.07153
G1 X67.559 Y66.682 E17.10467
G1 X66.757 Y67.028 E17.1381
G1 X66.107 Y67.603 E17.17131
G1 X65.665 Y68.352 E17.20459
G1 X65.475 Y69.201 E17.23789
G1 X65.556 Y70.061 E17.27095
G1 X65.899 Y70.86 E17.30422
G1 X66.273 Y71.285 E17.32589
G1 X53.768 Y71.285 E17.80445
G1 X53.777 Y71.278 E17.80489
G1 X54.277 Y70.543 E17.83891
G1 X54.355 Y70.241 E17.85085
G0 F1620 X54.526 Y69.569
G1 F2400 E15.35085
G0 F4320 X54.268 Y69.549
G0 X53.965 Y67.969
G0 X52.492 Y68.904
G0 X59.049 Y57.658
G0 X58.32 Y59.207
G0 X58.245 Y59.366
G1 F2400 E17.85085
G1 F1800 X58.976 Y59.629 E17.88058
G1 X59.741 Y59.749 E17.91021
G1 X60.516 Y59.725 E17.93989
G1 X61.273 Y59.557 E17.96956
G1 X61.986 Y59.248 E17.9993
G1 X62.627 Y58.812 E18.02897
G1 X63.161 Y58.277 E18.0579
G1 X63.6 Y57.642 E18.08744
G1 X63.918 Y56.914 E18.11784
G1 X64.113 Y55.921 E18.15657
G1 X64.089 Y55.14 E18.18647
G1 X63.925 Y54.384 E18.21608
G1 X63.62 Y53.67 E18.24579
G1 X63.186 Y53.028 E18.27545
G1 X62.629 Y52.465 E18.30576
G1 X61.985 Y52.027 E18.33556
G1 X61.273 Y51.718 E18.36527
G1 X60.516 Y51.55 E18.39494
G1 X59.74 Y51.526 E18.42465
G1 X58.975 Y51.647 E18.45429
G1 X58.247 Y51.91 E18.48392
G1 X57.579 Y52.303 E18.51358
G1 X57.007 Y52.804 E18.54268
G1 X56.532 Y53.415 E18.57229
G1 X56.178 Y54.101 E18.60184
G1 X55.957 Y54.844 E18.6315
G1 X55.881 Y55.616 E18.66119
G1 X55.947 Y56.388 E18.69084
G1 X56.162 Y57.135 E18.72059
G1 X56.509 Y57.828 E18.75025
G1 X56.984 Y58.445 E18.78005
G1 X57.577 Y58.97 E18.81036
G1 X57.648 Y59.012 E18.81352
G0 F1620 X58.245 Y59.366
G1 F2400 E16.31352
G0 F4320 X58.355 Y59.135
G0 X59.049 Y57.658
G0 X52.492 Y68.904
G0 X53.965 Y67.969
G0 X53.823 Y70.758
G0 X54.161 Y70.99
G1 F2400 E18.81352
G1 F1800 X54.298 Y71.127 E18.82093
G0 F4320 X54.361 Y70.695
G1 F1800 X54.792 Y71.127 E18.84428
G0 F4320 X55.287 Y71.127
G1 F1800 X54.493 Y70.332 E18.88728
G0 F4320 X54.593 Y69.937
G1 F1800 X55.782 Y71.127 E18.95166
G0 F4320 X56.277 Y71.127
G1 F1800 X54.679 Y69.529 E19.03815
G0 F4320 X54.628 Y68.983
G1 F1800 X56.772 Y71.127 E19.15419
G0 F4320 X57.267 Y71.127
G1 F1800 X54.453 Y68.312 E19.30651
G1 X54.391 Y68.25
G0 F4320 X54.042 Y68.399
G0 X52.678 Y67.028
G0 X52.767 Y66.626
G1 F1800 X50.234 Y64.093 E19.4436
G0 F4320 X50.234 Y63.598
G1 F1800 X57.762 Y71.127 E19.85106
G0 F4320 X58.257 Y71.127
G1 F1800 X50.234 Y63.103 E20.28531
G0 F4320 X50.234 Y62.608
G1 F1800 X58.752 Y71.127 E20.74634
G0 F4320 X59.247 Y71.127
G1 F1800 X50.234 Y62.113 E21.23417
G0 F4320 X50.234 Y61.618
G1 F1800 X59.742 Y71.127 E21.74879
G0 F4320 X60.237 Y71.127
G1 F1800 X50.234 Y61.123 E22.2902
G0 F4320 X50.234 Y60.628
G1 F1800 X60.732 Y71.127 E22.8584
G0 F4320 X61.227 Y71.127
G1 F1800 X50.234 Y60.133 E23.45338
G0 F4320 X50.234 Y59.638
G1 F1800 X61.722 Y71.127 E24.07516
G0 F4320 X62.217 Y71.127
G1 F1800 X50.234 Y59.143 E24.72373
G0 F4320 X50.234 Y58.648
G1 F1800 X62.712 Y71.127 E25.39909
G0 F4320 X63.207 Y71.127
G1 F1800 X50.234 Y58.153 E26.10124
G0 F4320 X50.234 Y57.658
G1 F1800 X63.702 Y71.127 E26.83018
G0 F4320 X64.197 Y71.127
G1 F1800 X50.234 Y57.163 E27.58591
G0 F4320 X50.234 Y56.668
G1 F1800 X64.692 Y71.127 E28.36843
G0 F4320 X65.187 Y71.127
G1 F1800 X50.234 Y56.173 E29.17775
G0 F4320 X50.234 Y55.679
G1 F1800 X65.682 Y71.127 E30.01382
G0 F4320 X65.593 Y70.543
G1 F1800 X50.234 Y55.184 E30.84508
G0 F4320 X50.234 Y54.689
G1 F1800 X65.377 Y69.832 E31.66465
G0 F4320 X65.325 Y69.285
G1 F1800 X50.234 Y54.194 E32.4814
G0 F4320 X50.234 Y53.699
G1 F1800 X65.391 Y68.855 E33.3017
G0 F4320 X65.481 Y68.451
G1 F1800 X50.234 Y53.204 E34.12689
G0 F4320 X50.234 Y52.709
G1 F1800 X65.629 Y68.104 E34.9601
G0 F4320 X65.812 Y67.792
