;FLAVOR:Marlin
;TIME:5851
;Filament used: 8.74499m
;Layer height: 0.2625
;MINX:2.335
;MINY:10.712
;MINZ:0.263
;MAXX:117.665
;MAXY:109.288
;MAXZ:8.942
;Generated with Cura_SteamEngine 4.4.0
M140 S65
M105
M190 S65
M104 S205
M105
M109 S205
M82 ;absolute extrusion mode
G21;(metric values)
G90;(absolute positioning)
M82;(set extruder to absolute mode)
M107;(start with the fan off)
G28;(Home the printer)
G92 E0;(Reset the extruder to 0)
G0 Z5 E5 F500;(Move up and prime the nozzle)
G0 X-1 Z0;(Move outside the printable area)
G1 Y60 E8 F500;(Draw a priming/wiping line to the rear)
G1 X-1;(Move a little closer to the print area)
G1 Y10 E16 F500;(draw more priming/wiping)
G1 E15 F250;(Small retract)
G92 E0;(Zero the extruder)
G92 E0
G92 E0
G1 F2400 E-2.5
;LAYER_COUNT:34
;LAYER:0
M107
;MESH:Enclosure Base.STL
G0 F4320 X15.362 Y16.359 Z0.263
;TYPE:WALL-INNER
G1 F2400 E0
G1 F3600 X15.513 Y15.5 E0.03338
G1 X15.364 Y14.647 E0.06652
G1 X14.95 Y13.924 E0.0984
G1 X14.583 Y13.555 E0.11832
G1 X13.9 Y13.162 E0.14847
G1 X13.4 Y13.025 E0.16831
G1 X12.61 Y13.024 E0.19855
G1 X12.107 Y13.157 E0.21846
G1 X11.424 Y13.552 E0.24865
G1 X11.055 Y13.917 E0.26852
G1 X10.662 Y14.6 E0.29867
G1 X10.525 Y15.1 E0.31851
G1 X10.524 Y15.89 E0.34875
G1 X10.657 Y16.393 E0.36866
G1 X11.052 Y17.076 E0.39885
G1 X11.417 Y17.445 E0.41872
G1 X12.1 Y17.838 E0.44887
G1 X12.6 Y17.975 E0.46871
G1 X13.39 Y17.976 E0.49895
G1 X13.893 Y17.843 E0.51886
G1 X14.576 Y17.448 E0.54905
G1 X14.945 Y17.084 E0.56889
G1 X15.016 Y16.96 E0.57436
G0 F3240 X15.362 Y16.359
G1 F2400 E-1.92564
G0 F4320 X13.964 Y18.016
G0 X13.299 Y16.409
G0 X12.103 Y28.495
G0 X11.545 Y26.873
G0 X10.788 Y27.503
G1 F2400 E0.57436
G1 F3600 X10.334 Y28.019 E0.60066
G1 X10.037 Y28.578 E0.62488
G1 X9.912 Y29.043 E0.64331
G1 X9.872 Y29.5 E0.66087
G1 X9.912 Y29.957 E0.67842
G1 X10.037 Y30.423 E0.69689
G1 X10.342 Y30.994 E0.72166
G1 X10.775 Y31.486 E0.74674
G1 X11.183 Y31.776 E0.7659
G1 X11.602 Y31.97 E0.78357
G1 X12.043 Y32.088 E0.80104
G1 X12.5 Y32.128 E0.8186
G1 X12.957 Y32.088 E0.83616
G1 X13.398 Y31.97 E0.85363
G1 X13.813 Y31.778 E0.87113
G1 X14.19 Y31.514 E0.88874
G1 X14.514 Y31.19 E0.90627
G1 X14.778 Y30.813 E0.92389
G1 X14.97 Y30.398 E0.94139
G1 X15.088 Y29.957 E0.95886
G1 X15.128 Y29.5 E0.97641
G1 X15.088 Y29.043 E0.99397
G1 X14.97 Y28.602 E1.01144
G1 X14.778 Y28.187 E1.02894
G1 X14.514 Y27.81 E1.04655
G1 X14.19 Y27.486 E1.06409
G1 X13.813 Y27.222 E1.0817
G1 X13.398 Y27.03 E1.0992
G1 X12.957 Y26.912 E1.11667
G1 X12.5 Y26.872 E1.13423
G1 X12.043 Y26.912 E1.15179
G1 X11.602 Y27.03 E1.16926
G1 X11.374 Y27.136 E1.17888
G0 F3240 X11.186 Y27.223
G0 X10.788 Y27.503
G1 F2400 E-1.32112
G0 F4320 X12.174 Y27.366
G0 X14.297 Y27.359
G0 X13.195 Y28.668
G0 X43.909 Y19.886
G0 X48.761 Y19.838
G0 X51.331 Y17.764
G0 X58.047 Y15.845
G0 X56.36 Y16.139
G0 X56.524 Y16.11
G1 F2400 E1.17888
G1 F3600 X56.684 Y16.707 E1.20253
G1 X56.944 Y17.264 E1.22606
G1 X57.297 Y17.768 E1.24961
G1 X57.732 Y18.203 E1.27315
G1 X58.236 Y18.556 E1.2967
G1 X58.793 Y18.816 E1.32022
G1 X59.387 Y18.975 E1.34375
G1 X60 Y19.028 E1.3673
G1 X60.613 Y18.975 E1.39085
G1 X61.207 Y18.816 E1.41438
G1 X61.764 Y18.556 E1.4379
G1 X62.268 Y18.203 E1.46145
G1 X62.703 Y17.768 E1.485
G1 X63.056 Y17.264 E1.50854
G1 X63.316 Y16.707 E1.53207
G1 X63.475 Y16.113 E1.5556
G1 X63.528 Y15.5 E1.57915
G1 X63.475 Y14.887 E1.6027
G1 X63.316 Y14.293 E1.62623
G1 X63.056 Y13.736 E1.64975
G1 X62.703 Y13.232 E1.6733
G1 X62.268 Y12.797 E1.69684
G1 X61.764 Y12.444 E1.72039
G1 X61.207 Y12.184 E1.74392
G1 X60.613 Y12.025 E1.76745
G1 X60 Y11.972 E1.791
G1 X59.387 Y12.025 E1.81454
G1 X58.793 Y12.184 E1.83808
G1 X58.236 Y12.444 E1.8616
G1 X57.732 Y12.797 E1.88515
G1 X57.297 Y13.232 E1.90869
G1 X56.944 Y13.736 E1.93224
G1 X56.684 Y14.293 E1.95576
G1 X56.525 Y14.887 E1.9793
G1 X56.479 Y15.418 E1.99969
G0 F3240 X56.474 Y15.481
G0 X56.524 Y16.11
G1 F2400 E-0.50031
G0 F4320 X58.03 Y17.849
G0 X58.952 Y18.381
G0 X60 Y18.567
G0 X61.048 Y18.381
G0 X61.97 Y17.849
G0 X63.694 Y15.5
G0 X64.618 Y15.672
G0 X70.85 Y20.912
G0 X97.398 Y20.912
G0 X104.309 Y15.504
G0 X104.634 Y16.352
G1 F2400 E1.99969
G1 F3600 X105.05 Y17.076 E2.03165
G1 X105.417 Y17.445 E2.05157
G1 X106.1 Y17.838 E2.08172
G1 X106.6 Y17.975 E2.10156
G1 X107.39 Y17.976 E2.1318
G1 X107.893 Y17.843 E2.15171
G1 X108.576 Y17.448 E2.1819
G1 X108.945 Y17.083 E2.20177
G1 X109.338 Y16.4 E2.23192
G1 X109.475 Y15.9 E2.25176
G1 X109.476 Y15.11 E2.282
G1 X109.343 Y14.607 E2.30191
G1 X108.948 Y13.924 E2.3321
G1 X108.583 Y13.555 E2.35197
G1 X107.9 Y13.162 E2.38212
G1 X107.4 Y13.025 E2.40196
G1 X106.61 Y13.024 E2.4322
G1 X106.107 Y13.157 E2.45211
G1 X105.424 Y13.552 E2.4823
G1 X105.055 Y13.917 E2.50217
G1 X104.662 Y14.6 E2.53232
G1 X104.535 Y15.064 E2.55073
G1 X104.496 Y15.532 E2.5687
G1 X104.519 Y15.668 E2.57398
G0 F3240 X104.634 Y16.352
G1 F2400 E0.07398
G0 F4320 X106.028 Y18.01
G0 X106.695 Y16.406
G0 X107.525 Y28.419
G0 X107.5 Y26.706
G0 X108.902 Y27.849
G0 X109.532 Y28.748
G0 X109.667 Y29.5
G0 X109.212 Y31.497
G1 F2400 E2.57398
G1 F3600 X109.666 Y30.981 E2.60029
G1 X109.955 Y30.439 E2.62379
G1 X110.088 Y29.962 E2.64274
G1 X110.128 Y29.5 E2.66049
G1 X110.088 Y29.043 E2.67805
G1 X109.963 Y28.578 E2.69647
G1 X109.657 Y28.005 E2.72133
G1 X109.212 Y27.502 E2.74704
G1 X108.814 Y27.223 E2.76564
G1 X108.398 Y27.03 E2.78319
G1 X107.957 Y26.912 E2.80066
G1 X107.5 Y26.872 E2.81821
G1 X107.043 Y26.912 E2.83577
G1 X106.602 Y27.03 E2.85324
G1 X106.187 Y27.222 E2.87074
G1 X105.81 Y27.486 E2.88835
G1 X105.486 Y27.81 E2.90589
G1 X105.222 Y28.187 E2.9235
G1 X105.03 Y28.602 E2.941
G1 X104.912 Y29.043 E2.95847
G1 X104.872 Y29.5 E2.97603
G1 X104.912 Y29.957 E2.99359
G1 X105.03 Y30.398 E3.01106
G1 X105.222 Y30.813 E3.02856
G1 X105.486 Y31.19 E3.04617
G1 X105.81 Y31.514 E3.0637
G1 X106.187 Y31.778 E3.08132
G1 X106.602 Y31.97 E3.09882
G1 X107.043 Y32.088 E3.11629
G1 X107.5 Y32.128 E3.13384
G1 X107.957 Y32.088 E3.1514
G1 X108.398 Y31.97 E3.16887
G1 X108.626 Y31.864 E3.17849
G0 F3240 X108.814 Y31.777
G0 X109.212 Y31.497
G1 F2400 E0.67849
G0 F4320 X108.044 Y30.438
G0 X107.874 Y89.484
G0 X108.455 Y87.873
G0 X109.532 Y89.748
G0 X109.667 Y90.5
G0 X109.212 Y92.497
G1 F2400 E3.17849
G1 F3600 X109.666 Y91.981 E3.2048
G1 X109.955 Y91.439 E3.2283
G1 X110.088 Y90.962 E3.24725
G1 X110.128 Y90.5 E3.265
G1 X110.088 Y90.043 E3.28256
G1 X109.963 Y89.578 E3.30098
G1 X109.657 Y89.005 E3.32584
G1 X109.212 Y88.502 E3.35155
G1 X108.814 Y88.223 E3.37015
G1 X108.398 Y88.03 E3.3877
G1 X107.957 Y87.912 E3.40517
G1 X107.5 Y87.872 E3.42272
G1 X107.043 Y87.912 E3.44028
G1 X106.602 Y88.03 E3.45775
G1 X106.187 Y88.222 E3.47525
G1 X105.81 Y88.486 E3.49286
G1 X105.486 Y88.81 E3.5104
G1 X105.222 Y89.187 E3.52801
G1 X105.03 Y89.602 E3.54551
G1 X104.912 Y90.043 E3.56298
G1 X104.872 Y90.5 E3.58054
G1 X104.912 Y90.957 E3.5981
G1 X105.03 Y91.398 E3.61557
G1 X105.222 Y91.813 E3.63307
G1 X105.486 Y92.19 E3.65068
G1 X105.81 Y92.514 E3.66822
G1 X106.187 Y92.778 E3.68583
G1 X106.602 Y92.97 E3.70333
G1 X107.043 Y93.088 E3.7208
G1 X107.5 Y93.128 E3.73836
G1 X107.957 Y93.088 E3.75591
G1 X108.398 Y92.97 E3.77338
G1 X108.626 Y92.864 E3.783
G0 F3240 X108.814 Y92.777
G0 X109.212 Y92.497
G1 F2400 E1.283
G0 F4320 X108.455 Y93.127
G0 X107.874 Y91.516
G0 X106.867 Y103.563
G0 X106.586 Y101.839
G0 X106.1 Y102.712
G0 X105.424 Y103.2
G0 X104.634 Y105.352
G1 F2400 E3.783
G1 F3600 X105.05 Y106.076 E3.81496
G1 X105.417 Y106.445 E3.83488
G1 X106.1 Y106.838 E3.86503
G1 X106.6 Y106.975 E3.88487
G1 X107.39 Y106.976 E3.91511
G1 X107.893 Y106.843 E3.93502
G1 X108.576 Y106.448 E3.96521
G1 X108.945 Y106.083 E3.98508
G1 X109.338 Y105.4 E4.01523
G1 X109.475 Y104.9 E4.03507
G1 X109.476 Y104.11 E4.06531
G1 X109.343 Y103.607 E4.08522
G1 X108.948 Y102.924 E4.11541
G1 X108.583 Y102.555 E4.13528
G1 X107.9 Y102.162 E4.16543
G1 X107.4 Y102.025 E4.18527
G1 X106.61 Y102.024 E4.21551
G1 X106.107 Y102.157 E4.23542
G1 X105.424 Y102.552 E4.26561
G1 X105.055 Y102.917 E4.28547
G1 X104.662 Y103.6 E4.31563
G1 X104.535 Y104.064 E4.33404
G1 X104.496 Y104.532 E4.35201
G1 X104.519 Y104.668 E4.35729
G0 F3240 X104.634 Y105.352
G0 F4320 X103.718 Y105.083
G0 X103.647 Y104.304
G0 X97.398 Y99.088
G0 X70.852 Y99.088
G0 X64.152 Y104.067
G1 F3600 X64.088 Y105.036 E4.39446
G1 X63.973 Y105.6 E4.41649
G1 X63.79 Y106.122 E4.43765
G1 X63.532 Y106.626 E4.45932
G1 X63.216 Y107.077 E4.4804
G1 X62.824 Y107.501 E4.5025
G1 X62.389 Y107.857 E4.52401
G1 X61.912 Y108.149 E4.54541
G1 X61.401 Y108.376 E4.56681
G1 X60.861 Y108.529 E4.58829
G1 X60.295 Y108.609 E4.61017
G1 X59.733 Y108.613 E4.63167
G1 X59.179 Y108.54 E4.65306
G1 X58.649 Y108.394 E4.6741
G1 X58.117 Y108.166 E4.69625
G1 X57.641 Y107.88 E4.7175
G1 X57.199 Y107.523 E4.73924
G1 X56.814 Y107.115 E4.76071
G1 X56.491 Y106.66 E4.78207
G1 X56.225 Y106.155 E4.80391
G1 X56.039 Y105.639 E4.8249
G1 X55.92 Y105.071 E4.84711
G1 X55.848 Y104.09 E4.88475
G1 X49.318 Y98.625 E5.21063
G1 X22.433 Y98.625 E6.23951
G1 X15.91 Y104.061 E6.56447
G1 X15.828 Y104.997 E6.60043
G1 X15.705 Y105.464 E6.61891
G1 X15.49 Y105.931 E6.63858
G1 X15.207 Y106.335 E6.65746
G1 X14.845 Y106.699 E6.67711
G1 X14.448 Y106.98 E6.69572
G1 X13.98 Y107.2 E6.71551
G1 X13.513 Y107.324 E6.734
G1 X13.004 Y107.37 E6.75356
G1 X12.505 Y107.328 E6.77273
G1 X12.031 Y107.203 E6.79149
G1 X11.569 Y106.99 E6.81096
G1 X11.151 Y106.698 E6.83047
G1 X10.809 Y106.356 E6.84898
G1 X10.518 Y105.944 E6.86828
G1 X10.306 Y105.492 E6.88739
G1 X10.174 Y105.006 E6.90666
G1 X10.092 Y104.072 E6.94254
G1 X3.875 Y98.882 E7.25248
G1 X3.875 Y21.114 E10.22865
G1 X10.09 Y15.939 E10.53816
G1 X10.172 Y15.003 E10.57412
G1 X10.297 Y14.531 E10.5928
G1 X10.51 Y14.069 E10.61227
G1 X10.793 Y13.665 E10.63115
G1 X11.157 Y13.298 E10.65093
G1 X11.501 Y13.058 E10.66698
G1 X12.017 Y12.803 E10.68901
G1 X12.493 Y12.674 E10.70788
G1 X12.996 Y12.63 E10.72721
G1 X13.494 Y12.672 E10.74633
G1 X13.971 Y12.798 E10.76521
G1 X14.437 Y13.014 E10.78487
G1 X14.835 Y13.292 E10.80345
G1 X15.203 Y13.658 E10.82331
G1 X15.482 Y14.056 E10.84191
G1 X15.694 Y14.508 E10.86102
G1 X15.825 Y14.992 E10.88021
G1 X15.908 Y15.929 E10.91621
G1 X22.433 Y21.375 E11.24147
G1 X49.317 Y21.375 E12.27032
G1 X55.848 Y15.933 E12.59566
G1 X55.915 Y14.947 E12.63348
G1 X56.027 Y14.4 E12.65484
G1 X56.21 Y13.878 E12.67601
G1 X56.468 Y13.374 E12.69768
G1 X56.784 Y12.923 E12.71876
G1 X57.177 Y12.498 E12.74091
G1 X57.611 Y12.143 E12.76237
G1 X58.088 Y11.851 E12.78377
G1 X58.599 Y11.624 E12.80517
G1 X59.139 Y11.471 E12.82665
G1 X59.705 Y11.391 E12.84852
G1 X60.267 Y11.387 E12.87003
G1 X60.821 Y11.46 E12.89142
G1 X61.351 Y11.606 E12.91246
G1 X61.883 Y11.834 E12.93461
G1 X62.359 Y12.12 E12.95586
G1 X62.8 Y12.476 E12.97755
G1 X63.186 Y12.885 E12.99907
G1 X63.509 Y13.34 E13.02043
G1 X63.775 Y13.845 E13.04227
G1 X63.963 Y14.368 E13.06354
G1 X64.079 Y14.921 E13.08516
G1 X64.152 Y15.91 E13.12311
G1 X70.682 Y21.375 E13.44899
G1 X97.567 Y21.375 E14.47787
G1 X104.09 Y15.939 E14.80283
G1 X104.172 Y15.003 E14.83879
G1 X104.297 Y14.531 E14.85747
G1 X104.51 Y14.069 E14.87694
G1 X104.793 Y13.665 E14.89582
G1 X105.158 Y13.297 E14.91566
G1 X105.556 Y13.018 E14.93426
G1 X106.007 Y12.806 E14.95333
G1 X106.493 Y12.674 E14.9726
G1 X106.996 Y12.63 E14.99193
G1 X107.495 Y12.672 E15.01109
G1 X107.969 Y12.797 E15.02985
G1 X108.431 Y13.01 E15.04932
G1 X108.849 Y13.302 E15.06883
G1 X109.193 Y13.646 E15.08745
G1 X109.484 Y14.061 E15.10685
G1 X109.694 Y14.508 E15.12575
G1 X109.825 Y14.992 E15.14494
G1 X109.908 Y15.929 E15.18094
G1 X116.125 Y21.118 E15.49084
G1 X116.125 Y98.882 E18.46687
G1 X109.91 Y104.061 E18.77647
G1 X109.828 Y104.997 E18.81243
G1 X109.705 Y105.464 E18.83091
G1 X109.49 Y105.931 E18.85059
G1 X109.207 Y106.335 E18.86946
G1 X108.849 Y106.696 E18.88892
G1 X108.498 Y106.944 E18.90537
G1 X107.986 Y107.196 E18.92721
G1 X107.507 Y107.326 E18.9462
G1 X107.004 Y107.37 E18.96553
G1 X106.505 Y107.328 E18.98469
G1 X106.031 Y107.203 E19.00345
G1 X105.569 Y106.99 E19.02292
G1 X105.165 Y106.707 E19.0418
G1 X104.801 Y106.345 E19.06144
G1 X104.52 Y105.948 E19.08006
G1 X104.306 Y105.492 E19.09933
G1 X104.174 Y105.006 E19.11861
G1 X104.092 Y104.072 E19.15449
G1 X97.567 Y98.625 E19.47977
G1 X70.683 Y98.625 E20.50862
G1 X64.685 Y103.623 E20.80741
G0 F3240 X64.152 Y104.067
G1 F2400 E18.30741
G0 F4320 X63.833 Y105.557
G0 X63.408 Y106.549
G0 X62.721 Y107.398
G0 X61.84 Y108.022
G0 X60.83 Y108.387
G0 X59.739 Y108.467
G0 X58.7 Y108.257
G0 X57.723 Y107.759
G0 X56.926 Y107.021
G0 X56.358 Y106.095
G0 X56.12 Y105.286
G0 X56.524 Y105.11
G1 F2400 E20.80741
G1 F3600 X56.684 Y105.707 E20.83106
G1 X56.944 Y106.264 E20.85459
G1 X57.297 Y106.768 E20.87814
G1 X57.732 Y107.203 E20.90168
G1 X58.236 Y107.556 E20.92523
G1 X58.793 Y107.816 E20.94875
G1 X59.387 Y107.975 E20.97229
G1 X60 Y108.028 E20.99583
G1 X60.613 Y107.975 E21.01938
G1 X61.207 Y107.816 E21.04291
G1 X61.764 Y107.556 E21.06644
G1 X62.268 Y107.203 E21.08999
G1 X62.703 Y106.768 E21.11353
G1 X63.056 Y106.264 E21.13708
G1 X63.316 Y105.707 E21.1606
G1 X63.475 Y105.113 E21.18413
G1 X63.528 Y104.5 E21.20768
G1 X63.475 Y103.887 E21.23123
G1 X63.316 Y103.293 E21.25476
G1 X63.056 Y102.736 E21.27828
G1 X62.703 Y102.232 E21.30183
G1 X62.268 Y101.797 E21.32538
G1 X61.764 Y101.444 E21.34892
G1 X61.207 Y101.184 E21.37245
G1 X60.613 Y101.025 E21.39598
G1 X60 Y100.972 E21.41953
G1 X59.387 Y101.025 E21.44308
G1 X58.793 Y101.184 E21.46661
G1 X58.236 Y101.444 E21.49013
G1 X57.732 Y101.797 E21.51368
G1 X57.297 Y102.232 E21.53722
G1 X56.944 Y102.736 E21.56077
G1 X56.684 Y103.293 E21.5843
G1 X56.525 Y103.887 E21.60783
G1 X56.479 Y104.418 E21.62823
G0 F3240 X56.474 Y104.481
G0 X56.524 Y105.11
G1 F2400 E19.12823
G0 F4320 X56.308 Y104.48
G0 X55.382 Y104.328
G0 X49.15 Y99.088
G0 X22.602 Y99.088
G0 X16.355 Y104.294
G0 X16.242 Y105.137
G0 X15.362 Y105.359
G1 F2400 E21.62823
G1 F3600 X15.513 Y104.5 E21.66161
G1 X15.364 Y103.647 E21.69474
G1 X14.95 Y102.924 E21.72663
G1 X14.583 Y102.555 E21.74654
G1 X13.9 Y102.162 E21.7767
G1 X13.4 Y102.025 E21.79654
G1 X12.61 Y102.024 E21.82677
G1 X12.107 Y102.157 E21.84669
G1 X11.424 Y102.552 E21.87688
G1 X11.055 Y102.917 E21.89674
G1 X10.662 Y103.6 E21.9269
G1 X10.525 Y104.1 E21.94674
G1 X10.524 Y104.89 E21.97697
G1 X10.657 Y105.393 E21.99689
G1 X11.052 Y106.076 E22.02708
G1 X11.417 Y106.445 E22.04694
G1 X12.1 Y106.838 E22.0771
G1 X12.6 Y106.975 E22.09694
G1 X13.39 Y106.976 E22.12717
G1 X13.893 Y106.843 E22.14708
G1 X14.576 Y106.448 E22.17728
G1 X14.945 Y106.084 E22.19712
G1 X15.016 Y105.96 E22.20258
G0 F3240 X15.362 Y105.359
G1 F2400 E19.70258
G0 F4320 X14.924 Y103.807
G0 X14.579 Y103.206
G0 X13.972 Y101.99
G0 X13.305 Y103.594
G0 X12.689 Y91.566
G0 X12.986 Y93.252
G0 X11.086 Y92.141
G0 X10.468 Y91.252
G0 X10.333 Y90.5
G0 X10.788 Y88.503
G1 F2400 E22.20258
G1 F3600 X10.334 Y89.019 E22.22889
G1 X10.037 Y89.578 E22.25311
G1 X9.912 Y90.043 E22.27154
G1 X9.872 Y90.5 E22.2891
G1 X9.912 Y90.957 E22.30665
G1 X10.037 Y91.423 E22.32512
G1 X10.342 Y91.994 E22.34989
G1 X10.775 Y92.486 E22.37497
G1 X11.183 Y92.776 E22.39413
G1 X11.602 Y92.97 E22.4118
G1 X12.043 Y93.088 E22.42927
G1 X12.5 Y93.128 E22.44683
G1 X12.957 Y93.088 E22.46438
G1 X13.398 Y92.97 E22.48185
G1 X13.813 Y92.778 E22.49935
G1 X14.19 Y92.514 E22.51697
G1 X14.514 Y92.19 E22.5345
G1 X14.778 Y91.813 E22.55212
G1 X14.97 Y91.398 E22.56961
G1 X15.088 Y90.957 E22.58709
G1 X15.128 Y90.5 E22.60464
G1 X15.088 Y90.043 E22.6222
G1 X14.97 Y89.602 E22.63967
G1 X14.778 Y89.187 E22.65717
G1 X14.514 Y88.81 E22.67478
G1 X14.19 Y88.486 E22.69232
G1 X13.813 Y88.222 E22.70993
G1 X13.398 Y88.03 E22.72743
G1 X12.957 Y87.912 E22.7449
G1 X12.5 Y87.872 E22.76246
G1 X12.043 Y87.912 E22.78001
G1 X11.602 Y88.03 E22.79748
G1 X11.374 Y88.136 E22.80711
G0 F3240 X11.186 Y88.223
G0 X10.788 Y88.503
G0 F4320 X11.023 Y88.765
G1 F3600 X10.624 Y89.219 E22.83024
G1 X10.365 Y89.707 E22.85138
G1 X10.258 Y90.104 E22.86712
G1 X10.223 Y90.5 E22.88233
G1 X10.258 Y90.896 E22.89754
G1 X10.365 Y91.293 E22.91328
G1 X10.632 Y91.793 E22.93497
G1 X11.011 Y92.224 E22.95694
G1 X11.36 Y92.472 E22.97332
G1 X11.722 Y92.64 E22.98859
G1 X12.104 Y92.742 E23.00372
G1 X12.5 Y92.777 E23.01894
G1 X12.896 Y92.742 E23.03415
G1 X13.278 Y92.64 E23.04928
