;FLAVOR:Marlin
;TIME:4550
;Filament used: 6.50743m
;Layer height: 0.2625
;MINX:2.335
;MINY:11.956
;MINZ:0.263
;MAXX:117.665
;MAXY:108.044
;MAXZ:2.893
;Generated with Cura_SteamEngine 4.4.0
M140 S65
M105
M190 S65
M104 S205
M105
M109 S205
M82 ;absolute extrusion mode
G21;(metric values)
G90;(absolute positioning)
M82;(set extruder to absolute mode)
M107;(start with the fan off)
G28;(Home the printer)
G92 E0;(Reset the extruder to 0)
G0 Z5 E5 F500;(Move up and prime the nozzle)
G0 X-1 Z0;(Move outside the printable area)
G1 Y60 E8 F500;(Draw a priming/wiping line to the rear)
G1 X-1;(Move a little closer to the print area)
G1 Y10 E16 F500;(draw more priming/wiping)
G1 E15 F250;(Small retract)
G92 E0;(Zero the extruder)
G92 E0
G92 E0
G1 F2400 E-2.5
;LAYER_COUNT:11
;LAYER:0
M107
;MESH:Enclosure Cover.STL
G0 F4320 X15.508 Y15.474 Z0.263
;TYPE:WALL-INNER
G1 F2400 E0
G1 F3600 X15.374 Y14.702 E0.02999
G1 X15.154 Y14.222 E0.05019
G1 X14.655 Y13.625 E0.07997
G1 X14.224 Y13.318 E0.10022
G1 X13.492 Y13.05 E0.13005
G1 X12.968 Y12.998 E0.15021
G1 X12.195 Y13.132 E0.18023
G1 X11.715 Y13.353 E0.20045
G1 X11.117 Y13.853 E0.23028
G1 X10.811 Y14.283 E0.25048
G1 X10.544 Y15.014 E0.28026
G1 X10.492 Y15.538 E0.30042
G1 X10.626 Y16.311 E0.33044
G1 X10.846 Y16.791 E0.35065
G1 X11.345 Y17.388 E0.38042
G1 X11.775 Y17.695 E0.40064
G1 X12.511 Y17.964 E0.43063
G1 X13.035 Y18.014 E0.45078
G1 X13.805 Y17.88 E0.48069
G1 X14.283 Y17.661 E0.50081
G1 X14.882 Y17.161 E0.53067
G1 X15.189 Y16.731 E0.55089
G1 X15.399 Y16.155 E0.57435
G0 F3240 X15.456 Y15.999
G0 X15.508 Y15.474
G1 F2400 E-1.92565
G0 F4320 X16.51 Y15.678
G0 X22.633 Y20.83
G0 X39.597 Y20.803
G0 X45.212 Y21.566
G0 X45.212 Y19.841
G0 X44.705 Y30.845
G0 X43.172 Y26.182
G0 X44.682 Y31.339
G0 X44.143 Y43.088
G0 X44.522 Y41.411
G0 X45.212 Y41.84
G1 F2400 E0.57435
G1 F3600 X44.485 Y41.574 E0.60398
G1 X43.953 Y41.524 E0.62443
G1 X43.204 Y41.656 E0.65353
G1 X42.729 Y41.874 E0.67354
G1 X42.137 Y42.368 E0.70304
G1 X41.833 Y42.794 E0.72307
G1 X41.567 Y43.521 E0.7527
G1 X41.517 Y44.04 E0.77265
G1 X41.65 Y44.803 E0.80229
G1 X41.867 Y45.278 E0.82228
G1 X42.362 Y45.869 E0.85178
G1 X42.788 Y46.173 E0.87181
G1 X43.514 Y46.439 E0.9014
G1 X44.033 Y46.489 E0.92135
G1 X44.796 Y46.357 E0.95099
G1 X45.271 Y46.139 E0.97099
G1 X45.863 Y45.645 E1.00049
G1 X46.167 Y45.218 E1.02055
G1 X46.433 Y44.492 E1.05014
G1 X46.483 Y43.973 E1.0701
G1 X46.351 Y43.21 E1.09973
G1 X46.132 Y42.734 E1.11978
G1 X45.747 Y42.275 E1.14271
G0 F3240 X45.637 Y42.144
G0 X45.212 Y41.84
G1 F2400 E-1.35729
G0 F4320 X46.651 Y43.966
G0 X44.931 Y44.031
G0 X50.079 Y49.667
G0 X49.365 Y47.964
G0 X51.67 Y47.971
G0 X51.814 Y47.881
G1 F2400 E1.14271
G1 F3600 X68.186 Y47.881 E1.76927
G1 X68.199 Y47.821 E1.77162
G1 X68.488 Y46.508 E1.82307
G1 X65.417 Y45.081 E1.95266
G1 X62.865 Y44.398 E2.05377
G1 X60.122 Y44.139 E2.15921
G1 X57.371 Y44.355 E2.26481
G1 X54.704 Y45.047 E2.37026
G1 X53.66 Y45.509 E2.41395
G1 X51.512 Y46.508 E2.50461
G1 X51.665 Y47.203 E2.53184
G0 F3240 X51.801 Y47.821
G0 X51.814 Y47.881
G0 F4320 X49.9 Y48.686
G0 X46.972 Y50.875
G1 F3600 X47.412 Y51.811 E2.57142
G1 X47.445 Y51.881 E2.57438
G1 X72.555 Y51.881 E3.53534
G1 X72.588 Y51.811 E3.5383
G1 X73.028 Y50.878 E3.57778
G1 X71.834 Y49.427 E3.6497
G1 X70.566 Y48.131 E3.71908
G1 X68.248 Y48.131 E3.80779
G1 X68.186 Y48.131 E3.8099
G1 X51.814 Y48.131 E4.25744
G1 X51.752 Y48.131 E4.25955
G1 X49.435 Y48.131 E4.34823
G1 X48.249 Y49.336 E4.41293
G1 X47.365 Y50.4 E4.46587
G1 X47.145 Y50.666 E4.47908
G0 F3240 X46.972 Y50.875
G0 F4320 X47.305 Y51.967
G0 X44.52 Y55.881
G1 F3600 X44.549 Y55.881 E4.48019
G1 X44.794 Y55.881 E4.48957
G1 X75.206 Y55.881 E5.65343
G1 X75.449 Y55.881 E5.66273
G1 X75.48 Y55.881 E5.66392
G1 X75.383 Y55.659 E5.66964
G1 X74.093 Y52.709 E5.79286
G1 X73.778 Y52.131 E5.81805
G1 X72.633 Y52.131 E5.86187
G1 X72.555 Y52.131 E5.8645
G1 X47.445 Y52.131 E6.5509
G1 X47.367 Y52.131 E6.55353
G1 X46.162 Y52.131 E6.59964
G1 X44.618 Y55.657 E6.74695
G1 X44.52 Y55.881 E6.75271
G1 F2400 E4.25271
G0 F4320 X44.52 Y59.604
G0 X44.52 Y60.409
G0 X44.52 Y64.131
G1 F2400 E6.75271
G1 F3600 X44.618 Y64.355 E6.76207
G1 X45.908 Y67.303 E6.88522
G1 X46.223 Y67.881 E6.91041
G1 X47.367 Y67.881 E6.95419
G1 X47.445 Y67.881 E6.95718
G1 X72.555 Y67.881 E7.91813
G1 X72.633 Y67.881 E7.92112
G1 X73.84 Y67.881 E7.96731
G1 X75.383 Y64.354 E8.11464
G1 X75.48 Y64.131 E8.12395
G1 X75.45 Y64.131 E8.12509
G1 X75.206 Y64.131 E8.13087
G1 X44.794 Y64.131 E9.29474
G1 X44.549 Y64.131 E9.30053
G1 X44.52 Y64.131 E9.30164
G1 F2400 E6.80164
G0 F4320 X45.759 Y67.376
G0 X47.164 Y66.348
G0 X44.046 Y75.078
G0 X43.945 Y73.356
G0 X42.811 Y74.478
G0 X41.512 Y76.004
G1 F2400 E9.30164
G1 F3600 X41.649 Y76.803 E9.33266
G1 X41.868 Y77.278 E9.35268
G1 X42.362 Y77.869 E9.38215
G1 X42.788 Y78.173 E9.40218
G1 X43.514 Y78.439 E9.43177
G1 X44.033 Y78.489 E9.45173
G1 X44.796 Y78.357 E9.48136
G1 X45.271 Y78.139 E9.50136
G1 X45.863 Y77.645 E9.53087
G1 X46.167 Y77.218 E9.55093
G1 X46.433 Y76.492 E9.58052
G1 X46.483 Y75.973 E9.60047
G1 X46.351 Y75.21 E9.63011
G1 X46.132 Y74.734 E9.65016
G1 X45.637 Y74.144 E9.67963
G1 X45.212 Y73.84 E9.69963
G1 X44.485 Y73.574 E9.72926
G1 X43.953 Y73.524 E9.74971
G1 X43.204 Y73.656 E9.77881
G1 X42.729 Y73.874 E9.79881
G1 X42.136 Y74.368 E9.82835
G1 X41.855 Y74.764 E9.84693
G1 X41.654 Y75.193 E9.86506
G1 X41.631 Y75.321 E9.87004
G0 F3240 X41.512 Y76.004
G1 F2400 E7.37004
G0 F4320 X42.738 Y77.463
G0 X43.382 Y77.807
G0 X45.361 Y78.281
G0 X44.444 Y76.825
G0 X57.668 Y85.762
G0 X55.956 Y85.762
G0 X56.355 Y87.089
G1 F2400 E9.87004
G1 F3600 X56.642 Y87.701 E9.89591
G1 X57.029 Y88.255 E9.92177
G1 X57.507 Y88.733 E9.94764
G1 X58.061 Y89.12 E9.9735
G1 X58.673 Y89.407 E9.99937
G1 X59.326 Y89.581 E10.02523
G1 X60 Y89.64 E10.05113
G1 X60.674 Y89.581 E10.07702
G1 X61.327 Y89.407 E10.10288
G1 X61.939 Y89.12 E10.12875
G1 X62.493 Y88.733 E10.15461
G1 X62.971 Y88.255 E10.18048
G1 X63.358 Y87.701 E10.20635
G1 X63.645 Y87.089 E10.23221
G1 X63.819 Y86.436 E10.25808
G1 X63.878 Y85.762 E10.28397
G1 X63.819 Y85.088 E10.30986
G1 X63.645 Y84.435 E10.33572
G1 X63.359 Y83.823 E10.36158
G1 X62.971 Y83.268 E10.38749
G1 X62.493 Y82.791 E10.41333
G1 X61.939 Y82.404 E10.4392
G1 X61.328 Y82.118 E10.46501
G1 X60.674 Y81.942 E10.49093
G1 X60 Y81.884 E10.51682
G1 X59.326 Y81.942 E10.54271
G1 X58.672 Y82.118 E10.56863
G1 X58.061 Y82.404 E10.59445
G1 X57.507 Y82.791 E10.62031
G1 X57.029 Y83.268 E10.64615
G1 X56.641 Y83.823 E10.67207
G1 X56.355 Y84.435 E10.69792
G1 X56.181 Y85.088 E10.72378
G1 X56.122 Y85.762 E10.74968
G1 X56.18 Y86.418 E10.77488
G0 F3240 X56.181 Y86.436
G0 X56.355 Y87.089
G1 F2400 E8.27488
G0 F4320 X56.872 Y84.628
G0 X57.452 Y83.623
G0 X58.332 Y82.882
G0 X61.386 Y81.962
G0 X60.799 Y83.569
G0 X62.374 Y74.133
G0 X62.657 Y75.822
G0 X67.848 Y73.186
G0 X68.186 Y72.131
G1 F2400 E10.77488
G1 F3600 X51.814 Y72.131 E11.40144
G1 X51.801 Y72.191 E11.40379
G1 X51.512 Y73.504 E11.45524
G1 X54.582 Y74.932 E11.58481
G1 X57.136 Y75.615 E11.68599
G1 X59.878 Y75.873 E11.79139
G1 X62.629 Y75.658 E11.89699
G1 X65.296 Y74.965 E12.00245
G1 X66.34 Y74.503 E12.04614
G1 X68.488 Y73.504 E12.1368
G1 X68.335 Y72.809 E12.16403
G0 F3240 X68.199 Y72.191
G0 X68.186 Y72.131
G0 F4320 X70.333 Y71.329
G0 X73.028 Y69.137
G1 F3600 X72.588 Y68.201 E12.20361
G1 X72.555 Y68.131 E12.20621
G1 X47.445 Y68.131 E12.89261
G1 X47.412 Y68.201 E12.89521
G1 X46.972 Y69.133 E12.93466
G1 X48.166 Y70.586 E13.00663
G1 X49.434 Y71.881 E13.07599
G1 X51.752 Y71.881 E13.1647
G1 X51.814 Y71.881 E13.16681
G1 X68.186 Y71.881 E13.61435
G1 X68.248 Y71.881 E13.61646
G1 X70.564 Y71.881 E13.70509
G1 X71.751 Y70.677 E13.7698
G1 X72.855 Y69.346 E13.83598
G0 F3240 X73.028 Y69.137
G1 F2400 E11.33598
G0 F4320 X72.199 Y70.395
G0 X70.635 Y69.647
G0 X75.512 Y75.225
G0 X74.639 Y73.732
G0 X75.968 Y73.523
G1 F2400 E13.83598
G1 F3600 X75.204 Y73.656 E13.86566
G1 X74.729 Y73.874 E13.88566
G1 X74.137 Y74.368 E13.91516
G1 X73.833 Y74.794 E13.93519
G1 X73.567 Y75.521 E13.96482
G1 X73.517 Y76.038 E13.9847
G1 X73.649 Y76.803 E14.01441
G1 X73.868 Y77.278 E14.03442
G1 X74.362 Y77.869 E14.0639
G1 X74.788 Y78.173 E14.08393
G1 X75.514 Y78.439 E14.11352
G1 X76.033 Y78.489 E14.13347
G1 X76.796 Y78.357 E14.16311
G1 X77.271 Y78.139 E14.18311
G1 X77.863 Y77.645 E14.21262
G1 X78.167 Y77.218 E14.23268
G1 X78.433 Y76.492 E14.26227
G1 X78.483 Y75.973 E14.28222
G1 X78.351 Y75.21 E14.31185
G1 X78.132 Y74.734 E14.33191
G1 X77.637 Y74.144 E14.36138
G1 X77.212 Y73.84 E14.38138
G1 X76.649 Y73.634 E14.40432
G0 F3240 X76.488 Y73.575
G0 X75.968 Y73.523
G1 F2400 E11.90432
G0 F4320 X76.056 Y75.078
G0 X72.728 Y66.341
G0 X72.695 Y68.045
G0 X73.476 Y67.326
G0 X74.614 Y64.698
G0 X75.949 Y60.574
G1 F2400 E14.40432
G1 F3600 X44.055 Y60.574 E15.6249
G1 X44.549 Y63.881 E15.75271
G1 X44.794 Y63.881 E15.76074
G1 X75.206 Y63.881 E16.92461
G1 X75.45 Y63.881 E16.93261
G1 X75.949 Y60.574 E17.0606
G1 F2400 E14.5606
G0 F4320 X75.945 Y59.604
G0 X75.945 Y59.439
G1 F2400 E17.0606
G1 F3600 X75.449 Y56.131 E17.18845
G1 X75.206 Y56.131 E17.19642
G1 X44.794 Y56.131 E18.36028
G1 X44.549 Y56.131 E18.36832
G1 X44.055 Y59.439 E18.49632
G1 X75.251 Y59.439 E19.69019
G0 F3240 X75.945 Y59.439
G1 F2400 E17.19019
G0 F4320 X74.242 Y52.636
G0 X72.837 Y53.664
G0 X75.857 Y44.925
G0 X75.477 Y46.602
G0 X74.336 Y44.981
G0 X74.071 Y44.017
G0 X74.32 Y43.055
G0 X75.968 Y41.523
G1 F2400 E19.69019
G1 F3600 X75.204 Y41.656 E19.71987
G1 X74.729 Y41.874 E19.73987
G1 X74.137 Y42.368 E19.76938
G1 X73.833 Y42.794 E19.78941
G1 X73.567 Y43.521 E19.81903
G1 X73.517 Y44.04 E19.83899
G1 X73.65 Y44.803 E19.86863
G1 X73.867 Y45.278 E19.88861
G1 X74.362 Y45.869 E19.91811
G1 X74.788 Y46.173 E19.93814
G1 X75.514 Y46.439 E19.96773
G1 X76.033 Y46.489 E19.98769
G1 X76.796 Y46.357 E20.01732
G1 X77.271 Y46.139 E20.03732
G1 X77.863 Y45.645 E20.06683
G1 X78.167 Y45.218 E20.08689
G1 X78.433 Y44.493 E20.11644
G1 X78.483 Y43.975 E20.13636
G1 X78.351 Y43.21 E20.16607
G1 X78.132 Y42.734 E20.18612
G1 X77.637 Y42.144 E20.21559
G1 X77.212 Y41.84 E20.23559
G1 X76.649 Y41.634 E20.25853
G0 F3240 X76.488 Y41.575
G0 X75.968 Y41.523
G1 F2400 E17.75853
G0 F4320 X76.526 Y38.565
G0 X77.252 Y37.843
G0 X81.152 Y24.65
G1 F2400 E20.25853
G1 F3600 X80.929 Y24.65 E20.26707
G1 X80.928 Y24.65 E20.26711
G1 X77.581 Y24.65 E20.3952
G1 X76.119 Y31.132 E20.64949
G1 X76.048 Y31.451 E20.662
G1 X75.965 Y31.815 E20.67629
G1 X75.869 Y31.411 E20.68132
G1 X75.78 Y31.097 E20.69092
G1 X74.196 Y25.536 E20.9122
G1 X73.912 Y24.65 E20.94781
G1 X70.59 Y24.65 E21.07494
G1 X68.553 Y31.686 E21.35527
G1 X68.364 Y32.339 E21.38128
G1 X68.215 Y31.676 E21.39469
G1 X66.63 Y24.65 E21.67033
G1 X49.482 Y24.65 E22.32658
G1 X47.046 Y32.255 E22.63219
G1 X46.88 Y32.775 E22.65308
G1 X46.715 Y32.255 E22.664
G1 X46.714 Y32.254 E22.66405
G1 X44.291 Y24.65 E22.96947
G1 X40.23 Y24.65 E23.12489
G1 X40.23 Y38.4 E23.6511
G1 X43.673 Y38.4 E23.78286
G1 X43.673 Y34.233 E23.94233
G1 X43.673 Y34.232 E23.94237
G1 X43.673 Y33.09 E23.98608
G1 X44.014 Y34.18 E24.00819
G1 X45.337 Y38.4 E24.17744
G1 X48.392 Y38.4 E24.29435
G1 X49.736 Y34.139 E24.46534
G1 X50.077 Y33.055 E24.50883
G1 X50.077 Y34.191 E24.53082
G1 X50.077 Y34.192 E24.53085
G1 X50.077 Y38.4 E24.69189
G1 X53.519 Y38.4 E24.82362
G1 X53.519 Y27.785 E25.22985
G1 X57.154 Y27.785 E25.36897
G1 X57.154 Y38.4 E25.7752
G1 X60.596 Y38.4 E25.90693
G1 X60.596 Y27.785 E26.31316
G1 X63.849 Y27.785 E26.43765
G1 X66.522 Y38.4 E26.85657
G1 X69.863 Y38.4 E26.98443
G1 X72.062 Y30.801 E27.28718
G1 X72.063 Y30.8 E27.28723
G1 X72.234 Y30.205 E27.31092
G1 X72.397 Y30.803 E27.32321
G1 X74.476 Y38.4 E27.62464
G1 X77.686 Y38.4 E27.74749
G1 X81.098 Y24.867 E28.2816
G1 X81.152 Y24.65 E28.28679
G1 F2400 E25.78679
G0 F4320 X80.866 Y26.382
G0 X79.196 Y26.174
G0 X81.374 Y19.841
G0 X81.374 Y21.566
G0 X87.734 Y20.801
G0 X97.367 Y20.83
G0 X104.308 Y15.528
G0 X105.739 Y17.514
G0 X108.284 Y17.662
G1 F2400 E28.28679
G1 F3600 X108.883 Y17.159 E28.31673
G1 X109.189 Y16.73 E28.33689
G1 X109.456 Y15.999 E28.36668
G1 X109.508 Y15.474 E28.38687
G1 X109.374 Y14.702 E28.41685
G1 X109.154 Y14.222 E28.43706
G1 X108.655 Y13.625 E28.46684
G1 X108.225 Y13.318 E28.48706
G1 X107.492 Y13.05 E28.51692
G1 X106.968 Y12.998 E28.53708
G1 X106.195 Y13.132 E28.5671
G1 X105.716 Y13.353 E28.58729
G1 X105.118 Y13.852 E28.61709
G1 X104.811 Y14.282 E28.63731
G1 X104.544 Y15.014 E28.66713
G1 X104.492 Y15.538 E28.68728
G1 X104.626 Y16.311 E28.71731
G1 X104.846 Y16.791 E28.73752
G1 X105.345 Y17.388 E28.76729
G1 X105.776 Y17.695 E28.78754
G1 X106.51 Y17.964 E28.81746
G1 X107.035 Y18.014 E28.83764
G1 X107.64 Y17.908 E28.86115
G0 F3240 X107.803 Y17.88
G0 X108.284 Y17.662
G0 F4320 X109.688 Y15.5
G0 X115.976 Y21.195
G0 X115.976 Y98.818
G0 X109.907 Y104.069
G1 F3600 X109.835 Y104.955 E28.89517
G1 X109.722 Y105.419 E28.91344
G1 X109.536 Y105.85 E28.93141
G1 X109.276 Y106.255 E28.94983
G1 X108.963 Y106.6 E28.96765
G1 X108.591 Y106.894 E28.9858
G1 X108.164 Y107.129 E29.00445
G1 X107.73 Y107.282 E29.02206
G1 X107.257 Y107.364 E29.04044
G1 X106.787 Y107.369 E29.05842
G1 X106.311 Y107.292 E29.07688
G1 X105.87 Y107.145 E29.09467
G1 X105.451 Y106.922 E29.11283
G1 X105.069 Y106.63 E29.13123
G1 X104.748 Y106.286 E29.14924
G1 X104.487 Y105.89 E29.16739
G1 X104.297 Y105.467 E29.18514
G1 X104.173 Y104.995 E29.20381
G1 X104.093 Y104.096 E29.23835
G1 X97.568 Y98.631 E29.56408
G1 X22.433 Y98.631 E32.43949
G1 X15.907 Y104.069 E32.76458
G1 X15.835 Y104.955 E32.7986
G1 X15.722 Y105.419 E32.81688
G1 X15.536 Y105.85 E32.83484
G1 X15.276 Y106.255 E32.85326
G1 X14.963 Y106.6 E32.87109
G1 X14.591 Y106.894 E32.88924
G1 X14.164 Y107.129 E32.90789
G1 X13.73 Y107.282 E32.9255
G1 X13.257 Y107.364 E32.94387
G1 X12.787 Y107.369 E32.96186
G1 X12.311 Y107.292 E32.98031
G1 X11.87 Y107.145 E32.9981
G1 X11.452 Y106.923 E33.01621
G1 X11.104 Y106.656 E33.033
G1 X10.744 Y106.28 E33.05292
G1 X10.487 Y105.891 E33.07077
G1 X10.297 Y105.467 E33.08855
G1 X10.173 Y104.995 E33.10722
G1 X10.093 Y104.096 E33.14176
G1 X3.875 Y98.888 E33.45217
G1 X3.875 Y21.124 E36.42819
G1 X10.09 Y15.945 E36.7378
G1 X10.17 Y15.03 E36.77295
G1 X10.297 Y14.545 E36.79213
G1 X10.503 Y14.092 E36.81118
G1 X10.788 Y13.68 E36.83035
G1 X11.1 Y13.363 E36.84737
G1 X11.548 Y13.034 E36.86864
G1 X11.999 Y12.818 E36.88778
G1 X12.481 Y12.685 E36.90692
G1 X12.98 Y12.637 E36.9261
G1 X13.47 Y12.675 E36.94491
G1 X13.961 Y12.804 E36.96434
G1 X14.414 Y13.01 E36.98338
G1 X14.826 Y13.295 E37.00255
G1 X15.184 Y13.647 E37.02177
G1 X15.473 Y14.052 E37.04081
G1 X15.688 Y14.504 E37.05996
G1 X15.821 Y14.983 E37.07899
G1 X15.91 Y15.918 E37.11493
G1 X22.432 Y21.381 E37.44052
G1 X97.567 Y21.381 E40.31593
G1 X104.093 Y15.943 E40.64103
G1 X104.165 Y15.058 E40.67501
G1 X104.278 Y14.594 E40.69328
G1 X104.464 Y14.163 E40.71125
G1 X104.725 Y13.756 E40.72975
G1 X105.037 Y13.412 E40.74752
G1 X105.409 Y13.119 E40.76565
G1 X105.836 Y12.884 E40.7843
G1 X106.27 Y12.731 E40.80191
G1 X106.743 Y12.649 E40.82028
G1 X107.213 Y12.644 E40.83827
G1 X107.689 Y12.721 E40.85672
G1 X108.13 Y12.868 E40.87451
G1 X108.556 Y13.094 E40.89297
G1 X108.926 Y13.377 E40.9108
G1 X109.252 Y13.727 E40.9291
G1 X109.513 Y14.123 E40.94725
G1 X109.703 Y14.546 E40.965
G1 X109.826 Y15.014 E40.98352
G1 X109.907 Y15.916 E41.01817
G1 X116.125 Y21.124 E41.32858
G1 X116.125 Y98.888 E44.3046
G1 X110.44 Y103.625 E44.5878
G0 F3240 X109.907 Y104.069
G0 F4320 X108.284 Y106.662
G1 F3600 X108.883 Y106.159 E44.61773
G1 X109.189 Y105.73 E44.6379
G1 X109.456 Y104.999 E44.66768
G1 X109.508 Y104.474 E44.68787
G1 X109.374 Y103.702 E44.71785
G1 X109.154 Y103.222 E44.73806
G1 X108.655 Y102.625 E44.76784
G1 X108.225 Y102.318 E44.78806
G1 X107.492 Y102.05 E44.81793
G1 X106.968 Y101.998 E44.83808
G1 X106.195 Y102.132 E44.8681
G1 X105.716 Y102.353 E44.88829
G1 X105.118 Y102.852 E44.9181
G1 X104.811 Y103.282 E44.93832
G1 X104.544 Y104.014 E44.96814
G1 X104.492 Y104.538 E44.98829
G1 X104.626 Y105.311 E45.01831
G1 X104.846 Y105.791 E45.03852
G1 X105.345 Y106.388 E45.0683
G1 X105.776 Y106.695 E45.08855
G1 X106.51 Y106.964 E45.11846
G1 X107.035 Y107.014 E45.13865
G1 X107.64 Y106.908 E45.16215
G0 F3240 X107.803 Y106.88
G0 X108.284 Y106.662
