;FLAVOR:Marlin
;TIME:7646
;Filament used: 12.1586m
;Layer height: 0.2625
;MINX:2.335
;MINY:11.885
;MINZ:0.263
;MAXX:117.665
;MAXY:108.044
;MAXZ:36.294
;Generated with Cura_SteamEngine 4.4.0
M140 S65
M105
M190 S65
M104 S205
M105
M109 S205
M82 ;absolute extrusion mode
G21;(metric values)
G90;(absolute positioning)
M82;(set extruder to absolute mode)
M107;(start with the fan off)
G28;(Home the printer)
G92 E0;(Reset the extruder to 0)
G0 Z5 E5 F500;(Move up and prime the nozzle)
G0 X-1 Z0;(Move outside the printable area)
G1 Y60 E8 F500;(Draw a priming/wiping line to the rear)
G1 X-1;(Move a little closer to the print area)
G1 Y10 E16 F500;(draw more priming/wiping)
G1 E15 F250;(Small retract)
G92 E0;(Zero the extruder)
G92 E0
G92 E0
G1 F2400 E-2.5
;LAYER_COUNT:138
;LAYER:0
M107
;MESH:Enclosure Center.STL
G0 F4320 X12.968 Y13.023 Z0.263
;TYPE:WALL-INNER
G1 F2400 E0
G1 F3600 X12.204 Y13.156 E0.02968
G1 X11.729 Y13.374 E0.04968
G1 X11.137 Y13.868 E0.07919
G1 X10.833 Y14.294 E0.09922
G1 X10.567 Y15.021 E0.12884
G1 X10.517 Y15.538 E0.14872
G1 X10.649 Y16.303 E0.17843
G1 X10.868 Y16.778 E0.19845
G1 X11.362 Y17.369 E0.22792
G1 X11.788 Y17.673 E0.24795
G1 X12.514 Y17.939 E0.27754
G1 X13.033 Y17.989 E0.2975
G1 X13.796 Y17.857 E0.32713
G1 X14.271 Y17.639 E0.34713
G1 X14.863 Y17.145 E0.37664
G1 X15.167 Y16.718 E0.3967
G1 X15.433 Y15.992 E0.42629
G1 X15.483 Y15.473 E0.44624
G1 X15.351 Y14.71 E0.47588
G1 X15.132 Y14.234 E0.49593
G1 X14.637 Y13.644 E0.5254
G1 X14.212 Y13.34 E0.5454
G1 X13.649 Y13.134 E0.56834
G0 F3240 X13.488 Y13.075
G0 X12.968 Y13.023
G1 F2400 E-1.93166
G0 F4320 X11.478 Y14.184
G0 X11.02 Y15.124
G0 X11.092 Y16.164
G0 X12.813 Y18.135
G0 X12.975 Y16.437
G0 X12.813 Y24.171
G0 X12.813 Y23.131
G0 X5.125 Y97.381
G1 F2400 E0.56834
G1 F3600 X114.875 Y97.381 E4.76847
G1 X114.875 Y22.631 E7.62915
G1 X5.125 Y22.631 E11.82927
G1 X5.125 Y96.687 E14.66339
G0 F3240 X5.125 Y97.381
G1 F2400 E12.16339
G0 F4320 X12.968 Y97.546
G0 X12.968 Y95.841
G0 X13.056 Y103.578
G0 X12.961 Y101.855
G0 X12.968 Y102.023
G1 F2400 E14.66339
G1 F3600 X12.204 Y102.156 E14.69307
G1 X11.729 Y102.374 E14.71307
G1 X11.137 Y102.868 E14.74258
G1 X10.833 Y103.294 E14.76261
G1 X10.567 Y104.021 E14.79223
G1 X10.517 Y104.538 E14.81211
G1 X10.649 Y105.303 E14.84182
G1 X10.868 Y105.778 E14.86184
G1 X11.362 Y106.369 E14.89132
G1 X11.788 Y106.673 E14.91134
G1 X12.514 Y106.939 E14.94093
G1 X13.033 Y106.989 E14.96089
G1 X13.796 Y106.857 E14.99052
G1 X14.271 Y106.639 E15.01052
G1 X14.863 Y106.145 E15.04003
G1 X15.167 Y105.718 E15.06009
G1 X15.433 Y104.992 E15.08968
G1 X15.483 Y104.473 E15.10964
G1 X15.351 Y103.71 E15.13927
G1 X15.132 Y103.234 E15.15932
G1 X14.637 Y102.644 E15.18879
G1 X14.212 Y102.34 E15.20879
G1 X13.649 Y102.134 E15.23173
G0 F3240 X13.488 Y102.075
G0 X12.968 Y102.023
G1 F2400 E12.73173
G0 F4320 X14.751 Y102.521
G0 X13.582 Y103.782
G0 X18.558 Y103.778
G0 X22.989 Y100.168
G0 X97.011 Y100.168
G0 X101.378 Y103.727
G0 X106.512 Y103.725
G0 X105.639 Y102.232
G0 X106.968 Y102.023
G1 F2400 E15.23173
G1 F3600 X106.204 Y102.156 E15.26141
G1 X105.729 Y102.374 E15.28141
G1 X105.137 Y102.868 E15.31092
G1 X104.833 Y103.294 E15.33095
G1 X104.567 Y104.021 E15.36058
G1 X104.517 Y104.538 E15.38045
G1 X104.649 Y105.303 E15.41016
G1 X104.868 Y105.778 E15.43018
G1 X105.362 Y106.369 E15.45966
G1 X105.788 Y106.673 E15.47969
G1 X106.514 Y106.939 E15.50928
G1 X107.033 Y106.989 E15.52923
G1 X107.796 Y106.857 E15.55886
G1 X108.271 Y106.639 E15.57887
G1 X108.863 Y106.145 E15.60837
G1 X109.167 Y105.718 E15.62843
G1 X109.433 Y104.992 E15.65802
G1 X109.483 Y104.473 E15.67798
G1 X109.351 Y103.71 E15.70761
G1 X109.132 Y103.234 E15.72766
G1 X108.637 Y102.644 E15.75714
G1 X108.212 Y102.34 E15.77713
G1 X107.649 Y102.134 E15.80008
G0 F3240 X107.488 Y102.075
G0 X106.968 Y102.023
G1 F2400 E13.30008
G0 F4320 X108.322 Y102.985
G0 X109.609 Y104.12
G0 X109.907 Y104.069
G1 F2400 E15.80008
G1 F3600 X109.834 Y104.982 E15.83513
G1 X109.72 Y105.438 E15.85312
G1 X109.53 Y105.868 E15.87111
G1 X109.271 Y106.266 E15.88928
G1 X108.951 Y106.613 E15.90735
G1 X108.573 Y106.909 E15.92572
G1 X108.148 Y107.14 E15.94423
G1 X107.708 Y107.29 E15.96202
G1 X107.244 Y107.368 E15.98003
G1 X106.763 Y107.369 E15.99844
G1 X106.296 Y107.291 E16.01655
G1 X105.854 Y107.141 E16.03442
G1 X105.432 Y106.913 E16.05277
G1 X105.057 Y106.62 E16.07099
G1 X104.734 Y106.27 E16.08921
G1 X104.473 Y105.871 E16.10746
G1 X104.286 Y105.446 E16.12523
G1 X104.169 Y104.984 E16.14347
G1 X104.093 Y104.071 E16.17853
G1 X97.567 Y98.631 E16.50367
G1 X22.433 Y98.631 E19.37905
G1 X15.907 Y104.069 E19.70414
G1 X15.834 Y104.982 E19.73919
G1 X15.72 Y105.438 E19.75718
G1 X15.53 Y105.868 E19.77517
G1 X15.271 Y106.266 E19.79334
G1 X14.951 Y106.613 E19.81141
G1 X14.573 Y106.909 E19.82978
G1 X14.148 Y107.14 E19.84829
G1 X13.708 Y107.29 E19.86608
G1 X13.244 Y107.368 E19.88409
G1 X12.763 Y107.369 E19.9025
G1 X12.296 Y107.291 E19.92062
G1 X11.854 Y107.141 E19.93848
G1 X11.432 Y106.913 E19.95684
G1 X11.057 Y106.62 E19.97505
G1 X10.734 Y106.27 E19.99327
G1 X10.473 Y105.871 E20.01152
G1 X10.286 Y105.446 E20.02929
G1 X10.169 Y104.984 E20.04753
G1 X10.093 Y104.071 E20.08259
G1 X3.875 Y98.888 E20.39238
G1 X3.875 Y21.124 E23.3684
G1 X10.054 Y15.976 E23.67619
G1 X10.169 Y15.016 E23.71319
G1 X10.299 Y14.527 E23.73256
G1 X10.509 Y14.076 E23.7516
G1 X10.802 Y13.658 E23.77113
G1 X11.148 Y13.312 E23.78986
G1 X11.565 Y13.019 E23.80936
G1 X12.01 Y12.811 E23.82816
G1 X12.497 Y12.68 E23.84746
G1 X13.001 Y12.636 E23.86682
G1 X13.498 Y12.677 E23.88591
G1 X13.984 Y12.807 E23.90516
G1 X14.425 Y13.013 E23.92379
G1 X14.848 Y13.31 E23.94357
G1 X15.197 Y13.657 E23.9624
G1 X15.486 Y14.069 E23.98166
G1 X15.696 Y14.519 E24.00067
G1 X15.824 Y15 E24.01971
G1 X15.909 Y15.942 E24.05591
G1 X22.41 Y21.361 E24.3798
G1 X59.76 Y21.381 E25.80919
G1 X97.567 Y21.381 E27.25606
G1 X104.057 Y15.973 E27.57936
G1 X104.164 Y15.046 E27.61507
G1 X104.284 Y14.568 E27.63393
G1 X104.47 Y14.145 E27.65161
G1 X104.727 Y13.751 E27.66962
G1 X105.053 Y13.396 E27.68806
G1 X105.426 Y13.104 E27.70619
G1 X105.852 Y12.873 E27.72474
G1 X106.292 Y12.723 E27.74253
G1 X106.756 Y12.645 E27.76053
G1 X107.237 Y12.644 E27.77894
G1 X107.704 Y12.722 E27.79706
G1 X108.146 Y12.872 E27.81492
G1 X108.57 Y13.102 E27.83338
G1 X108.948 Y13.395 E27.85169
G1 X109.258 Y13.732 E27.86921
G1 X109.528 Y14.145 E27.88809
G1 X109.714 Y14.567 E27.90574
G1 X109.831 Y15.029 E27.92398
G1 X109.907 Y15.941 E27.959
G1 X116.125 Y21.124 E28.26879
G1 X116.125 Y98.888 E31.24482
G1 X110.44 Y103.625 E31.52801
G0 F3240 X109.907 Y104.069
G1 F2400 E29.02801
G0 F4320 X115.976 Y98.818
G0 X115.976 Y21.194
G0 X109.687 Y15.053
G0 X109.4 Y14.215
G0 X108.849 Y13.502
G0 X108.085 Y13.005
G0 X107.314 Y12.812
G0 X106.968 Y13.023
G1 F2400 E31.52801
G1 F3600 X106.204 Y13.156 E31.55769
G1 X105.729 Y13.374 E31.57769
G1 X105.137 Y13.868 E31.6072
G1 X104.833 Y14.294 E31.62723
G1 X104.567 Y15.021 E31.65685
G1 X104.517 Y15.538 E31.67673
G1 X104.649 Y16.303 E31.70644
G1 X104.868 Y16.778 E31.72646
G1 X105.362 Y17.369 E31.75594
G1 X105.788 Y17.673 E31.77596
G1 X106.514 Y17.939 E31.80555
G1 X107.033 Y17.989 E31.82551
G1 X107.796 Y17.857 E31.85514
G1 X108.271 Y17.639 E31.87514
G1 X108.863 Y17.145 E31.90465
G1 X109.167 Y16.718 E31.92471
G1 X109.433 Y15.992 E31.9543
G1 X109.483 Y15.473 E31.97425
G1 X109.351 Y14.71 E32.00389
G1 X109.132 Y14.234 E32.02394
G1 X108.637 Y13.644 E32.05341
G1 X108.212 Y13.34 E32.07341
G1 X107.649 Y13.134 E32.09635
G0 F3240 X107.488 Y13.075
G0 X106.968 Y13.023
G0 F4320 X106.981 Y13.376
G1 F3600 X106.309 Y13.493 E32.12246
G1 X105.917 Y13.673 E32.13897
G1 X105.396 Y14.108 E32.16494
G1 X105.145 Y14.459 E32.18145
G1 X104.911 Y15.099 E32.20753
G1 X104.87 Y15.525 E32.22391
G1 X104.986 Y16.198 E32.25005
G1 X105.166 Y16.589 E32.26652
G1 X105.602 Y17.11 E32.29252
G1 X105.953 Y17.361 E32.30903
G1 X106.592 Y17.595 E32.33508
G1 X107.02 Y17.636 E32.35153
G1 X107.691 Y17.52 E32.37759
G1 X108.083 Y17.34 E32.3941
G1 X108.604 Y16.905 E32.42007
G1 X108.855 Y16.553 E32.43662
G1 X109.089 Y15.914 E32.46266
G1 X109.13 Y15.486 E32.47912
G1 X109.014 Y14.815 E32.50518
G1 X108.834 Y14.423 E32.52168
G1 X108.397 Y13.903 E32.54768
G1 X108.047 Y13.652 E32.56416
G1 X107.657 Y13.509 E32.58006
G0 F3240 X107.409 Y13.419
G0 X106.981 Y13.376
G1 F2400 E30.08006
G0 F4320 X107.994 Y13.751
G0 X108.739 Y14.483
G0 X109.017 Y15.49
G0 X108.756 Y16.5
G0 X107.04 Y18.157
G0 X106.975 Y16.437
G0 X106.981 Y24.091
G0 X113.347 Y24.159
G0 X113.347 Y95.853
G0 X107.048 Y95.92
G0 X107.056 Y103.578
G0 X106.961 Y101.855
G0 X106.981 Y102.376
G1 F2400 E32.58006
G1 F3600 X106.309 Y102.493 E32.60616
G1 X105.917 Y102.673 E32.62267
G1 X105.396 Y103.108 E32.64864
G1 X105.145 Y103.459 E32.66516
G1 X104.911 Y104.099 E32.69124
G1 X104.87 Y104.525 E32.70762
G1 X104.986 Y105.198 E32.73375
G1 X105.166 Y105.589 E32.75022
G1 X105.602 Y106.11 E32.77622
G1 X105.953 Y106.361 E32.79274
G1 X106.592 Y106.595 E32.81878
G1 X107.02 Y106.636 E32.83523
G1 X107.691 Y106.52 E32.86129
G1 X108.083 Y106.34 E32.8778
G1 X108.604 Y105.905 E32.90378
G1 X108.855 Y105.553 E32.92032
G1 X109.089 Y104.914 E32.94636
G1 X109.13 Y104.486 E32.96282
G1 X109.014 Y103.815 E32.98888
G1 X108.834 Y103.423 E33.00539
G1 X108.397 Y102.903 E33.03138
G1 X108.047 Y102.652 E33.04786
G1 X107.657 Y102.509 E33.06376
G0 F3240 X107.409 Y102.419
G0 X106.981 Y102.376
G1 F2400 E30.56376
G0 F4320 X107.994 Y102.751
G0 X108.739 Y103.483
G0 X109.649 Y104.347
G0 X110.244 Y104.244
G1 F2400 E33.06376
G1 F3600 X110.181 Y105.035 E33.09413
G1 X110.051 Y105.553 E33.11457
G1 X109.838 Y106.036 E33.13477
G1 X109.546 Y106.484 E33.15523
G1 X109.189 Y106.872 E33.17541
G1 X108.766 Y107.203 E33.19597
G1 X108.292 Y107.46 E33.2166
G1 X107.794 Y107.63 E33.23674
G1 X107.273 Y107.718 E33.25696
G1 X106.736 Y107.719 E33.27751
G1 X106.212 Y107.632 E33.29784
G1 X105.708 Y107.461 E33.31821
G1 X105.239 Y107.207 E33.33862
G1 X104.82 Y106.879 E33.35898
G1 X104.459 Y106.489 E33.37932
G1 X104.165 Y106.039 E33.39989
G1 X103.954 Y105.56 E33.41992
G1 X103.822 Y105.039 E33.44049
G1 X103.756 Y104.246 E33.47095
G1 X97.44 Y98.981 E33.78563
G1 X22.56 Y98.981 E36.65128
G1 X16.244 Y104.244 E36.96591
G1 X16.181 Y105.035 E36.99628
G1 X16.051 Y105.553 E37.01672
G1 X15.838 Y106.036 E37.03692
G1 X15.546 Y106.484 E37.05738
G1 X15.189 Y106.872 E37.07756
G1 X14.766 Y107.203 E37.09812
G1 X14.292 Y107.46 E37.11875
G1 X13.794 Y107.63 E37.13889
G1 X13.273 Y107.718 E37.15911
G1 X12.736 Y107.719 E37.17966
G1 X12.212 Y107.632 E37.19999
G1 X11.708 Y107.461 E37.22036
G1 X11.239 Y107.207 E37.24077
G1 X10.82 Y106.879 E37.26113
G1 X10.459 Y106.489 E37.28147
G1 X10.165 Y106.039 E37.30204
G1 X9.954 Y105.56 E37.32207
G1 X9.822 Y105.039 E37.34264
G1 X9.756 Y104.246 E37.3731
G1 X3.525 Y99.052 E37.68354
G1 X3.525 Y20.96 E40.67211
G1 X9.723 Y15.796 E40.98085
G1 X9.825 Y14.948 E41.01354
G1 X9.969 Y14.407 E41.03496
G1 X10.206 Y13.898 E41.05645
G1 X10.529 Y13.437 E41.07799
G1 X10.923 Y13.043 E41.09932
G1 X11.391 Y12.714 E41.12121
G1 X11.891 Y12.481 E41.14232
G1 X12.437 Y12.334 E41.16396
G1 X12.999 Y12.284 E41.18555
G1 X13.558 Y12.331 E41.20702
G1 X14.103 Y12.477 E41.22861
G1 X14.603 Y12.71 E41.24972
G1 X15.072 Y13.039 E41.27165
G1 X15.464 Y13.429 E41.29281
G1 X15.791 Y13.895 E41.3146
G1 X16.026 Y14.399 E41.33588
G1 X16.171 Y14.942 E41.35739
G1 X16.245 Y15.766 E41.38905
G1 X22.537 Y21.011 E41.70253
G1 X59.76 Y21.031 E43.12706
G1 X97.44 Y21.031 E44.56907
G1 X103.725 Y15.794 E44.88215
G1 X103.819 Y14.982 E44.91343
G1 X103.95 Y14.459 E44.93407
G1 X104.162 Y13.977 E44.95422
G1 X104.452 Y13.533 E44.97451
G1 X104.815 Y13.137 E44.99507
G1 X105.233 Y12.81 E45.01538
G1 X105.708 Y12.553 E45.03605
G1 X106.206 Y12.383 E45.05619
G1 X106.727 Y12.295 E45.07641
G1 X107.264 Y12.294 E45.09696
G1 X107.788 Y12.381 E45.11729
G1 X108.292 Y12.552 E45.13766
G1 X108.76 Y12.806 E45.15803
G1 X109.184 Y13.136 E45.1786
G1 X109.538 Y13.52 E45.19858
G1 X109.835 Y13.974 E45.21935
G1 X110.046 Y14.453 E45.23938
G1 X110.178 Y14.974 E45.25995
G1 X110.244 Y15.766 E45.29036
G1 X116.475 Y20.96 E45.6008
G1 X116.475 Y99.052 E48.58938
G1 X110.777 Y103.8 E48.87322
G0 F3240 X110.244 Y104.244
G1 F2400 E46.37322
G0 F4320 X109.155 Y106.177
G0 X108.492 Y106.787
G0 X107.669 Y107.149
G0 X106.772 Y107.223
G0 X105.915 Y107.008
G0 X105.153 Y106.51
G0 X104.601 Y105.801
G0 X103.564 Y104.248
G0 X97.398 Y99.094
G0 X22.602 Y99.094
G0 X16.371 Y104.31
G0 X15.664 Y104.432
G0 X14.876 Y103.827
G0 X14.322 Y102.985
G0 X12.981 Y102.376
G1 F2400 E48.87322
G1 F3600 X12.309 Y102.493 E48.89933
G1 X11.917 Y102.673 E48.91584
G1 X11.396 Y103.108 E48.94181
G1 X11.145 Y103.459 E48.95833
G1 X10.911 Y104.099 E48.9844
G1 X10.87 Y104.525 E49.00078
G1 X10.986 Y105.198 E49.02692
G1 X11.166 Y105.589 E49.04339
G1 X11.602 Y106.11 E49.06939
G1 X11.953 Y106.361 E49.0859
G1 X12.592 Y106.595 E49.11195
G1 X13.02 Y106.636 E49.1284
G1 X13.691 Y106.52 E49.15446
G1 X14.083 Y106.34 E49.17097
G1 X14.604 Y105.905 E49.19694
G1 X14.855 Y105.553 E49.21349
G1 X15.089 Y104.914 E49.23953
G1 X15.13 Y104.486 E49.25599
G1 X15.014 Y103.815 E49.28205
G1 X14.834 Y103.423 E49.29855
G1 X14.397 Y102.903 E49.32455
G1 X14.047 Y102.652 E49.34103
G1 X13.657 Y102.509 E49.35693
G0 F3240 X13.409 Y102.419
G0 X12.981 Y102.376
G1 F2400 E46.85693
G0 F4320 X11.639 Y102.232
G0 X12.512 Y103.725
G0 X11.639 Y95.841
G0 X11.639 Y97.546
G0 X5.475 Y97.031
G1 F2400 E49.35693
G1 F3600 X114.525 Y97.031 E53.53026
G1 X114.525 Y22.981 E56.36415
G1 X5.475 Y22.981 E60.53749
G1 X5.475 Y96.337 E63.34482
G0 F3240 X5.475 Y97.031
G1 F2400 E60.84482
G0 F4320 X5.597 Y23.103
G0 X12.981 Y22.466
G0 X12.981 Y24.171
G0 X12.975 Y16.437
G0 X13.04 Y18.157
G0 X14.522 Y16.829
G0 X14.98 Y15.889
G0 X14.908 Y14.849
G0 X14.322 Y13.985
G0 X12.981 Y13.376
G1 F2400 E63.34482
G1 F3600 X12.309 Y13.493 E63.37093
G1 X11.917 Y13.673 E63.38743
G1 X11.396 Y14.108 E63.41341
G1 X11.145 Y14.459 E63.42992
G1 X10.911 Y15.099 E63.456
G1 X10.87 Y15.525 E63.47238
G1 X10.986 Y16.198 E63.49851
G1 X11.166 Y16.589 E63.51499
G1 X11.602 Y17.11 E63.54099
G1 X11.953 Y17.361 E63.5575
G1 X12.592 Y17.595 E63.58354
G1 X13.02 Y17.636 E63.6
G1 X13.691 Y17.52 E63.62606
G1 X14.083 Y17.34 E63.64257
G1 X14.604 Y16.905 E63.66854
G1 X14.855 Y16.553 E63.68509
G1 X15.089 Y15.914 E63.71113
G1 X15.13 Y15.486 E63.72758
G1 X15.014 Y14.815 E63.75364
G1 X14.834 Y14.423 E63.77015
G1 X14.397 Y13.903 E63.79614
G1 X14.047 Y13.652 E63.81263
G1 X13.657 Y13.509 E63.82852
G0 F3240 X13.409 Y13.419
G0 X12.981 Y13.376
G0 F4320 X11.977 Y13.768
G0 X11.177 Y14.518
G0 X11.435 Y14.612
;TYPE:WALL-OUTER
G1 F3600 X11.231 Y15.171 E63.8513
G1 X11.198 Y15.513 E63.86445
G1 X11.299 Y16.101 E63.88728
G1 X11.443 Y16.414 E63.90046
G1 X11.825 Y16.87 E63.92323
G1 X12.106 Y17.071 E63.93645
G1 X12.664 Y17.275 E63.95919
G1 X13.008 Y17.308 E63.97241
G1 X13.594 Y17.207 E63.99517
G1 X13.908 Y17.063 E64.00839
G1 X14.364 Y16.682 E64.03113
G1 X14.565 Y16.4 E64.04438
G1 X14.769 Y15.842 E64.06712
G1 X14.802 Y15.498 E64.08035
G1 X14.701 Y14.912 E64.1031
G1 X14.557 Y14.598 E64.11632
G1 X14.175 Y14.143 E64.13906
G1 X13.894 Y13.942 E64.15228
G1 X13.336 Y13.738 E64.17502
G1 X12.993 Y13.704 E64.18821
G1 X12.406 Y13.806 E64.21101
G1 X12.092 Y13.95 E64.22423
G1 X11.903 Y14.108 E64.23366
G0 F3240 X11.636 Y14.331
G0 X11.435 Y14.612
G0 F4320 X11.367 Y14.799
G1 F2400 E61.73366
G0 F4320 X11.109 Y14.704
G0 X10.996 Y15.439
G0 X11.248 Y17.492
G0 X12.416 Y16.23
G0 X11.248 Y24.171
G0 X11.248 Y23.131
G0 X5.525 Y96.706
G0 X5.8 Y96.706
G1 F2400 E64.23366
G1 F3600 X114.2 Y96.706 E68.38212
G1 X114.2 Y23.306 E71.19113
G1 X5.8 Y23.306 E75.3396
G1 X5.8 Y96.012 E78.12205
G0 F3240 X5.8 Y96.706
G0 F4320 X6 Y96.706
G1 F2400 E75.62205
G0 F4320 X6 Y96.981
G0 X11.177 Y97.546
G0 X11.177 Y95.841
G0 X12.512 Y103.725
G0 X11.639 Y102.232
G0 X11.177 Y103.518
G0 X11.435 Y103.612
G1 F2400 E78.12205
G1 F3600 X11.231 Y104.171 E78.14482
G1 X11.198 Y104.513 E78.15797
G1 X11.299 Y105.101 E78.1808
G1 X11.443 Y105.414 E78.19399
G1 X11.825 Y105.87 E78.21675
G1 X12.106 Y106.071 E78.22998
G1 X12.664 Y106.275 E78.25271
G1 X13.008 Y106.308 E78.26594
G1 X13.594 Y106.207 E78.2887
G1 X13.908 Y106.063 E78.30192
