;FLAVOR:Marlin
;TIME:3266
;Filament used: 4.59414m
;Layer height: 0.2625
;MINX:18.292
;MINY:8.414
;MINZ:0.263
;MAXX:101.716
;MAXY:112.448
;MAXZ:11.835
;Generated with Cura_SteamEngine 4.4.0
M140 S65
M105
M190 S65
M104 S205
M105
M109 S205
M82 ;absolute extrusion mode
G21;(metric values)
G90;(absolute positioning)
M82;(set extruder to absolute mode)
M107;(start with the fan off)
G28;(Home the printer)
G92 E0;(Reset the extruder to 0)
G0 Z5 E5 F500;(Move up and prime the nozzle)
G0 X-1 Z0;(Move outside the printable area)
G1 Y60 E8 F500;(Draw a priming/wiping line to the rear)
G1 X-1;(Move a little closer to the print area)
G1 Y10 E16 F500;(draw more priming/wiping)
G1 E15 F250;(Small retract)
G92 E0;(Zero the extruder)
G92 E0
G92 E0
G1 F2400 E-2.5
;LAYER_COUNT:47
;LAYER:0
M107
;MESH:pi_1_mount_bottom.stl
G0 F4320 X74.825 Y95.957 Z0.263
;TYPE:WALL-INNER
G1 F2400 E0
G1 F3600 X74.825 Y110.92 E0.57263
G1 X49.175 Y110.92 E1.55426
G1 X49.175 Y95.958 E2.12685
G1 X31.852 Y95.957 E2.7898
G1 X31.851 Y10.828 E6.04768
G1 X31.851 Y10.653 E6.05438
G1 X32.026 Y10.653 E6.05872
G1 X88.149 Y10.653 E8.20654
G1 X88.149 Y95.957 E11.47112
G1 X75.519 Y95.957 E11.95447
G0 F3240 X74.825 Y95.957
G0 F4320 X75.175 Y96.307
G1 F3600 X75.175 Y111.27 E12.5271
G1 X48.825 Y111.27 E13.53551
G1 X48.825 Y96.308 E14.10811
G1 X31.583 Y96.307 E14.76796
G1 X31.502 Y96.281 E14.77122
G1 X31.501 Y10.479 E18.05485
G1 X31.501 Y10.34 E18.06017
G1 X31.511 Y10.316 E18.06117
G1 X31.563 Y10.303 E18.06322
G1 X31.702 Y10.303 E18.06854
G1 X88.437 Y10.303 E20.23978
G1 X88.489 Y10.316 E20.24183
G1 X88.499 Y10.34 E20.24283
G1 X88.499 Y96.27 E23.53137
G1 X88.489 Y96.294 E23.53236
G1 X88.437 Y96.307 E23.53441
G1 X75.869 Y96.307 E24.01539
G0 F3240 X75.175 Y96.307
G0 F4320 X75.5 Y96.632
;TYPE:WALL-OUTER
G1 F3600 X75.5 Y111.595 E24.58802
G1 X48.5 Y111.595 E25.62131
G1 X48.5 Y96.633 E26.19391
G1 X31.531 Y96.632 E26.84331
G1 X31.316 Y96.562 E26.85196
G1 X31.214 Y96.446 E26.85787
G1 X31.176 Y96.335 E26.86236
G1 X31.176 Y10.279 E30.15572
G1 X31.237 Y10.122 E30.16217
G1 X31.351 Y10.02 E30.16802
G1 X31.523 Y9.978 E30.1748
G1 X88.477 Y9.978 E32.35442
G1 X88.649 Y10.02 E32.3612
G1 X88.763 Y10.122 E32.36705
G1 X88.824 Y10.279 E32.3735
G1 X88.824 Y96.331 E35.6667
G1 X88.763 Y96.488 E35.67315
G1 X88.649 Y96.59 E35.679
G1 X88.477 Y96.632 E35.68578
G1 X76.194 Y96.632 E36.15585
G0 F3240 X75.5 Y96.632
G0 F4320 X75.5 Y96.832
G0 X75.225 Y96.832
G0 X74.71 Y95.842
G0 X74.485 Y95.617
;TYPE:SKIN
G1 F3600 X74.485 Y110.58 E36.72848
G1 X49.515 Y110.58 E37.68408
G1 X49.515 Y95.618 E38.25668
G1 X32.192 Y95.617 E38.91963
G1 X32.191 Y10.993 E42.15818
G1 X87.809 Y10.993 E44.28668
G1 X87.809 Y95.617 E47.52524
G1 X75.179 Y95.617 E48.00859
G0 F3240 X74.485 Y95.617
G0 F4320 X74.71 Y95.842
G0 X74.668 Y110.763
G0 X49.332 Y110.763
G0 X49.319 Y95.859
G0 X32.596 Y95.872
G0 X32.597 Y95.459
G1 F3600 X32.348 Y95.209 E48.02209
G0 F4320 X32.348 Y94.714
G1 F3600 X33.092 Y95.459 E48.06238
G0 F4320 X33.587 Y95.459
G1 F3600 X32.348 Y94.219 E48.12947
G0 F4320 X32.348 Y93.724
G1 F3600 X34.082 Y95.459 E48.22334
G0 F4320 X34.577 Y95.459
G1 F3600 X32.348 Y93.229 E48.34401
G0 F4320 X32.348 Y92.734
G1 F3600 X35.072 Y95.459 E48.49146
G0 F4320 X35.567 Y95.459
G1 F3600 X32.348 Y92.239 E48.66571
G0 F4320 X32.348 Y91.744
G1 F3600 X36.062 Y95.459 E48.86674
G0 F4320 X36.557 Y95.459
G1 F3600 X32.348 Y91.25 E49.09454
G0 F4320 X32.348 Y90.755
G1 F3600 X37.052 Y95.459 E49.34913
G0 F4320 X37.547 Y95.459
G1 F3600 X32.348 Y90.26 E49.63051
G0 F4320 X32.348 Y89.765
G1 F3600 X38.042 Y95.459 E49.93868
G0 F4320 X38.537 Y95.459
G1 F3600 X32.348 Y89.27 E50.27364
G0 F4320 X32.348 Y88.775
G1 F3600 X39.032 Y95.459 E50.63539
G0 F4320 X39.527 Y95.459
G1 F3600 X32.348 Y88.28 E51.02393
G0 F4320 X32.348 Y87.785
G1 F3600 X40.022 Y95.459 E51.43926
G0 F4320 X40.517 Y95.459
G1 F3600 X32.348 Y87.29 E51.88139
G0 F4320 X32.348 Y86.795
G1 F3600 X41.012 Y95.459 E52.3503
G0 F4320 X41.507 Y95.459
G1 F3600 X32.348 Y86.3 E52.846
G0 F4320 X32.348 Y85.805
G1 F3600 X42.002 Y95.459 E53.36849
G0 F4320 X42.497 Y95.459
G1 F3600 X32.348 Y85.31 E53.91778
G0 F4320 X32.348 Y84.815
G1 F3600 X42.992 Y95.459 E54.49385
G0 F4320 X43.487 Y95.459
G1 F3600 X32.348 Y84.32 E55.09671
G0 F4320 X32.348 Y83.825
G1 F3600 X43.982 Y95.459 E55.72637
G0 F4320 X44.477 Y95.459
G1 F3600 X32.348 Y83.33 E56.38281
G0 F4320 X32.348 Y82.835
G1 F3600 X44.971 Y95.459 E57.06602
G0 F4320 X45.466 Y95.459
G1 F3600 X32.348 Y82.34 E57.77602
G0 F4320 X32.348 Y81.845
G1 F3600 X45.961 Y95.459 E58.5128
G0 F4320 X46.456 Y95.459
G1 F3600 X32.348 Y81.35 E59.27638
G0 F4320 X32.348 Y80.855
G1 F3600 X46.951 Y95.459 E60.06675
G0 F4320 X47.446 Y95.459
G1 F3600 X32.348 Y80.36 E60.88391
G0 F4320 X32.348 Y79.865
G1 F3600 X47.941 Y95.459 E61.72786
G0 F4320 X48.436 Y95.459
G1 F3600 X32.348 Y79.37 E62.5986
G0 F4320 X32.348 Y78.875
G1 F3600 X48.931 Y95.459 E63.49613
G0 F4320 X49.426 Y95.459
G1 F3600 X32.348 Y78.38 E64.42045
G0 F4320 X32.348 Y77.885
G1 F3600 X64.884 Y110.422 E66.18139
G0 F4320 X65.379 Y110.422
G1 F3600 X32.348 Y77.39 E67.96911
G0 F4320 X32.348 Y76.895
G1 F3600 X65.874 Y110.422 E69.78363
G0 F4320 X66.369 Y110.422
G1 F3600 X32.348 Y76.4 E71.62494
G0 F4320 X32.348 Y75.905
G1 F3600 X66.864 Y110.422 E73.49303
G0 F4320 X67.359 Y110.422
G1 F3600 X32.348 Y75.41 E75.38792
G0 F4320 X32.348 Y74.915
G1 F3600 X67.854 Y110.422 E77.3096
G0 F4320 X68.349 Y110.422
G1 F3600 X32.348 Y74.42 E79.25807
G0 F4320 X32.348 Y73.925
G1 F3600 X68.844 Y110.422 E81.23333
G0 F4320 X69.339 Y110.422
G1 F3600 X32.348 Y73.43 E83.23538
G0 F4320 X32.348 Y72.935
G1 F3600 X69.834 Y110.422 E85.26422
G0 F4320 X70.329 Y110.422
G1 F3600 X32.348 Y72.44 E87.31985
G0 F4320 X32.348 Y71.945
G1 F3600 X70.824 Y110.422 E89.40227
G0 F4320 X71.319 Y110.422
G1 F3600 X32.348 Y71.451 E91.51145
G0 F4320 X32.348 Y70.956
G1 F3600 X71.814 Y110.422 E93.64742
G0 F4320 X72.309 Y110.422
G1 F3600 X32.348 Y70.461 E95.81019
G0 F4320 X32.348 Y69.966
G1 F3600 X72.804 Y110.422 E97.99974
G0 F4320 X73.299 Y110.422
G1 F3600 X32.348 Y69.471 E100.21609
G0 F4320 X32.348 Y68.976
G1 F3600 X73.794 Y110.422 E102.45922
G0 F4320 X74.289 Y110.422
G1 F3600 X32.348 Y68.481 E104.72915
G0 F4320 X32.348 Y67.986
G1 F3600 X74.328 Y109.966 E107.00118
G0 F4320 X74.328 Y109.471
G1 F3600 X32.348 Y67.491 E109.27322
G0 F4320 X32.348 Y66.996
G1 F3600 X74.328 Y108.976 E111.54526
G0 F4320 X74.328 Y108.481
G1 F3600 X32.348 Y66.501 E113.81729
G0 F4320 X32.348 Y66.006
G1 F3600 X74.328 Y107.986 E116.08933
G0 F4320 X74.328 Y107.491
G1 F3600 X32.348 Y65.511 E118.36137
G0 F4320 X32.348 Y65.016
G1 F3600 X74.328 Y106.996 E120.6334
G0 F4320 X74.328 Y106.501
G1 F3600 X32.348 Y64.521 E122.90544
G0 F4320 X32.348 Y64.026
G1 F3600 X74.328 Y106.006 E125.17747
G0 F4320 X74.328 Y105.511
G1 F3600 X32.348 Y63.531 E127.44951
G0 F4320 X32.348 Y63.036
G1 F3600 X74.328 Y105.016 E129.72155
G0 F4320 X74.328 Y104.521
G1 F3600 X32.348 Y62.541 E131.99358
G0 F4320 X32.348 Y62.046
G1 F3600 X74.328 Y104.026 E134.26562
G0 F4320 X74.328 Y103.531
G1 F3600 X32.348 Y61.551 E136.53765
G0 F4320 X32.348 Y61.056
G1 F3600 X74.328 Y103.036 E138.80969
G0 F4320 X74.328 Y102.541
G1 F3600 X32.348 Y60.561 E141.08173
G0 F4320 X32.348 Y60.066
G1 F3600 X74.328 Y102.046 E143.35376
G0 F4320 X74.328 Y101.551
G1 F3600 X32.348 Y59.571 E145.6258
G0 F4320 X32.348 Y59.076
G1 F3600 X74.328 Y101.056 E147.89784
G0 F4320 X74.328 Y100.561
G1 F3600 X32.348 Y58.581 E150.16987
G0 F4320 X32.348 Y58.086
G1 F3600 X74.328 Y100.066 E152.44191
G0 F4320 X74.328 Y99.571
G1 F3600 X32.348 Y57.591 E154.71394
G0 F4320 X32.348 Y57.096
G1 F3600 X74.328 Y99.076 E156.98598
G0 F4320 X74.328 Y98.581
G1 F3600 X32.348 Y56.601 E159.25802
G0 F4320 X32.348 Y56.106
G1 F3600 X74.328 Y98.087 E161.53008
G0 F4320 X74.328 Y97.592
G1 F3600 X32.348 Y55.611 E163.80214
G0 F4320 X32.348 Y55.116
G1 F3600 X74.328 Y97.097 E166.07421
G0 F4320 X74.328 Y96.602
G1 F3600 X32.348 Y54.621 E168.34627
G0 F4320 X32.348 Y54.126
G1 F3600 X74.328 Y96.107 E170.61833
G0 F4320 X74.328 Y95.612
G1 F3600 X32.348 Y53.631 E172.8904
G0 F4320 X32.347 Y53.136
G1 F3600 X74.67 Y95.459 E175.181
G0 F4320 X75.165 Y95.459
G1 F3600 X32.347 Y52.641 E177.49839
G0 F4320 X32.347 Y52.146
G1 F3600 X75.66 Y95.459 E179.84257
G0 F4320 X76.155 Y95.459
G1 F3600 X32.347 Y51.651 E182.21354
G0 F4320 X32.347 Y51.156
G1 F3600 X76.65 Y95.459 E184.6113
G0 F4320 X77.145 Y95.459
G1 F3600 X32.347 Y50.661 E187.03585
G0 F4320 X32.347 Y50.166
G1 F3600 X77.64 Y95.459 E189.48719
G0 F4320 X78.135 Y95.459
G1 F3600 X32.347 Y49.671 E191.96533
G0 F4320 X32.347 Y49.176
G1 F3600 X78.63 Y95.459 E194.47025
G0 F4320 X79.125 Y95.459
G1 F3600 X32.347 Y48.681 E197.00196
G0 F4320 X32.347 Y48.186
G1 F3600 X79.62 Y95.459 E199.56046
G0 F4320 X80.115 Y95.459
G1 F3600 X32.347 Y47.691 E202.14576
G0 F4320 X32.347 Y47.196
G1 F3600 X80.61 Y95.459 E204.75784
G0 F4320 X81.105 Y95.459
G1 F3600 X32.347 Y46.701 E207.39672
G0 F4320 X32.347 Y46.206
G1 F3600 X81.6 Y95.459 E210.06238
G0 F4320 X82.095 Y95.459
G1 F3600 X32.347 Y45.711 E212.75484
G0 F4320 X32.347 Y45.216
G1 F3600 X82.59 Y95.459 E215.47408
G0 F4320 X83.085 Y95.459
G1 F3600 X32.347 Y44.721 E218.22012
G0 F4320 X32.347 Y44.226
G1 F3600 X83.58 Y95.459 E220.99294
G0 F4320 X84.074 Y95.459
G1 F3600 X32.347 Y43.731 E223.79253
G0 F4320 X32.347 Y43.236
G1 F3600 X84.569 Y95.459 E226.61891
G0 F4320 X85.064 Y95.459
G1 F3600 X32.347 Y42.741 E229.47208
G0 F4320 X32.347 Y42.246
G1 F3600 X85.559 Y95.459 E232.35204
G0 F4320 X86.054 Y95.459
G1 F3600 X32.347 Y41.751 E235.25879
G0 F4320 X32.347 Y41.256
G1 F3600 X86.549 Y95.459 E238.19233
G0 F4320 X87.044 Y95.459
G1 F3600 X32.347 Y40.761 E241.15266
G0 F4320 X32.347 Y40.266
G1 F3600 X87.539 Y95.459 E244.13978
G0 F4320 X87.651 Y95.076
G1 F3600 X32.347 Y39.771 E247.13297
G0 F4320 X32.347 Y39.276
G1 F3600 X87.651 Y94.581 E250.12615
G0 F4320 X87.651 Y94.086
G1 F3600 X32.347 Y38.781 E253.11933
G0 F4320 X32.347 Y38.287
G1 F3600 X87.651 Y93.591 E256.11249
G0 F4320 X87.651 Y93.096
G1 F3600 X32.347 Y37.792 E259.10565
G0 F4320 X32.347 Y37.297
G1 F3600 X87.651 Y92.601 E262.0988
G0 F4320 X87.651 Y92.106
G1 F3600 X32.347 Y36.802 E265.09196
G0 F4320 X32.347 Y36.307
G1 F3600 X87.651 Y91.611 E268.08511
G0 F4320 X87.651 Y91.116
G1 F3600 X32.347 Y35.812 E271.07827
G0 F4320 X32.347 Y35.317
G1 F3600 X87.651 Y90.621 E274.07143
G0 F4320 X87.651 Y90.126
G1 F3600 X32.347 Y34.822 E277.06458
G0 F4320 X32.347 Y34.327
G1 F3600 X87.651 Y89.631 E280.05774
G0 F4320 X87.651 Y89.136
G1 F3600 X32.347 Y33.832 E283.05089
G0 F4320 X32.347 Y33.337
G1 F3600 X87.651 Y88.641 E286.04405
G0 F4320 X87.651 Y88.146
G1 F3600 X32.347 Y32.842 E289.03721
G0 F4320 X32.347 Y32.347
G1 F3600 X87.651 Y87.651 E292.03036
G0 F4320 X87.651 Y87.156
G1 F3600 X32.347 Y31.852 E295.02352
G0 F4320 X32.347 Y31.357
G1 F3600 X87.651 Y86.661 E298.01667
G0 F4320 X87.651 Y86.166
G1 F3600 X32.347 Y30.862 E301.00983
G0 F4320 X32.347 Y30.367
G1 F3600 X87.651 Y85.671 E304.00299
G0 F4320 X87.651 Y85.176
G1 F3600 X32.347 Y29.872 E306.99614
G0 F4320 X32.347 Y29.377
G1 F3600 X87.651 Y84.681 E309.9893
G0 F4320 X87.651 Y84.186
G1 F3600 X32.347 Y28.882 E312.98245
G0 F4320 X32.347 Y28.387
G1 F3600 X87.651 Y83.691 E315.97561
G0 F4320 X87.651 Y83.196
G1 F3600 X32.347 Y27.892 E318.96877
G0 F4320 X32.347 Y27.397
G1 F3600 X87.651 Y82.701 E321.96192
G0 F4320 X87.651 Y82.206
G1 F3600 X32.347 Y26.902 E324.95508
G0 F4320 X32.347 Y26.407
G1 F3600 X87.651 Y81.711 E327.94823
G0 F4320 X87.651 Y81.216
G1 F3600 X32.347 Y25.912 E330.94139
G0 F4320 X32.347 Y25.417
G1 F3600 X87.651 Y80.721 E333.93455
G0 F4320 X87.651 Y80.226
G1 F3600 X32.347 Y24.922 E336.9277
G0 F4320 X32.347 Y24.427
G1 F3600 X87.651 Y79.731 E339.92086
G0 F4320 X87.651 Y79.236
G1 F3600 X32.347 Y23.932 E342.91401
G0 F4320 X32.347 Y23.437
G1 F3600 X87.651 Y78.741 E345.90717
G0 F4320 X87.651 Y78.247
G1 F3600 X32.347 Y22.942 E348.90035
G0 F4320 X32.347 Y22.447
G1 F3600 X87.651 Y77.752 E351.89354
G0 F4320 X87.651 Y77.257
G1 F3600 X32.347 Y21.952 E354.88672
G0 F4320 X32.347 Y21.457
G1 F3600 X87.651 Y76.762 E357.8799
G0 F4320 X87.651 Y76.267
G1 F3600 X32.347 Y20.962 E360.87309
G0 F4320 X32.347 Y20.467
G1 F3600 X87.651 Y75.772 E363.86627
G0 F4320 X87.651 Y75.277
G1 F3600 X32.347 Y19.972 E366.85945
G0 F4320 X32.347 Y19.477
G1 F3600 X87.651 Y74.782 E369.85264
G0 F4320 X87.651 Y74.287
G1 F3600 X32.347 Y18.982 E372.84582
G0 F4320 X32.347 Y18.488
G1 F3600 X87.651 Y73.792 E375.83897
G0 F4320 X87.651 Y73.297
G1 F3600 X32.347 Y17.993 E378.83213
G0 F4320 X32.347 Y17.498
G1 F3600 X87.651 Y72.802 E381.82529
G0 F4320 X87.651 Y72.307
G1 F3600 X32.347 Y17.003 E384.81844
G0 F4320 X32.347 Y16.508
G1 F3600 X87.651 Y71.812 E387.8116
G0 F4320 X87.651 Y71.317
G1 F3600 X32.347 Y16.013 E390.80475
G0 F4320 X32.347 Y15.518
G1 F3600 X87.651 Y70.822 E393.79791
G0 F4320 X87.651 Y70.327
G1 F3600 X32.347 Y15.023 E396.79107
G0 F4320 X32.347 Y14.528
G1 F3600 X87.651 Y69.832 E399.78422
G0 F4320 X87.651 Y69.337
G1 F3600 X32.347 Y14.033 E402.77738
G0 F4320 X32.347 Y13.538
G1 F3600 X87.651 Y68.842 E405.77053
G0 F4320 X87.651 Y68.347
G1 F3600 X32.347 Y13.043 E408.76369
G0 F4320 X32.347 Y12.548
G1 F3600 X87.651 Y67.852 E411.75685
G0 F4320 X87.651 Y67.357
G1 F3600 X32.347 Y12.053 E414.75
G0 F4320 X32.347 Y11.558
G1 F3600 X87.651 Y66.862 E417.74316
G0 F4320 X87.651 Y66.367
G1 F3600 X32.433 Y11.149 E420.73166
G0 F4320 X32.928 Y11.149
G1 F3600 X87.651 Y65.872 E423.69337
G0 F4320 X87.651 Y65.377
G1 F3600 X33.423 Y11.149 E426.62829
G0 F4320 X33.918 Y11.149
G1 F3600 X87.651 Y64.882 E429.53642
G0 F4320 X87.651 Y64.387
G1 F3600 X34.413 Y11.149 E432.41776
G0 F4320 X34.908 Y11.149
G1 F3600 X87.651 Y63.892 E435.27231
G0 F4320 X87.651 Y63.397
G1 F3600 X35.403 Y11.149 E438.10007
G0 F4320 X35.898 Y11.149
G1 F3600 X87.651 Y62.902 E440.90104
G0 F4320 X87.651 Y62.407
G1 F3600 X36.393 Y11.149 E443.67522
G0 F4320 X36.888 Y11.149
G1 F3600 X87.651 Y61.912 E446.42261
G0 F4320 X87.651 Y61.417
G1 F3600 X37.383 Y11.149 E449.14321
G0 F4320 X37.878 Y11.149
G1 F3600 X87.651 Y60.922 E451.83702
G0 F4320 X87.651 Y60.427
G1 F3600 X38.373 Y11.149 E454.50403
G0 F4320 X38.868 Y11.149
G1 F3600 X87.651 Y59.932 E457.14426
G0 F4320 X87.651 Y59.437
G1 F3600 X39.363 Y11.149 E459.7577
G0 F4320 X39.858 Y11.149
G1 F3600 X87.651 Y58.943 E462.34437
G0 F4320 X87.651 Y58.448
G1 F3600 X40.353 Y11.149 E464.90425
G0 F4320 X40.848 Y11.149
G1 F3600 X87.651 Y57.953 E467.43735
G0 F4320 X87.651 Y57.458
G1 F3600 X41.343 Y11.149 E469.94365
G0 F4320 X41.838 Y11.149
G1 F3600 X87.651 Y56.963 E472.42316
G0 F4320 X87.651 Y56.468
G1 F3600 X42.333 Y11.149 E474.87588
G0 F4320 X42.828 Y11.149
G1 F3600 X87.651 Y55.973 E477.30182
G0 F4320 X87.651 Y55.478
G1 F3600 X43.323 Y11.149 E479.70096
G0 F4320 X43.817 Y11.149
G1 F3600 X87.651 Y54.983 E482.07334
G0 F4320 X87.651 Y54.488
G1 F3600 X44.312 Y11.149 E484.41892
G0 F4320 X44.807 Y11.149
G1 F3600 X87.651 Y53.993 E486.73772
G0 F4320 X87.651 Y53.498
G1 F3600 X45.302 Y11.149 E489.02973
G0 F4320 X45.797 Y11.149
G1 F3600 X87.651 Y53.003 E491.29495
G0 F4320 X87.651 Y52.508
G1 F3600 X46.292 Y11.149 E493.53337
G0 F4320 X46.787 Y11.149
G1 F3600 X87.651 Y52.013 E495.74501
G0 F4320 X87.651 Y51.518
G1 F3600 X47.282 Y11.149 E497.92985
G0 F4320 X47.777 Y11.149
G1 F3600 X87.651 Y51.023 E500.08791
G0 F4320 X87.651 Y50.528
G1 F3600 X48.272 Y11.149 E502.21917
G0 F4320 X48.767 Y11.149
G1 F3600 X87.651 Y50.033 E504.32365
G0 F4320 X87.651 Y49.538
G1 F3600 X49.262 Y11.149 E506.40133
G0 F4320 X49.757 Y11.149
G1 F3600 X87.651 Y49.043 E508.45223
G0 F4320 X87.651 Y48.548
G1 F3600 X50.252 Y11.149 E510.47633
G0 F4320 X50.747 Y11.149
G1 F3600 X87.651 Y48.053 E512.47365
G0 F4320 X87.651 Y47.558
G1 F3600 X51.242 Y11.149 E514.44417
G0 F4320 X51.737 Y11.149
G1 F3600 X87.651 Y47.063 E516.3879
G0 F4320 X87.651 Y46.568
G1 F3600 X52.232 Y11.149 E518.30484
G0 F4320 X52.727 Y11.149
G1 F3600 X87.651 Y46.073 E520.195
G0 F4320 X87.651 Y45.578
G1 F3600 X53.222 Y11.149 E522.05836
G0 F4320 X53.717 Y11.149
G1 F3600 X87.651 Y45.083 E523.89493
G0 F4320 X87.651 Y44.588
G1 F3600 X54.212 Y11.149 E525.70471
G0 F4320 X54.707 Y11.149
G1 F3600 X87.651 Y44.093 E527.4877
G0 F4320 X87.651 Y43.598
G1 F3600 X55.202 Y11.149 E529.2439
