;FLAVOR:Marlin
;TIME:4215
;Filament used: 6.48593m
;Layer height: 0.2625
;MINX:12.397
;MINY:28.843
;MINZ:0.263
;MAXX:106.723
;MAXY:91.157
;MAXZ:20.514
;Generated with Cura_SteamEngine 4.4.0
M140 S65
M105
M190 S65
M104 S205
M105
M109 S205
M82 ;absolute extrusion mode
G21;(metric values)
G90;(absolute positioning)
M82;(set extruder to absolute mode)
M107;(start with the fan off)
G28;(Home the printer)
G92 E0;(Reset the extruder to 0)
G0 Z5 E5 F500;(Move up and prime the nozzle)
G0 X-1 Z0;(Move outside the printable area)
G1 Y60 E8 F500;(Draw a priming/wiping line to the rear)
G1 X-1;(Move a little closer to the print area)
G1 Y10 E16 F500;(draw more priming/wiping)
G1 E15 F250;(Small retract)
G92 E0;(Zero the extruder)
G92 E0
G92 E0
G1 F2400 E-2.5
;LAYER_COUNT:78
;LAYER:0
M107
;MESH:pi_1_mount_top.stl
G0 F4320 X19.719 Y55.425 Z0.263
;TYPE:WALL-INNER
G1 F2400 E0
G1 F3600 X19.719 Y33.401 E0.84286
G1 X19.719 Y33.29 E0.84711
G1 X19.739 Y33.194 E0.85086
G1 X19.775 Y33.174 E0.85243
G1 X19.886 Y33.174 E0.85668
G1 X20.998 Y33.175 E0.89924
G1 X102.305 Y33.174 E4.01085
G1 X102.354 Y33.19 E4.01283
G1 X102.364 Y33.208 E4.01361
G1 X102.38 Y34.068 E4.04653
G1 X102.381 Y86.598 E6.05685
G1 X102.381 Y86.709 E6.0611
G1 X102.36 Y86.807 E6.06493
G1 X102.328 Y86.826 E6.06636
G1 X102.217 Y86.826 E6.07061
G1 X20.999 Y86.826 E9.17882
G1 X19.797 Y86.825 E9.22482
G1 X19.744 Y86.808 E9.22695
G1 X19.739 Y86.799 E9.22734
G1 X19.734 Y82.672 E9.38528
G1 X19.734 Y82.644 E9.38635
G1 X19.733 Y82.441 E9.39412
G1 X20.037 Y82.643 E9.40257
G1 X20.064 Y82.648 E9.40357
G1 X20.758 Y82.781 E9.43061
G1 X21.473 Y82.636 E9.45853
G1 X21.749 Y82.452 E9.47122
G1 X22.037 Y82.643 E9.48445
G1 X22.758 Y82.781 E9.51254
G1 X23.473 Y82.636 E9.54046
G1 X23.749 Y82.452 E9.55316
G1 X24.037 Y82.643 E9.56638
G1 X24.758 Y82.781 E9.59448
G1 X25.473 Y82.636 E9.6224
G1 X26.08 Y82.23 E9.65034
G1 X26.184 Y82.076 E9.65746
G1 X26.25 Y81.977 E9.66201
G1 X26.314 Y82.073 E9.66338
G1 X26.422 Y82.235 E9.66866
G1 X27.037 Y82.643 E9.69691
G1 X27.758 Y82.781 E9.725
G1 X28.473 Y82.636 E9.75292
G1 X28.749 Y82.452 E9.76561
G1 X29.037 Y82.643 E9.77884
G1 X29.758 Y82.781 E9.80693
G1 X30.473 Y82.636 E9.83485
G1 X31.08 Y82.23 E9.8628
G1 X31.489 Y81.621 E9.89088
G1 X31.632 Y80.9 E9.91901
G1 X31.489 Y80.179 E9.94714
G1 X31.078 Y79.565 E9.97541
G1 X30.463 Y79.157 E10.00366
G1 X29.742 Y79.019 E10.03175
G1 X29.027 Y79.164 E10.05967
G1 X28.751 Y79.348 E10.07236
G1 X28.463 Y79.157 E10.08559
G1 X27.742 Y79.019 E10.11368
G1 X27.027 Y79.164 E10.1416
G1 X26.42 Y79.57 E10.16955
G1 X26.316 Y79.724 E10.17666
G1 X26.25 Y79.823 E10.18121
G1 X26.186 Y79.727 E10.18258
G1 X26.078 Y79.565 E10.18787
G1 X25.463 Y79.157 E10.21611
G1 X24.742 Y79.019 E10.24421
G1 X24.027 Y79.164 E10.27213
G1 X23.751 Y79.348 E10.28482
G1 X23.463 Y79.157 E10.29805
G1 X22.742 Y79.019 E10.32614
G1 X22.027 Y79.164 E10.35406
G1 X21.751 Y79.348 E10.36675
G1 X21.463 Y79.157 E10.37998
G1 X20.742 Y79.019 E10.40807
G1 X20.058 Y79.158 E10.43478
G1 X20.027 Y79.164 E10.43599
G1 X19.73 Y79.363 E10.44967
G1 X19.73 Y79.165 E10.4518
G1 X19.73 Y79.133 E10.45295
G1 X19.719 Y70.575 E10.78047
G1 X13.925 Y70.575 E11.0022
G1 X13.925 Y55.425 E11.58199
G1 X19.025 Y55.425 E11.77717
G0 F3240 X19.719 Y55.425
G0 F4320 X19.369 Y55.075
G1 F3600 X19.369 Y33.256 E12.61218
G1 X19.413 Y33.048 E12.62032
G1 X19.5 Y32.927 E12.62602
G1 X19.665 Y32.834 E12.63327
G1 X19.71 Y32.824 E12.63503
G1 X20.998 Y32.825 E12.68433
G1 X102.361 Y32.824 E15.79808
G1 X102.536 Y32.882 E15.80514
G1 X102.648 Y32.984 E15.81094
G1 X102.713 Y33.132 E15.81712
G1 X102.73 Y34.068 E15.85295
G1 X102.731 Y86.744 E17.86886
G1 X102.687 Y86.951 E17.87695
G1 X102.598 Y87.075 E17.8828
G1 X102.436 Y87.167 E17.88993
G1 X102.395 Y87.176 E17.89153
G1 X20.999 Y87.176 E21.00655
G1 X19.741 Y87.175 E21.0547
G1 X19.562 Y87.116 E21.06191
G1 X19.451 Y87.015 E21.06765
G1 X19.389 Y86.873 E21.07358
G1 X19.383 Y82.038 E21.25862
G1 X19.383 Y81.983 E21.26072
G1 X19.382 Y81.546 E21.27745
G1 X19.674 Y81.982 E21.28723
G1 X19.719 Y82.012 E21.28914
G1 X20.172 Y82.312 E21.30994
G1 X20.756 Y82.424 E21.33269
G1 X21.336 Y82.307 E21.35534
G1 X21.748 Y82.031 E21.37431
G1 X22.172 Y82.312 E21.39378
G1 X22.756 Y82.424 E21.41654
G1 X23.336 Y82.307 E21.43918
G1 X23.748 Y82.031 E21.45816
G1 X24.172 Y82.312 E21.47763
G1 X24.756 Y82.424 E21.50038
G1 X25.336 Y82.307 E21.52303
G1 X25.828 Y81.978 E21.54568
G1 X26.09 Y81.587 E21.56369
G1 X26.159 Y81.484 E21.56843
G1 X26.165 Y81.45 E21.56976
G1 X26.25 Y81.026 E21.5863
G1 X26.334 Y81.449 E21.59051
G1 X26.341 Y81.484 E21.5912
G1 X26.41 Y81.587 E21.59595
G1 X26.674 Y81.982 E21.61413
G1 X27.172 Y82.312 E21.63699
G1 X27.756 Y82.424 E21.65975
G1 X28.336 Y82.307 E21.68239
G1 X28.748 Y82.031 E21.70137
G1 X29.172 Y82.312 E21.72084
G1 X29.756 Y82.424 E21.74359
G1 X30.336 Y82.307 E21.76624
G1 X30.828 Y81.978 E21.78889
G1 X31.159 Y81.484 E21.81164
G1 X31.275 Y80.9 E21.83443
G1 X31.159 Y80.316 E21.85722
G1 X30.826 Y79.818 E21.88014
G1 X30.328 Y79.488 E21.90301
G1 X29.744 Y79.376 E21.92576
G1 X29.164 Y79.493 E21.94841
G1 X28.752 Y79.769 E21.96739
G1 X28.328 Y79.488 E21.98685
G1 X27.744 Y79.376 E22.00961
G1 X27.164 Y79.493 E22.03225
G1 X26.672 Y79.822 E22.0549
G1 X26.41 Y80.213 E22.07292
G1 X26.341 Y80.316 E22.07766
G1 X26.335 Y80.35 E22.07898
G1 X26.25 Y80.774 E22.09553
G1 X26.166 Y80.351 E22.09973
G1 X26.159 Y80.316 E22.10043
G1 X26.09 Y80.213 E22.10517
G1 X25.826 Y79.818 E22.12335
G1 X25.328 Y79.488 E22.14622
G1 X24.744 Y79.376 E22.16897
G1 X24.164 Y79.493 E22.19162
G1 X23.752 Y79.769 E22.2106
G1 X23.328 Y79.488 E22.23006
G1 X22.744 Y79.376 E22.25282
G1 X22.164 Y79.493 E22.27546
G1 X21.752 Y79.769 E22.29444
G1 X21.328 Y79.488 E22.31391
G1 X20.744 Y79.376 E22.33667
G1 X20.164 Y79.493 E22.35931
G1 X19.717 Y79.792 E22.37989
G1 X19.672 Y79.822 E22.38196
G1 X19.381 Y80.257 E22.40199
G1 X19.381 Y79.823 E22.40836
G1 X19.381 Y79.768 E22.41031
G1 X19.369 Y70.925 E22.74873
G1 X13.575 Y70.925 E22.97046
G1 X13.575 Y55.075 E23.57704
G1 X18.675 Y55.075 E23.77222
G0 F3240 X19.369 Y55.075
G0 F4320 X19.044 Y54.75
;TYPE:WALL-OUTER
G1 F3600 X19.044 Y33.222 E24.59609
G1 X19.109 Y32.913 E24.60818
G1 X19.279 Y32.679 E24.61925
G1 X19.549 Y32.526 E24.63112
G1 X19.674 Y32.499 E24.63602
G1 X20.998 Y32.5 E24.68669
G1 X102.413 Y32.499 E27.80244
G1 X102.704 Y32.596 E27.81417
G1 X102.919 Y32.791 E27.82528
G1 X103.037 Y33.06 E27.83652
G1 X103.055 Y34.068 E27.87511
G1 X103.056 Y86.778 E29.89231
G1 X102.991 Y87.086 E29.90436
G1 X102.82 Y87.322 E29.91552
G1 X102.555 Y87.473 E29.92719
G1 X102.427 Y87.501 E29.9322
G1 X20.999 Y87.501 E33.04845
G1 X19.688 Y87.5 E33.09862
G1 X19.396 Y87.404 E33.11038
G1 X19.181 Y87.209 E33.12149
G1 X19.064 Y86.942 E33.13265
G1 X19.044 Y71.25 E33.73318
G1 X13.25 Y71.25 E33.95491
G1 X13.25 Y54.75 E34.58637
G1 X18.35 Y54.75 E34.78155
G0 F3240 X19.044 Y54.75
G0 F4320 X19.044 Y54.55
G0 X19.231 Y54.55
G0 X18.879 Y55.572
G0 X14.082 Y55.582
G0 X14.082 Y70.418
G0 X19.876 Y70.418
G0 X19.897 Y79.051
G0 X21.751 Y79.166
G0 X23.75 Y79.952
G0 X23.906 Y80.056
G1 F3600 X23.811 Y80.199 E34.78812
G1 X23.75 Y80.289 E34.79228
G1 X23.691 Y80.201 E34.79348
G1 X23.592 Y80.053 E34.79811
G1 X23.203 Y79.795 E34.81597
G1 X22.746 Y79.707 E34.83378
G1 X22.291 Y79.799 E34.85155
G1 X21.906 Y80.056 E34.86926
G1 X21.811 Y80.199 E34.87583
G1 X21.75 Y80.289 E34.88
G1 X21.691 Y80.201 E34.8812
G1 X21.592 Y80.053 E34.88583
G1 X21.203 Y79.795 E34.90369
G1 X20.746 Y79.707 E34.9215
G1 X20.291 Y79.799 E34.93927
G1 X19.906 Y80.056 E34.95698
G1 X19.647 Y80.443 E34.9748
G1 X19.556 Y80.9 E34.99264
G1 X19.647 Y81.357 E35.01047
G1 X19.908 Y81.747 E35.02843
G1 X20.297 Y82.005 E35.04629
G1 X20.754 Y82.093 E35.0641
G1 X21.209 Y82.001 E35.08187
G1 X21.594 Y81.744 E35.09958
G1 X21.689 Y81.601 E35.10615
G1 X21.75 Y81.511 E35.11032
G1 X21.809 Y81.599 E35.11152
G1 X21.908 Y81.747 E35.11615
G1 X22.297 Y82.005 E35.13401
G1 X22.754 Y82.093 E35.15182
G1 X23.209 Y82.001 E35.16959
G1 X23.594 Y81.744 E35.1873
G1 X23.689 Y81.601 E35.19387
G1 X23.75 Y81.511 E35.19803
G1 X23.809 Y81.599 E35.19924
G1 X23.908 Y81.747 E35.20387
G1 X24.297 Y82.005 E35.22173
G1 X24.754 Y82.093 E35.23954
G1 X25.209 Y82.001 E35.25731
G1 X25.594 Y81.744 E35.27502
G1 X25.853 Y81.357 E35.29284
G1 X25.944 Y80.9 E35.31068
G1 X25.853 Y80.443 E35.32851
G1 X25.592 Y80.053 E35.34647
G1 X25.203 Y79.795 E35.36433
G1 X24.746 Y79.707 E35.38214
G1 X24.291 Y79.799 E35.39991
G1 X24.221 Y79.846 E35.40313
G0 F3240 X23.906 Y80.056
G0 F4320 X23.811 Y80.199
G0 X23.795 Y80.223
G0 X23.75 Y80.032
G0 X24.242 Y79.681
G0 X27.746 Y79.577
G0 X28.75 Y79.952
G0 X28.906 Y80.056
G1 F3600 X28.811 Y80.199 E35.4097
G1 X28.75 Y80.289 E35.41387
G1 X28.691 Y80.201 E35.41507
G1 X28.592 Y80.053 E35.4197
G1 X28.203 Y79.795 E35.43756
G1 X27.746 Y79.707 E35.45537
G1 X27.291 Y79.799 E35.47314
G1 X26.906 Y80.056 E35.49085
G1 X26.647 Y80.443 E35.50867
G1 X26.556 Y80.9 E35.52651
G1 X26.647 Y81.357 E35.54434
G1 X26.908 Y81.747 E35.5623
G1 X27.297 Y82.005 E35.58016
G1 X27.754 Y82.093 E35.59797
G1 X28.209 Y82.001 E35.61574
G1 X28.594 Y81.744 E35.63345
G1 X28.689 Y81.601 E35.64002
G1 X28.75 Y81.511 E35.64419
G1 X28.809 Y81.599 E35.64539
G1 X28.908 Y81.747 E35.65002
G1 X29.297 Y82.005 E35.66788
G1 X29.754 Y82.093 E35.68569
G1 X30.209 Y82.001 E35.70346
G1 X30.594 Y81.744 E35.72117
G1 X30.853 Y81.357 E35.73899
G1 X30.944 Y80.9 E35.75683
G1 X30.853 Y80.443 E35.77466
G1 X30.592 Y80.053 E35.79262
G1 X30.203 Y79.795 E35.81048
G1 X29.746 Y79.707 E35.82829
G1 X29.291 Y79.799 E35.84606
G1 X29.221 Y79.846 E35.84929
G0 F3240 X28.906 Y80.056
G0 F4320 X28.811 Y80.199
G0 X28.795 Y80.223
G0 X28.75 Y80.032
G0 X28.891 Y79.152
G0 X28.751 Y78.94
;TYPE:SKIN
G1 F3600 X28.593 Y78.836 E35.85652
G1 X27.74 Y78.673 E35.88976
G1 X26.893 Y78.844 E35.92283
G1 X26.252 Y79.273 E35.95235
G1 X25.594 Y78.836 E35.98258
G1 X24.74 Y78.673 E36.01585
G1 X23.894 Y78.844 E36.04888
G1 X23.751 Y78.94 E36.05547
G1 X23.593 Y78.836 E36.06271
G1 X22.74 Y78.673 E36.09594
G1 X21.894 Y78.844 E36.12898
G1 X21.751 Y78.94 E36.13557
G1 X21.593 Y78.836 E36.14281
G1 X20.74 Y78.673 E36.17604
G1 X20.07 Y78.808 E36.2022
G1 X20.059 Y70.235 E36.53029
G1 X14.265 Y70.235 E36.75202
G1 X14.265 Y55.765 E37.30579
G1 X20.059 Y55.765 E37.52752
G1 X20.059 Y33.514 E38.37907
G1 X20.998 Y33.515 E38.415
G1 X102.03 Y33.514 E41.51609
G1 X102.04 Y34.068 E41.5373
G1 X102.041 Y86.486 E43.54333
G1 X20.999 Y86.486 E46.64481
G1 X20.079 Y86.485 E46.68001
G1 X20.073 Y82.996 E46.81354
G1 X20.76 Y83.127 E46.8403
G1 X21.606 Y82.956 E46.87333
G1 X21.749 Y82.86 E46.87993
G1 X21.907 Y82.964 E46.88716
G1 X22.76 Y83.127 E46.9204
G1 X23.606 Y82.956 E46.95343
G1 X23.749 Y82.86 E46.96002
G1 X23.907 Y82.964 E46.96726
G1 X24.76 Y83.127 E47.0005
G1 X25.607 Y82.956 E47.03356
G1 X26.248 Y82.527 E47.06308
G1 X26.906 Y82.964 E47.09331
G1 X27.76 Y83.127 E47.12658
G1 X28.606 Y82.956 E47.15962
G1 X28.749 Y82.86 E47.16621
G1 X28.907 Y82.964 E47.17345
G1 X29.76 Y83.127 E47.20668
G1 X30.607 Y82.956 E47.23975
G1 X31.325 Y82.475 E47.27282
G1 X31.809 Y81.754 E47.30606
G1 X31.978 Y80.9 E47.33937
G1 X31.809 Y80.047 E47.37265
G1 X31.323 Y79.32 E47.40612
G1 X30.594 Y78.836 E47.43961
G1 X29.74 Y78.673 E47.47288
G1 X29.405 Y78.741 E47.48596
G0 F3240 X28.894 Y78.844
G0 X28.751 Y78.94
G0 F4320 X28.891 Y79.152
G0 X27.242 Y79.681
G0 X26.529 Y80.393
G0 X26.512 Y81.3
G0 X24.712 Y82.927
G0 X23.749 Y82.634
G0 X21.749 Y82.634
G0 X19.9 Y82.751
G0 X19.896 Y86.668
G0 X20.495 Y86.74
G0 X20.496 Y86.327
G1 F3600 X20.235 Y86.066 E47.50009
G0 F4320 X20.234 Y85.571
G1 F3600 X20.991 Y86.327 E47.54103
G0 F4320 X21.486 Y86.328
G1 F3600 X20.233 Y85.074 E47.60887
G0 F4320 X20.232 Y84.579
G1 F3600 X21.981 Y86.328 E47.70353
G0 F4320 X22.476 Y86.328
G1 F3600 X20.231 Y84.083 E47.82503
G0 F4320 X20.231 Y83.587
G1 F3600 X22.971 Y86.328 E47.97335
G0 F4320 X23.466 Y86.328
G1 F3600 X20.345 Y83.207 E48.14227
G0 F4320 X20.892 Y83.258
G1 F3600 X23.961 Y86.328 E48.3084
G0 F4320 X24.456 Y86.328
G1 F3600 X21.304 Y83.176 E48.47899
G0 F4320 X21.702 Y83.079
G1 F3600 X24.951 Y86.328 E48.65483
G0 F4320 X25.446 Y86.328
G1 F3600 X22.319 Y83.201 E48.82407
G0 F4320 X22.875 Y83.262
G1 F3600 X25.941 Y86.328 E48.99001
G0 F4320 X26.436 Y86.328
G1 F3600 X23.287 Y83.179 E49.16044
G0 F4320 X23.69 Y83.087
G1 F3600 X26.931 Y86.328 E49.33585
G0 F4320 X27.426 Y86.328
G1 F3600 X24.295 Y83.197 E49.5053
G0 F4320 X24.859 Y83.266
G1 F3600 X27.921 Y86.328 E49.67102
G0 F4320 X28.416 Y86.328
G1 F3600 X25.271 Y83.183 E49.84124
G0 F4320 X25.679 Y83.097
G1 F3600 X28.911 Y86.328 E50.01613
G0 F4320 X29.406 Y86.328
G1 F3600 X25.975 Y82.897 E50.20182
G0 F4320 X26.365 Y82.793
G1 F3600 X29.901 Y86.328 E50.39317
G0 F4320 X30.396 Y86.328
G1 F3600 X27.257 Y83.189 E50.56306
G0 F4320 X27.833 Y83.271
G1 F3600 X30.891 Y86.328 E50.72854
G0 F4320 X31.386 Y86.328
G1 F3600 X28.245 Y83.187 E50.89853
G0 F4320 X28.657 Y83.104
G1 F3600 X31.881 Y86.328 E51.07302
G0 F4320 X32.376 Y86.328
G1 F3600 X29.232 Y83.184 E51.24318
G0 F4320 X29.816 Y83.273
G1 F3600 X32.871 Y86.328 E51.40852
G0 F4320 X33.366 Y86.328
G1 F3600 X30.228 Y83.191 E51.57833
G0 F4320 X30.641 Y83.108
G1 F3600 X33.861 Y86.328 E51.7526
G0 F4320 X34.356 Y86.328
G1 F3600 X30.945 Y82.918 E51.93719
G0 F4320 X31.242 Y82.719
G1 F3600 X34.851 Y86.328 E52.13251
G0 F4320 X35.346 Y86.328
G1 F3600 X31.504 Y82.486 E52.34045
G0 F4320 X31.703 Y82.19
G1 F3600 X35.841 Y86.328 E52.5644
G0 F4320 X36.336 Y86.328
G1 F3600 X31.901 Y81.894 E52.80441
G0 F4320 X32.015 Y81.513
G1 F3600 X36.831 Y86.328 E53.06503
G0 F4320 X37.326 Y86.328
G1 F3600 X32.096 Y81.099 E53.34806
G0 F4320 X32.074 Y80.581
G1 F3600 X37.821 Y86.328 E53.6591
G0 F4320 X38.315 Y86.328
G1 F3600 X31.925 Y79.937 E54.00497
G1 X31.863 Y79.875
G0 F4320 X31.534 Y80.094
G0 X30.485 Y79.069
G0 X30.713 Y78.726
G1 F3600 X14.422 Y62.434 E54.88669
G0 F4320 X14.422 Y61.939
G1 F3600 X38.81 Y86.328 E56.20664
G0 F4320 X39.305 Y86.328
G1 F3600 X14.422 Y61.444 E57.55339
G0 F4320 X14.422 Y60.949
G1 F3600 X39.8 Y86.328 E58.92692
G0 F4320 X40.295 Y86.328
G1 F3600 X14.422 Y60.454 E60.32724
G0 F4320 X14.422 Y59.959
G1 F3600 X40.79 Y86.328 E61.75435
G0 F4320 X41.285 Y86.328
G1 F3600 X14.422 Y59.464 E63.20826
G0 F4320 X14.422 Y58.969
G1 F3600 X41.78 Y86.328 E64.68895
G0 F4320 X42.275 Y86.328
G1 F3600 X14.422 Y58.474 E66.19643
G0 F4320 X14.422 Y57.979
G1 F3600 X42.77 Y86.328 E67.73071
G0 F4320 X43.265 Y86.328
G1 F3600 X14.422 Y57.484 E69.29177
G0 F4320 X14.422 Y56.989
G1 F3600 X43.76 Y86.328 E70.87963
G0 F4320 X44.255 Y86.328
G1 F3600 X14.422 Y56.495 E72.49424
G0 F4320 X14.422 Y56
G1 F3600 X44.75 Y86.328 E74.13565
G0 F4320 X45.245 Y86.328
G1 F3600 X14.837 Y55.92 E75.78139
G0 F4320 X15.332 Y55.92
G1 F3600 X45.74 Y86.328 E77.42713
G0 F4320 X46.235 Y86.328
G1 F3600 X15.827 Y55.92 E79.07286
G0 F4320 X16.322 Y55.92
G1 F3600 X46.73 Y86.328 E80.7186
G0 F4320 X47.225 Y86.328
G1 F3600 X16.817 Y55.92 E82.36434
G0 F4320 X17.312 Y55.92
G1 F3600 X47.72 Y86.328 E84.01008
G0 F4320 X48.215 Y86.328
G1 F3600 X17.807 Y55.92 E85.65582
G0 F4320 X18.302 Y55.92
G1 F3600 X48.71 Y86.328 E87.30155
G0 F4320 X49.205 Y86.328
G1 F3600 X18.797 Y55.92 E88.94729
G0 F4320 X19.292 Y55.92
G1 F3600 X49.7 Y86.328 E90.59303
G0 F4320 X50.195 Y86.328
G1 F3600 X19.787 Y55.92 E92.23877
G0 F4320 X20.215 Y55.853
G1 F3600 X50.69 Y86.328 E93.88813
G0 F4320 X51.185 Y86.328
G1 F3600 X20.215 Y55.358 E95.56429
G0 F4320 X20.215 Y54.863
G1 F3600 X51.68 Y86.328 E97.26723
G0 F4320 X52.175 Y86.328
G1 F3600 X20.215 Y54.368 E98.99697
G0 F4320 X20.215 Y53.873
G1 F3600 X52.67 Y86.328 E100.75349
G0 F4320 X53.165 Y86.328
G1 F3600 X20.215 Y53.378 E102.53681
G0 F4320 X20.215 Y52.883
G1 F3600 X53.66 Y86.328 E104.34691
G0 F4320 X54.155 Y86.328
G1 F3600 X20.215 Y52.388 E106.18381
G0 F4320 X20.215 Y51.893
G1 F3600 X54.65 Y86.328 E108.0475
G0 F4320 X55.145 Y86.328
G1 F3600 X20.215 Y51.398 E109.93797
G0 F4320 X20.215 Y50.903
G1 F3600 X55.64 Y86.328 E111.85524
G0 F4320 X56.135 Y86.328
G1 F3600 X20.215 Y50.408 E113.7993
G0 F4320 X20.215 Y49.913
G1 F3600 X56.63 Y86.328 E115.77015
G0 F4320 X57.125 Y86.328
G1 F3600 X20.215 Y49.418 E117.76778
G0 F4320 X20.215 Y48.924
G1 F3600 X57.62 Y86.328 E119.79219
G0 F4320 X58.114 Y86.328
