;FLAVOR:Marlin
;TIME:9392
;Filament used: 3.79878m
;Layer height: 0.13125
;MINX:49.2
;MINY:41.335
;MINZ:0.263
;MAXX:71.665
;MAXY:78.665
;MAXZ:66.942
;Generated with Cura_SteamEngine mb-master-20191108
M140 S65
M105
M190 S65
M104 S205
M105
M109 S205
M82 ;absolute extrusion mode
G21;(metric values)
G90;(absolute positioning)
M82;(set extruder to absolute mode)
M107;(start with the fan off)
G28;(Home the printer)
G92 E0;(Reset the extruder to 0)
G0 Z5 E5 F500;(Move up and prime the nozzle)
G0 X-1 Z0;(Move outside the printable area)
G1 Y60 E8 F500;(Draw a priming/wiping line to the rear)
G1 X-1;(Move a little closer to the print area)
G1 Y10 E16 F500;(draw more priming/wiping)
G1 E15 F250;(Small retract)
G92 E0;(Zero the extruder)
G92 E0
G92 E0
G1 F2400 E-2.5
;LAYER_COUNT:510
;LAYER:0
M107
;MESH:PiZeroCase.stl
G0 F4320 X52.125 Y54.625 Z0.263
;TYPE:WALL-INNER
G1 F2400 E0
G1 F1800 X52.125 Y69.375 E0.56448
G1 X55.375 Y69.375 E0.68886
G1 X55.375 Y54.625 E1.25334
G1 X52.819 Y54.625 E1.35116
G0 F1620 X52.125 Y54.625
G1 F2400 E-1.14884
G0 F4320 X54.903 Y55.097
G0 X55.546 Y69.546
G0 X56.94 Y69.546
G0 X57.125 Y76.125
G1 F2400 E1.35116
G1 F1800 X49.875 Y76.125 E1.62862
G1 X49.875 Y42.875 E2.90109
G1 X57.125 Y42.875 E3.17855
G1 X57.125 Y75.431 E4.42446
G0 F1620 X57.125 Y76.125
G0 F4320 X57.475 Y76.475
G1 F1800 X49.525 Y76.475 E4.72871
G1 X49.525 Y42.525 E6.02798
G1 X57.475 Y42.525 E6.33222
G1 X57.475 Y75.781 E7.60493
G0 F1620 X57.475 Y76.475
G1 F2400 E5.10493
G0 F4320 X56.94 Y54.975
G0 X55.54 Y54.975
G0 X52.475 Y54.975
G1 F2400 E7.60493
G1 F1800 X52.475 Y69.025 E8.14262
G1 X55.025 Y69.025 E8.24021
G1 X55.025 Y54.975 E8.7779
G1 X53.169 Y54.975 E8.84893
G0 F1620 X52.475 Y54.975
G0 F4320 X52.8 Y55.3
;TYPE:WALL-OUTER
G1 F1800 X52.8 Y68.7 E9.36175
G1 X54.7 Y68.7 E9.43446
G1 X54.7 Y55.3 E9.94728
G1 X53.494 Y55.3 E9.99343
G0 F1620 X52.8 Y55.3
G0 F4320 X52.8 Y55.5
G1 F2400 E7.49343
G0 F4320 X52.525 Y55.5
G0 X54.903 Y55.097
G0 X55.546 Y69.546
G0 X56.94 Y69.546
G0 X57.525 Y76.555
G0 X57.8 Y76.8
G1 F2400 E9.99343
G1 F1800 X49.2 Y76.8 E10.32255
G1 X49.2 Y42.2 E11.64669
G1 X57.8 Y42.2 E11.97581
G1 X57.8 Y76.106 E13.27339
G0 F1620 X57.8 Y76.8
G0 F4320 X57.6 Y76.8
G0 X57.6 Y76.525
G0 X57.04 Y75.785
G0 X56.785 Y75.785
;TYPE:SKIN
G1 F1800 X50.215 Y75.785 E13.52483
G1 X50.215 Y43.215 E14.77128
G1 X56.785 Y43.215 E15.02271
G1 X56.785 Y75.091 E16.24261
G0 F1620 X56.785 Y75.785
G1 F2400 E13.74261
G0 F4320 X57.04 Y75.785
G0 X56.94 Y69.49
G0 X55.54 Y69.49
G0 X55.715 Y69.715
G1 F2400 E16.24261
G1 F1800 X55.715 Y54.285 E16.83311
G1 X51.785 Y54.285 E16.98351
G1 X51.785 Y69.715 E17.57402
G1 X55.021 Y69.715 E17.69786
G0 F1620 X55.715 Y69.715
G1 F2400 E15.19786
G0 F4320 X55.46 Y69.49
G0 X52.597 Y68.903
G0 X51.98 Y67.573
G0 X53.665 Y67.573
G0 X51.954 Y77.665
G0 X51.954 Y75.94
G0 X50.878 Y76.04
G0 X50.878 Y75.627
G1 F2400 E17.69786
G1 F1800 X50.371 Y75.12 E17.7253
G0 F4320 X50.371 Y74.625
G1 F1800 X51.373 Y75.627 E17.77953
G0 F4320 X51.868 Y75.627
G1 F1800 X50.371 Y74.13 E17.86055
G0 F4320 X50.371 Y73.635
G1 F1800 X52.363 Y75.627 E17.96836
G0 F4320 X52.858 Y75.627
G1 F1800 X50.371 Y73.14 E18.10296
G0 F4320 X50.371 Y72.645
G1 F1800 X53.353 Y75.627 E18.26435
G0 F4320 X53.848 Y75.627
G1 F1800 X50.371 Y72.15 E18.45253
G0 F4320 X50.371 Y71.655
G1 F1800 X54.343 Y75.627 E18.66751
G0 F4320 X54.838 Y75.627
G1 F1800 X50.371 Y71.16 E18.90927
G0 F4320 X50.371 Y70.665
G1 F1800 X55.333 Y75.627 E19.17782
G0 F4320 X55.828 Y75.627
G1 F1800 X50.371 Y70.17 E19.47316
G0 F4320 X50.371 Y69.675
G1 F1800 X56.323 Y75.627 E19.7953
G0 F4320 X56.627 Y75.436
G1 F1800 X50.371 Y69.18 E20.13388
G0 F4320 X50.371 Y68.685
G1 F1800 X56.627 Y74.942 E20.4725
G0 F4320 X56.627 Y74.447
G1 F1800 X52.052 Y69.871 E20.72013
G0 F4320 X52.547 Y69.871
G1 F1800 X56.627 Y73.952 E20.94098
G0 F4320 X56.627 Y73.457
G1 F1800 X53.042 Y69.871 E21.13503
G0 F4320 X53.537 Y69.871
G1 F1800 X56.627 Y72.962 E21.30229
G0 F4320 X56.627 Y72.467
G1 F1800 X54.032 Y69.871 E21.44277
G0 F4320 X54.527 Y69.871
G1 F1800 X56.627 Y71.972 E21.55645
G0 F4320 X56.627 Y71.477
G1 F1800 X55.022 Y69.871 E21.64334
G0 F4320 X55.517 Y69.871
G1 F1800 X56.627 Y70.982 E21.70345
G0 F4320 X56.627 Y70.487
G1 F1800 X55.871 Y69.73 E21.74439
G0 F4320 X55.871 Y69.235
G1 F1800 X56.627 Y69.992 E21.78533
G0 F4320 X56.627 Y69.497
G1 F1800 X55.871 Y68.74 E21.82628
G0 F4320 X55.871 Y68.245
G1 F1800 X56.627 Y69.002 E21.86722
G0 F4320 X56.627 Y68.507
G1 F1800 X55.871 Y67.75 E21.90816
G0 F4320 X55.871 Y67.255
G1 F1800 X56.627 Y68.012 E21.9491
G0 F4320 X56.627 Y67.517
G1 F1800 X55.871 Y66.76 E21.99005
G0 F4320 X55.871 Y66.265
G1 F1800 X56.627 Y67.022 E22.03099
G0 F4320 X56.627 Y66.527
G1 F1800 X55.871 Y65.77 E22.07193
G0 F4320 X55.871 Y65.275
G1 F1800 X56.627 Y66.032 E22.11288
G0 F4320 X56.627 Y65.537
G1 F1800 X55.871 Y64.78 E22.15382
G0 F4320 X55.871 Y64.285
G1 F1800 X56.627 Y65.042 E22.19476
G0 F4320 X56.627 Y64.547
G1 F1800 X55.871 Y63.79 E22.23571
G0 F4320 X55.871 Y63.295
G1 F1800 X56.627 Y64.052 E22.27665
G0 F4320 X56.627 Y63.557
G1 F1800 X55.871 Y62.8 E22.31759
G0 F4320 X55.871 Y62.306
G1 F1800 X56.627 Y63.062 E22.35851
G0 F4320 X56.627 Y62.567
G1 F1800 X55.871 Y61.811 E22.39943
G0 F4320 X55.871 Y61.316
G1 F1800 X56.627 Y62.072 E22.44034
G0 F4320 X56.627 Y61.577
G1 F1800 X55.871 Y60.821 E22.48126
G0 F4320 X55.871 Y60.326
G1 F1800 X56.627 Y61.082 E22.52217
G0 F4320 X56.627 Y60.587
G1 F1800 X55.871 Y59.831 E22.56309
G0 F4320 X55.871 Y59.336
G1 F1800 X56.627 Y60.092 E22.60401
G0 F4320 X56.627 Y59.597
G1 F1800 X55.871 Y58.841 E22.64492
G0 F4320 X55.871 Y58.346
G1 F1800 X56.627 Y59.102 E22.68584
G0 F4320 X56.627 Y58.607
G1 F1800 X55.871 Y57.851 E22.72675
G0 F4320 X55.871 Y57.356
G1 F1800 X56.627 Y58.112 E22.76767
G0 F4320 X56.627 Y57.617
G1 F1800 X55.871 Y56.861 E22.80859
G0 F4320 X55.871 Y56.366
G1 F1800 X56.627 Y57.122 E22.8495
G0 F4320 X56.627 Y56.627
G1 F1800 X55.871 Y55.871 E22.89042
G0 F4320 X55.871 Y55.376
G1 F1800 X56.627 Y56.132 E22.93134
G0 F4320 X56.627 Y55.637
G1 F1800 X55.871 Y54.881 E22.97225
G0 F4320 X55.871 Y54.386
G1 F1800 X56.627 Y55.143 E23.01319
G0 F4320 X56.627 Y54.648
G1 F1800 X50.371 Y48.391 E23.35181
G0 F4320 X50.371 Y47.896
G1 F1800 X56.627 Y54.153 E23.69042
G0 F4320 X56.627 Y53.658
G1 F1800 X50.371 Y47.401 E24.02904
G0 F4320 X50.371 Y46.906
G1 F1800 X56.627 Y53.163 E24.36765
G0 F4320 X56.627 Y52.668
G1 F1800 X50.371 Y46.411 E24.70626
G0 F4320 X50.371 Y45.916
G1 F1800 X56.627 Y52.173 E25.04488
G0 F4320 X56.627 Y51.678
G1 F1800 X50.371 Y45.421 E25.38349
G0 F4320 X50.371 Y44.926
G1 F1800 X56.627 Y51.183 E25.7221
G0 F4320 X56.627 Y50.688
G1 F1800 X50.371 Y44.431 E26.06072
G0 F4320 X50.371 Y43.936
G1 F1800 X56.627 Y50.193 E26.39933
G0 F4320 X56.627 Y49.698
G1 F1800 X50.371 Y43.441 E26.73794
G0 F4320 X50.797 Y43.372
G1 F1800 X56.627 Y49.203 E27.0535
G0 F4320 X56.627 Y48.708
G1 F1800 X51.292 Y43.372 E27.34227
G0 F4320 X51.787 Y43.372
G1 F1800 X56.627 Y48.213 E27.60425
G0 F4320 X56.627 Y47.718
G1 F1800 X52.282 Y43.372 E27.83943
G0 F4320 X52.777 Y43.372
G1 F1800 X56.627 Y47.223 E28.04783
G0 F4320 X56.627 Y46.728
G1 F1800 X53.272 Y43.372 E28.22943
G0 F4320 X53.766 Y43.372
G1 F1800 X56.627 Y46.233 E28.38428
G0 F4320 X56.627 Y45.738
G1 F1800 X54.261 Y43.372 E28.51233
G0 F4320 X54.756 Y43.372
G1 F1800 X56.627 Y45.243 E28.61359
G0 F4320 X56.627 Y44.748
G1 F1800 X55.251 Y43.372 E28.68806
G0 F4320 X55.746 Y43.372
G1 F1800 X56.627 Y44.253 E28.73574
G0 F4320 X56.627 Y43.758
G1 F1800 X56.241 Y43.372 E28.75664
G0 F4320 X56.241 Y42.96
G0 X50.032 Y43.032
G0 X49.96 Y48.886
G0 X50.371 Y48.886
G1 F1800 X55.611 Y54.126 E29.04023
G0 F4320 X55.116 Y54.126
G1 F1800 X50.371 Y49.381 E29.29704
G0 F4320 X50.371 Y49.876
G1 F1800 X54.621 Y54.126 E29.52706
G0 F4320 X54.126 Y54.126
G1 F1800 X50.371 Y50.371 E29.73029
G0 F4320 X50.371 Y50.866
G1 F1800 X53.631 Y54.126 E29.90672
G0 F4320 X53.136 Y54.126
G1 F1800 X50.371 Y51.361 E30.05637
G0 F4320 X50.371 Y51.856
G1 F1800 X52.641 Y54.126 E30.17923
G0 F4320 X52.147 Y54.126
G1 F1800 X50.371 Y52.351 E30.27532
G0 F4320 X50.371 Y52.846
G1 F1800 X51.652 Y54.126 E30.34462
G0 F4320 X51.627 Y54.597
G1 F1800 X50.371 Y53.341 E30.4126
G0 F4320 X50.371 Y53.836
G1 F1800 X51.627 Y55.092 E30.48058
G0 F4320 X51.627 Y55.587
G1 F1800 X50.371 Y54.331 E30.54856
G0 F4320 X50.371 Y54.826
G1 F1800 X51.627 Y56.082 E30.61653
G0 F4320 X51.627 Y56.577
G1 F1800 X50.371 Y55.321 E30.68451
G0 F4320 X50.371 Y55.816
G1 F1800 X51.627 Y57.072 E30.75249
G0 F4320 X51.627 Y57.567
G1 F1800 X50.371 Y56.311 E30.82046
G0 F4320 X50.371 Y56.806
G1 F1800 X51.627 Y58.062 E30.88844
G0 F4320 X51.627 Y58.557
G1 F1800 X50.371 Y57.301 E30.95642
G0 F4320 X50.371 Y57.796
G1 F1800 X51.627 Y59.052 E31.0244
G0 F4320 X51.627 Y59.547
G1 F1800 X50.371 Y58.291 E31.09237
G0 F4320 X50.371 Y58.786
G1 F1800 X51.627 Y60.042 E31.16035
G0 F4320 X51.627 Y60.537
G1 F1800 X50.371 Y59.281 E31.22833
G0 F4320 X50.371 Y59.775
G1 F1800 X51.627 Y61.032 E31.29633
G0 F4320 X51.627 Y61.527
G1 F1800 X50.371 Y60.27 E31.36434
G0 F4320 X50.371 Y60.765
G1 F1800 X51.627 Y62.022 E31.43234
G0 F4320 X51.627 Y62.517
G1 F1800 X50.371 Y61.26 E31.50034
G0 F4320 X50.371 Y61.755
G1 F1800 X51.627 Y63.012 E31.56835
G0 F4320 X51.627 Y63.507
G1 F1800 X50.371 Y62.25 E31.63635
G0 F4320 X50.371 Y62.745
G1 F1800 X51.627 Y64.002 E31.70436
G0 F4320 X51.627 Y64.497
G1 F1800 X50.371 Y63.24 E31.77236
G0 F4320 X50.371 Y63.735
G1 F1800 X51.627 Y64.992 E31.84036
G0 F4320 X51.627 Y65.487
G1 F1800 X50.371 Y64.23 E31.90837
G0 F4320 X50.371 Y64.725
G1 F1800 X51.627 Y65.982 E31.97637
G0 F4320 X51.627 Y66.477
G1 F1800 X50.371 Y65.22 E32.04438
G0 F4320 X50.371 Y65.715
G1 F1800 X51.627 Y66.972 E32.11238
G0 F4320 X51.627 Y67.467
G1 F1800 X50.371 Y66.21 E32.18038
G0 F4320 X50.371 Y66.705
G1 F1800 X51.627 Y67.962 E32.24839
G0 F4320 X51.627 Y68.457
G1 F1800 X50.371 Y67.2 E32.31639
G0 F4320 X50.371 Y67.695
G1 F1800 X51.627 Y68.952 E32.3844
G0 F4320 X51.627 Y69.447
G1 F1800 X50.371 Y68.19 E32.4524
G1 X50.309 Y68.128
G0 F4320 X49.725 Y68.128
G1 F2400 E29.9524
G0 F4320 X50.032 Y75.968
G0 X57.611 Y76.611
G0 X58.665 Y76.611
G0 X60.835 Y76.611
G0 X61.895 Y76.611
G0 X62.532 Y76.968
G0 X70.125 Y77.125
;TYPE:WALL-INNER
G1 F2400 E32.4524
G1 F1800 X62.375 Y77.125 E32.74899
G1 X62.375 Y43.875 E34.02147
G1 X70.125 Y43.875 E34.31806
G1 X70.125 Y76.431 E35.56398
G0 F1620 X70.125 Y77.125
G1 F2400 E33.06398
G0 F4320 X69.94 Y50.125
G0 X71.665 Y50.125
G0 X64.927 Y51.665
G0 X64.927 Y49.98
G0 X63.125 Y50.125
G1 F2400 E35.56398
G1 F1800 X63.125 Y70.875 E36.35808
G1 X66.875 Y70.875 E36.50159
G1 X66.875 Y50.125 E37.29569
G1 X63.819 Y50.125 E37.41265
G0 F1620 X63.125 Y50.125
G0 F4320 X63.475 Y50.475
G1 F1800 X63.475 Y70.525 E38.17996
G1 X66.525 Y70.525 E38.29668
G1 X66.525 Y50.475 E39.06399
G1 X64.169 Y50.475 E39.15416
G0 F1620 X63.475 Y50.475
G1 F2400 E36.65416
G0 F4320 X66.403 Y50.597
G0 X67.02 Y55.901
G0 X65.335 Y55.901
G0 X71.665 Y71.046
G0 X69.94 Y71.046
G0 X70.475 Y77.475
G1 F2400 E39.15416
G1 F1800 X62.025 Y77.475 E39.47754
G1 X62.025 Y43.525 E40.7768
G1 X70.475 Y43.525 E41.10018
G1 X70.475 Y76.781 E42.37289
G0 F1620 X70.475 Y77.475
G0 F4320 X70.8 Y77.8
;TYPE:WALL-OUTER
G1 F1800 X61.7 Y77.8 E42.72115
G1 X61.7 Y43.2 E44.04529
G1 X70.8 Y43.2 E44.39354
G1 X70.8 Y77.106 E45.69112
G0 F1620 X70.8 Y77.8
G0 F4320 X70.6 Y77.8
G1 F2400 E43.19112
G0 F4320 X70.525 Y77.525
G0 X69.94 Y50.525
G0 X71.665 Y50.525
G0 X64.927 Y51.665
G0 X64.927 Y49.98
G0 X63.8 Y50.525
G0 X63.8 Y50.8
G1 F2400 E45.69112
G1 F1800 X63.8 Y70.2 E46.43356
G1 X66.2 Y70.2 E46.52541
G1 X66.2 Y50.8 E47.26784
G1 X64.494 Y50.8 E47.33313
G0 F1620 X63.8 Y50.8
G0 F4320 X63.8 Y51
G0 X63.525 Y51
G0 X63.01 Y50.01
G0 X62.785 Y49.785
;TYPE:SKIN
G1 F1800 X62.785 Y71.215 E48.15326
G1 X67.215 Y71.215 E48.32279
G1 X67.215 Y49.785 E49.14292
G1 X63.479 Y49.785 E49.28589
G0 F1620 X62.785 Y49.785
G1 F2400 E46.78589
G0 F4320 X63.01 Y50.04
G0 X62.532 Y44.032
G0 X62.715 Y44.215
G1 F2400 E49.28589
G1 F1800 X69.785 Y44.215 E49.55646
G1 X69.785 Y76.785 E50.80292
G1 X62.715 Y76.785 E51.07348
G1 X62.715 Y44.909 E52.29338
G0 F1620 X62.715 Y44.215
G0 F4320 X62.715 Y43.96
G0 X69.121 Y43.96
G0 X69.121 Y44.372
G1 F1800 X69.628 Y44.879 E52.32082
G0 F4320 X69.628 Y45.374
G1 F1800 X68.626 Y44.372 E52.37505
G0 F4320 X68.131 Y44.372
G1 F1800 X69.628 Y45.869 E52.45607
G0 F4320 X69.628 Y46.364
G1 F1800 X67.636 Y44.372 E52.56388
G0 F4320 X67.141 Y44.372
G1 F1800 X69.628 Y46.859 E52.69848
G0 F4320 X69.628 Y47.354
G1 F1800 X66.646 Y44.372 E52.85987
G0 F4320 X66.151 Y44.372
G1 F1800 X69.628 Y47.849 E53.04805
G0 F4320 X69.628 Y48.344
G1 F1800 X65.656 Y44.372 E53.26302
G0 F4320 X65.161 Y44.372
G1 F1800 X69.628 Y48.839 E53.50479
G0 F4320 X69.628 Y49.334
G1 F1800 X64.666 Y44.372 E53.77334
G0 F4320 X64.171 Y44.372
G1 F1800 X69.628 Y49.829 E54.06868
G0 F4320 X69.628 Y50.324
G1 F1800 X63.676 Y44.372 E54.39082
G0 F4320 X63.181 Y44.372
G1 F1800 X69.628 Y50.819 E54.73974
G0 F4320 X69.628 Y51.314
G1 F1800 X62.87 Y44.556 E55.1055
G0 F4320 X62.87 Y45.051
G1 F1800 X69.628 Y51.809 E55.47125
G0 F4320 X69.628 Y52.303
G1 F1800 X67.371 Y50.046 E55.5934
G0 F4320 X67.371 Y50.541
G1 F1800 X69.628 Y52.798 E55.71556
G0 F4320 X69.628 Y53.293
G1 F1800 X67.371 Y51.036 E55.83771
G0 F4320 X67.371 Y51.531
G1 F1800 X69.628 Y53.788 E55.95986
G0 F4320 X69.628 Y54.283
G1 F1800 X67.371 Y52.026 E56.08202
G0 F4320 X67.371 Y52.521
G1 F1800 X69.628 Y54.778 E56.20417
G0 F4320 X69.628 Y55.273
G1 F1800 X67.371 Y53.016 E56.32632
G0 F4320 X67.371 Y53.511
G1 F1800 X69.628 Y55.768 E56.44848
G0 F4320 X69.628 Y56.263
G1 F1800 X67.371 Y54.006 E56.57063
G0 F4320 X67.371 Y54.501
G1 F1800 X69.628 Y56.758 E56.69278
G0 F4320 X69.628 Y57.253
G1 F1800 X67.371 Y54.996 E56.81493
G0 F4320 X67.371 Y55.491
G1 F1800 X69.628 Y57.748 E56.93709
G0 F4320 X69.628 Y58.243
G1 F1800 X67.371 Y55.986 E57.05924
G0 F4320 X67.371 Y56.481
G1 F1800 X69.628 Y58.738 E57.18139
G0 F4320 X69.628 Y59.233
G1 F1800 X67.371 Y56.976 E57.30355
G0 F4320 X67.371 Y57.471
G1 F1800 X69.628 Y59.728 E57.4257
G0 F4320 X69.628 Y60.223
G1 F1800 X67.371 Y57.966 E57.54785
G0 F4320 X67.371 Y58.461
G1 F1800 X69.628 Y60.718 E57.67001
G0 F4320 X69.628 Y61.213
G1 F1800 X67.371 Y58.956 E57.79216
G0 F4320 X67.371 Y59.451
G1 F1800 X69.628 Y61.708 E57.91431
G0 F4320 X69.628 Y62.203
G1 F1800 X67.371 Y59.946 E58.03646
G0 F4320 X67.371 Y60.441
G1 F1800 X69.628 Y62.698 E58.15862
G0 F4320 X69.628 Y63.193
G1 F1800 X67.371 Y60.936 E58.28077
G0 F4320 X67.371 Y61.431
G1 F1800 X69.628 Y63.688 E58.40292
G0 F4320 X69.628 Y64.183
G1 F1800 X67.371 Y61.926 E58.52508
G0 F4320 X67.371 Y62.421
G1 F1800 X69.628 Y64.678 E58.64723
G0 F4320 X69.628 Y65.173
G1 F1800 X67.371 Y62.916 E58.76938
G0 F4320 X67.371 Y63.411
G1 F1800 X69.628 Y65.668 E58.89154
G0 F4320 X69.628 Y66.163
G1 F1800 X67.371 Y63.906 E59.01369
G0 F4320 X67.371 Y64.401
G1 F1800 X69.628 Y66.658 E59.13584
G0 F4320 X69.628 Y67.153
G1 F1800 X67.371 Y64.896 E59.258
G0 F4320 X67.371 Y65.391
G1 F1800 X69.628 Y67.648 E59.38015
G0 F4320 X69.628 Y68.143
G1 F1800 X67.371 Y65.886 E59.5023
G0 F4320 X67.371 Y66.381
G1 F1800 X69.628 Y68.638 E59.62445
G0 F4320 X69.628 Y69.133
G1 F1800 X67.371 Y66.876 E59.74661
G0 F4320 X67.371 Y67.371
G1 F1800 X69.628 Y69.628 E59.86876
G0 F4320 X69.628 Y70.123
G1 F1800 X67.371 Y67.865 E59.99094
G0 F4320 X67.371 Y68.36
G1 F1800 X69.628 Y70.618 E60.11312
G0 F4320 X69.628 Y71.113
G1 F1800 X67.371 Y68.855 E60.2353
G0 F4320 X67.371 Y69.35
G1 F1800 X69.628 Y71.607 E60.35745
G0 F4320 X69.628 Y72.102
G1 F1800 X67.371 Y69.845 E60.47961
G0 F4320 X67.371 Y70.34
G1 F1800 X69.628 Y72.597 E60.60176
G0 F4320 X69.628 Y73.092
G1 F1800 X67.371 Y70.835 E60.72391
G0 F4320 X67.371 Y71.33
G1 F1800 X69.628 Y73.587 E60.84607
G0 F4320 X69.628 Y74.082
G1 F1800 X66.916 Y71.371 E60.99282
G0 F4320 X66.421 Y71.371
G1 F1800 X69.628 Y74.577 E61.16636
G0 F4320 X69.628 Y75.072
G1 F1800 X65.926 Y71.371 E61.36669
G0 F4320 X65.431 Y71.371
G1 F1800 X69.628 Y75.567 E61.59381
G0 F4320 X69.628 Y76.062
G1 F1800 X64.936 Y71.371 E61.84773
G0 F4320 X64.441 Y71.371
G1 F1800 X69.628 Y76.557 E62.12843
G0 F4320 X69.202 Y76.627
G1 F1800 X63.946 Y71.371 E62.41289
G0 F4320 X63.451 Y71.371
G1 F1800 X68.707 Y76.627 E62.69736
